; generated by PrusaSlicer 2.3.0-beta3+win64 on 2021-01-02 at 09:31:07 UTC

; 

; external perimeters extrusion width = 0.45mm
; perimeters extrusion width = 0.45mm
; infill extrusion width = 0.45mm
; solid infill extrusion width = 0.45mm
; top infill extrusion width = 0.40mm
; support material extrusion width = 0.38mm
; first layer extrusion width = 0.42mm

M201 X500 Y500 Z100 E5000 ; sets maximum accelerations, mm/sec^2
M203 X500 Y500 Z10 E60 ; sets maximum feedrates, mm/sec
M204 P500 R1000 T500 ; sets acceleration (P, T) and retract acceleration (R), mm/sec^2
M205 X8.00 Y8.00 Z0.40 E5.00 ; sets the jerk limits, mm/sec
M205 S0 T0 ; sets the minimum extruding and travel feed rate, mm/sec
M107
;TYPE:Custom
G90 ; use absolute coordinates
M83 ; extruder relative mode
M104 S210 ; set extruder temp
M140 S60 ; set bed temp
M190 S60 ; wait for bed temp
M109 S210 ; wait for extruder temp
G28 ; home all
G1 Z2 F240
G1 X2 Y10 F3000
G1 Z0.28 F240
G92 E0
G1 Y190 E15 F1500 ; intro line
G1 X2.3 F5000
G92 E0
G1 Y10 E15 F1200 ; intro line
G92 E0
G21 ; set units to millimeters
G90 ; use absolute coordinates
M83 ; use relative distances for extrusion
; Filament gcode
;LAYER_CHANGE
;Z:0.2
;HEIGHT:0.2
;BEFORE_LAYER_CHANGE
G92 E0
;0.2


G1 E-5.00000 F3600.000
G1 Z0.200 F9000.000
;AFTER_LAYER_CHANGE
;0.2
G1 X96.485 Y95.351
G1 E5.00000 F2400.000
;TYPE:Skirt
;WIDTH:0.42
G1 F1200.000
G1 X97.377 Y95.126 E0.02884
G1 X131.255 Y93.785 E1.06305
G1 X136.620 Y93.783 E0.16823
G1 X137.459 Y93.938 E0.02673
G1 X138.186 Y94.375 E0.02661
G1 X138.713 Y95.040 E0.02661
G1 X138.973 Y95.848 E0.02661
G1 X138.992 Y111.718 E0.49760
G1 X135.847 Y133.877 E0.70173
G1 X135.640 Y134.536 E0.02166
G1 X135.251 Y135.107 E0.02166
G1 X134.656 Y135.577 E0.02378
G1 X133.946 Y135.835 E0.02367
G1 X111.209 Y139.712 E0.72320
G1 X96.555 Y139.722 E0.45948
G1 X95.740 Y139.544 E0.02614
G1 X95.040 Y139.099 E0.02602
G1 X94.516 Y138.402 E0.02731
G1 X94.279 Y137.568 E0.02720
G1 X94.269 Y130.921 E0.20842
G1 X95.125 Y97.401 E1.05132
G1 X95.304 Y96.591 E0.02602
G1 X95.747 Y95.894 E0.02590
G1 X96.437 Y95.386 E0.02684
G1 E-3.50000 F3600.000
;WIPE_START
G1 F7200.000
G1 X97.377 Y95.126 E-0.46338
G1 X99.400 Y95.046 E-0.96162
;WIPE_END
G1 E-0.07500 F3600.000
G1 X135.197 Y113.354 F9000.000
G1 E5.00000 F2400.000
G1 F1200.000
G1 X135.197 Y133.802 E0.64114
G1 X135.056 Y134.258 E0.01496
G1 X134.902 Y134.498 E0.00892
G1 X134.496 Y134.904 E0.01800
G1 X134.346 Y135.012 E0.00579
G1 X133.801 Y135.197 E0.01806
G1 X112.861 Y135.197 E0.65658
G1 X112.861 Y137.631 E0.07634
G1 X112.816 Y137.863 E0.00740
G1 X112.577 Y138.332 E0.01650
G1 X112.150 Y138.760 E0.01896
G1 X111.725 Y138.984 E0.01507
G1 X111.520 Y139.036 E0.00663
G1 X110.631 Y139.032 E0.02785
G1 X110.459 Y139.062 E0.00547
G1 X109.218 Y139.062 E0.03891
G1 X109.090 Y139.039 E0.00410
G1 X108.961 Y139.062 E0.00410
G1 X107.710 Y139.062 E0.03923
G1 X107.581 Y139.039 E0.00410
G1 X107.453 Y139.062 E0.00410
G1 X106.202 Y139.062 E0.03923
G1 X106.073 Y139.039 E0.00410
G1 X105.944 Y139.062 E0.00410
G1 X104.693 Y139.062 E0.03923
G1 X104.565 Y139.039 E0.00410
G1 X104.436 Y139.062 E0.00410
G1 X103.185 Y139.062 E0.03923
G1 X103.056 Y139.039 E0.00410
G1 X102.928 Y139.062 E0.00410
G1 X101.677 Y139.062 E0.03923
G1 X101.548 Y139.039 E0.00410
G1 X101.419 Y139.062 E0.00410
G1 X100.168 Y139.062 E0.03923
G1 X100.040 Y139.039 E0.00410
G1 X99.911 Y139.062 E0.00410
G1 X98.660 Y139.062 E0.03923
G1 X98.531 Y139.039 E0.00410
G1 X98.403 Y139.062 E0.00410
G1 X97.162 Y139.062 E0.03891
G1 X96.990 Y139.032 E0.00547
G1 X96.102 Y139.036 E0.02785
G1 X95.896 Y138.984 E0.00663
G1 X95.471 Y138.759 E0.01508
G1 X95.006 Y138.282 E0.02089
G1 X94.902 Y138.106 E0.00643
G1 X94.761 Y137.649 E0.01500
G1 X94.761 Y130.705 E0.21772
G1 X94.927 Y130.140 E0.01845
G1 X95.103 Y129.847 E0.01071
G1 X95.557 Y129.398 E0.02002
G1 X95.803 Y129.260 E0.00886
G1 X95.803 Y97.198 E1.00529
G1 X95.944 Y96.742 E0.01496
G1 X96.098 Y96.502 E0.00892
G1 X96.504 Y96.096 E0.01800
G1 X96.654 Y95.988 E0.00579
G1 X97.199 Y95.803 E0.01806
G1 X129.464 Y95.803 E1.01166
G1 X129.517 Y95.593 E0.00679
G1 X129.745 Y95.118 E0.01654
G1 X130.156 Y94.675 E0.01892
G1 X130.417 Y94.491 E0.01002
G1 X130.958 Y94.296 E0.01804
G1 X132.362 Y94.279 E0.04402
G1 X132.475 Y94.296 E0.00359
G1 X132.598 Y94.275 E0.00390
G1 X133.848 Y94.275 E0.03920
G1 X133.977 Y94.298 E0.00410
G1 X134.106 Y94.275 E0.00410
G1 X135.357 Y94.275 E0.03923
G1 X135.485 Y94.298 E0.00410
G1 X135.618 Y94.275 E0.00422
G1 X136.942 Y94.286 E0.04150
G1 X137.584 Y94.517 E0.02141
G1 X137.790 Y94.668 E0.00800
G1 X138.111 Y94.988 E0.01422
G1 X138.336 Y95.343 E0.01318
G1 X138.502 Y95.907 E0.01842
G1 X138.502 Y111.941 E0.50274
G1 X138.361 Y112.397 E0.01496
G1 X138.207 Y112.636 E0.00892
G1 X137.791 Y113.052 E0.01845
G1 X137.367 Y113.276 E0.01502
G1 X137.080 Y113.336 E0.00922
G1 X136.273 Y113.324 E0.02530
G1 X136.101 Y113.354 E0.00547
G1 X135.257 Y113.354 E0.02646
G1 X134.820 Y112.977 F9000.000
G1 F1200.000
G1 X134.820 Y133.771 E0.65197
G1 X134.707 Y134.115 E0.01136
G1 X134.622 Y134.244 E0.00484
G1 X134.242 Y134.625 E0.01686
G1 X134.152 Y134.688 E0.00345
G1 X133.769 Y134.820 E0.01270
G1 X112.483 Y134.820 E0.66740
G1 X112.483 Y137.617 E0.08770
G1 X112.465 Y137.725 E0.00345
G1 X112.287 Y138.089 E0.01270
G1 X111.906 Y138.471 E0.01693
G1 X111.579 Y138.636 E0.01148
G1 X111.460 Y138.663 E0.00383
G1 X110.595 Y138.655 E0.02710
G1 X110.439 Y138.685 E0.00499
G1 X109.242 Y138.685 E0.03754
G1 X109.090 Y138.652 E0.00488
G1 X108.937 Y138.685 E0.00488
G1 X107.734 Y138.685 E0.03774
G1 X107.581 Y138.652 E0.00488
G1 X107.429 Y138.685 E0.00488
G1 X106.225 Y138.685 E0.03774
G1 X106.073 Y138.652 E0.00488
G1 X105.921 Y138.685 E0.00488
G1 X104.717 Y138.685 E0.03774
G1 X104.565 Y138.652 E0.00488
G1 X104.412 Y138.685 E0.00488
G1 X103.209 Y138.685 E0.03774
G1 X103.056 Y138.652 E0.00488
G1 X102.904 Y138.685 E0.00488
G1 X101.700 Y138.685 E0.03774
G1 X101.548 Y138.652 E0.00488
G1 X101.396 Y138.685 E0.00488
G1 X100.192 Y138.685 E0.03774
G1 X100.040 Y138.652 E0.00488
G1 X99.887 Y138.685 E0.00488
G1 X98.684 Y138.685 E0.03774
G1 X98.531 Y138.652 E0.00488
G1 X98.379 Y138.685 E0.00488
G1 X97.182 Y138.685 E0.03754
G1 X97.026 Y138.655 E0.00499
G1 X96.161 Y138.663 E0.02710
G1 X96.042 Y138.636 E0.00383
G1 X95.716 Y138.471 E0.01146
G1 X95.314 Y138.064 E0.01795
G1 X95.251 Y137.963 E0.00371
G1 X95.138 Y137.617 E0.01144
G1 X95.138 Y130.734 E0.21580
G1 X95.279 Y130.277 E0.01500
G1 X95.409 Y130.068 E0.00773
G1 X95.796 Y129.692 E0.01690
G1 X96.180 Y129.497 E0.01352
G1 X96.180 Y97.229 E1.01172
G1 X96.293 Y96.885 E0.01136
G1 X96.378 Y96.756 E0.00484
G1 X96.758 Y96.375 E0.01686
G1 X96.848 Y96.312 E0.00345
G1 X97.231 Y96.180 E0.01270
G1 X129.802 Y96.180 E1.02125
G1 X129.873 Y95.723 E0.01450
G1 X130.072 Y95.309 E0.01441
G1 X130.416 Y94.948 E0.01564
G1 X130.571 Y94.836 E0.00597
G1 X131.055 Y94.662 E0.01613
G1 X132.342 Y94.656 E0.04036
G1 X132.479 Y94.682 E0.00438
G1 X132.621 Y94.652 E0.00453
G1 X133.825 Y94.652 E0.03775
G1 X133.977 Y94.685 E0.00488
G1 X134.129 Y94.652 E0.00488
G1 X135.333 Y94.652 E0.03774
G1 X135.485 Y94.685 E0.00488
G1 X135.639 Y94.652 E0.00494
G1 X136.906 Y94.663 E0.03972
G1 X137.385 Y94.838 E0.01600
G1 X137.535 Y94.945 E0.00578
G1 X137.830 Y95.241 E0.01311
G1 X137.984 Y95.480 E0.00892
G1 X138.125 Y95.936 E0.01496
G1 X138.125 Y111.909 E0.50082
G1 X138.012 Y112.253 E0.01136
G1 X137.927 Y112.383 E0.00484
G1 X137.547 Y112.763 E0.01687
G1 X137.222 Y112.927 E0.01141
G1 X137.066 Y112.959 E0.00501
G1 X136.237 Y112.947 E0.02598
G1 X136.081 Y112.977 E0.00500
G1 X134.880 Y112.977 E0.03766
G1 X134.443 Y112.643 F9000.000
G1 F1200.000
G1 X134.443 Y133.736 E0.66136
G1 X134.343 Y133.990 E0.00856
G1 X133.963 Y134.361 E0.01666
G1 X133.736 Y134.443 E0.00757
G1 X112.106 Y134.443 E0.67817
G1 X112.106 Y137.596 E0.09887
G1 X111.997 Y137.846 E0.00856
G1 X111.664 Y138.179 E0.01477
G1 X111.411 Y138.289 E0.00863
G1 X110.554 Y138.277 E0.02689
G1 X110.416 Y138.308 E0.00444
G1 X109.271 Y138.308 E0.03589
G1 X109.090 Y138.260 E0.00588
G1 X108.908 Y138.308 E0.00588
G1 X107.763 Y138.308 E0.03592
G1 X107.581 Y138.260 E0.00588
G1 X107.400 Y138.308 E0.00588
G1 X106.254 Y138.308 E0.03592
G1 X106.073 Y138.260 E0.00588
G1 X105.892 Y138.308 E0.00588
G1 X104.746 Y138.308 E0.03592
G1 X104.565 Y138.260 E0.00588
G1 X104.383 Y138.308 E0.00588
G1 X103.238 Y138.308 E0.03592
G1 X103.056 Y138.260 E0.00588
G1 X102.875 Y138.308 E0.00588
G1 X101.729 Y138.308 E0.03592
G1 X101.548 Y138.260 E0.00588
G1 X101.367 Y138.308 E0.00588
G1 X100.221 Y138.308 E0.03592
G1 X100.040 Y138.260 E0.00588
G1 X99.858 Y138.308 E0.00588
G1 X98.713 Y138.308 E0.03592
G1 X98.531 Y138.260 E0.00588
G1 X98.350 Y138.308 E0.00588
G1 X97.205 Y138.308 E0.03589
G1 X97.067 Y138.277 E0.00444
G1 X96.210 Y138.289 E0.02689
G1 X95.957 Y138.179 E0.00863
G1 X95.596 Y137.809 E0.01622
G1 X95.515 Y137.582 E0.00757
G1 X95.515 Y130.766 E0.21370
G1 X95.628 Y130.422 E0.01136
G1 X95.711 Y130.294 E0.00477
G1 X96.032 Y129.988 E0.01391
G1 X96.314 Y129.855 E0.00978
G1 X96.557 Y129.812 E0.00776
G1 X96.557 Y97.264 E1.02051
G1 X96.657 Y97.010 E0.00856
G1 X97.037 Y96.639 E0.01666
G1 X97.264 Y96.557 E0.00757
G1 X130.206 Y96.557 E1.03286
G1 X130.206 Y95.968 E0.01848
G1 X130.225 Y95.857 E0.00352
G1 X130.367 Y95.545 E0.01075
G1 X130.675 Y95.223 E0.01396
G1 X130.763 Y95.161 E0.00338
G1 X131.146 Y95.029 E0.01269
G1 X132.316 Y95.033 E0.03668
G1 X132.486 Y95.071 E0.00548
G1 X132.649 Y95.029 E0.00528
G1 X133.796 Y95.029 E0.03594
G1 X133.977 Y95.077 E0.00588
G1 X134.158 Y95.029 E0.00588
G1 X135.304 Y95.029 E0.03592
G1 X135.485 Y95.077 E0.00588
G1 X135.666 Y95.029 E0.00586
G1 X136.868 Y95.040 E0.03771
G1 X137.188 Y95.160 E0.01071
G1 X137.280 Y95.224 E0.00352
G1 X137.550 Y95.494 E0.01197
G1 X137.635 Y95.624 E0.00484
G1 X137.748 Y95.968 E0.01136
G1 X137.748 Y111.874 E0.49872
G1 X137.648 Y112.128 E0.00856
G1 X137.305 Y112.472 E0.01522
G1 X137.086 Y112.575 E0.00759
G1 X136.195 Y112.569 E0.02793
G1 X136.057 Y112.600 E0.00444
G1 X134.912 Y112.600 E0.03589
G1 X134.726 Y112.550 E0.00606
G1 X134.500 Y112.624 E0.00745
G1 X134.731 Y112.151 F9000.000
G1 F1200.000
G1 X134.514 Y112.223 E0.00717
G1 X134.066 Y112.223 E0.01406
G1 X134.066 Y133.694 E0.67320
G1 X134.037 Y133.763 E0.00235
G1 X133.763 Y134.037 E0.01215
G1 X133.694 Y134.066 E0.00235
G1 X111.729 Y134.066 E0.68868
G1 X111.729 Y137.540 E0.10893
G1 X111.701 Y137.609 E0.00235
G1 X111.427 Y137.883 E0.01215
G1 X111.359 Y137.911 E0.00231
G1 X110.501 Y137.899 E0.02690
G1 X110.386 Y137.931 E0.00375
G1 X109.307 Y137.931 E0.03383
G1 X109.090 Y137.859 E0.00717
G1 X108.873 Y137.931 E0.00717
G1 X107.798 Y137.931 E0.03368
G1 X107.581 Y137.859 E0.00717
G1 X107.364 Y137.931 E0.00717
G1 X106.290 Y137.931 E0.03368
G1 X106.073 Y137.859 E0.00717
G1 X105.856 Y137.931 E0.00717
G1 X104.782 Y137.931 E0.03368
G1 X104.565 Y137.859 E0.00717
G1 X104.348 Y137.931 E0.00717
G1 X103.273 Y137.931 E0.03368
G1 X103.056 Y137.859 E0.00717
G1 X102.839 Y137.931 E0.00717
G1 X101.765 Y137.931 E0.03368
G1 X101.548 Y137.859 E0.00717
G1 X101.331 Y137.931 E0.00717
G1 X100.257 Y137.931 E0.03368
G1 X100.040 Y137.859 E0.00717
G1 X99.823 Y137.931 E0.00717
G1 X98.749 Y137.931 E0.03368
G1 X98.531 Y137.859 E0.00717
G1 X98.314 Y137.931 E0.00717
G1 X97.235 Y137.931 E0.03383
G1 X97.120 Y137.899 E0.00375
G1 X96.262 Y137.911 E0.02690
G1 X96.194 Y137.883 E0.00231
G1 X95.920 Y137.609 E0.01215
G1 X95.892 Y137.540 E0.00235
G1 X95.892 Y130.801 E0.21129
G1 X95.991 Y130.547 E0.00856
G1 X96.224 Y130.314 E0.01032
G1 X96.429 Y130.217 E0.00710
G1 X96.934 Y130.197 E0.01587
G1 X96.934 Y97.306 E1.03126
G1 X96.963 Y97.237 E0.00235
G1 X97.237 Y96.963 E0.01215
G1 X97.306 Y96.934 E0.00235
G1 X130.583 Y96.934 E1.04337
G1 X130.589 Y95.957 E0.03065
G1 X130.693 Y95.739 E0.00757
G1 X130.925 Y95.506 E0.01032
G1 X131.180 Y95.406 E0.00856
G1 X132.263 Y95.406 E0.03397
G1 X132.461 Y95.480 E0.00663
G1 X132.686 Y95.406 E0.00741
G1 X133.760 Y95.406 E0.03368
G1 X133.977 Y95.478 E0.00717
G1 X134.194 Y95.406 E0.00717
G1 X135.268 Y95.406 E0.03368
G1 X135.485 Y95.478 E0.00717
G1 X135.702 Y95.406 E0.00717
G1 X136.774 Y95.406 E0.03360
G1 X137.001 Y95.488 E0.00757
G1 X137.271 Y95.749 E0.01177
G1 X137.371 Y96.003 E0.00856
G1 X137.371 Y111.832 E0.49631
G1 X137.342 Y111.901 E0.00235
G1 X137.068 Y112.175 E0.01215
G1 X137.000 Y112.203 E0.00231
G1 X136.142 Y112.191 E0.02690
G1 X136.027 Y112.223 E0.00375
G1 X134.948 Y112.223 E0.03383
G1 X134.788 Y112.170 E0.00529
G1 E-3.50000 F3600.000
;WIPE_START
G1 F7200.000
G1 X134.514 Y112.223 E-0.13260
G1 X134.066 Y112.223 E-0.21295
G1 X134.066 Y114.495 E-1.07945
;WIPE_END
G1 E-0.07500 F3600.000
G1 X132.469 Y96.004 F9000.000
G1 E5.00000 F2400.000
G1 F1200.000
G1 X132.661 Y95.812 E0.00852
G1 X132.730 Y95.783 E0.00235
G1 X133.715 Y95.783 E0.03090
G1 X133.785 Y95.812 E0.00235
G1 X133.977 Y96.004 E0.00852
G1 X134.169 Y95.812 E0.00852
G1 X134.238 Y95.783 E0.00235
G1 X135.224 Y95.783 E0.03090
G1 X135.293 Y95.812 E0.00235
G1 X135.485 Y96.004 E0.00852
G1 X135.677 Y95.812 E0.00852
G1 X135.747 Y95.783 E0.00235
G1 X136.732 Y95.783 E0.03090
G1 X136.801 Y95.812 E0.00235
G1 X136.965 Y95.976 E0.00725
G1 X136.994 Y96.045 E0.00235
G1 X136.994 Y111.716 E0.49137
G1 X136.883 Y111.827 E0.00490
G1 X136.350 Y111.827 E0.01673
G1 X136.194 Y111.671 E0.00692
G1 X136.047 Y111.817 E0.00649
G1 X135.978 Y111.846 E0.00235
G1 X134.992 Y111.846 E0.03090
G1 X134.923 Y111.817 E0.00235
G1 X134.731 Y111.625 E0.00852
G1 X134.539 Y111.817 E0.00852
G1 X134.470 Y111.846 E0.00235
G1 X133.689 Y111.846 E0.02449
G1 X133.689 Y133.578 E0.68140
G1 X133.578 Y133.689 E0.00490
G1 X111.352 Y133.689 E0.69688
G1 X111.352 Y137.424 E0.11713
G1 X111.242 Y137.535 E0.00490
G1 X110.708 Y137.535 E0.01673
G1 X110.552 Y137.379 E0.00692
G1 X110.406 Y137.525 E0.00649
G1 X110.337 Y137.554 E0.00235
G1 X109.351 Y137.554 E0.03090
G1 X109.282 Y137.525 E0.00235
G1 X109.090 Y137.333 E0.00852
G1 X108.898 Y137.525 E0.00852
G1 X108.828 Y137.554 E0.00235
G1 X107.843 Y137.554 E0.03090
G1 X107.773 Y137.525 E0.00235
G1 X107.581 Y137.333 E0.00852
G1 X107.389 Y137.525 E0.00852
G1 X107.320 Y137.554 E0.00235
G1 X106.334 Y137.554 E0.03090
G1 X106.265 Y137.525 E0.00235
G1 X106.073 Y137.333 E0.00852
G1 X105.881 Y137.525 E0.00852
G1 X105.812 Y137.554 E0.00235
G1 X104.826 Y137.554 E0.03090
G1 X104.757 Y137.525 E0.00235
G1 X104.565 Y137.333 E0.00852
G1 X104.373 Y137.525 E0.00852
G1 X104.303 Y137.554 E0.00235
G1 X103.318 Y137.554 E0.03090
G1 X103.249 Y137.525 E0.00235
G1 X103.056 Y137.333 E0.00852
G1 X102.864 Y137.525 E0.00852
G1 X102.795 Y137.554 E0.00235
G1 X101.809 Y137.554 E0.03090
G1 X101.740 Y137.525 E0.00235
G1 X101.548 Y137.333 E0.00852
G1 X101.356 Y137.525 E0.00852
G1 X101.287 Y137.554 E0.00235
G1 X100.301 Y137.554 E0.03090
G1 X100.232 Y137.525 E0.00235
G1 X100.040 Y137.333 E0.00852
G1 X99.848 Y137.525 E0.00852
G1 X99.778 Y137.554 E0.00235
G1 X98.793 Y137.554 E0.03090
G1 X98.724 Y137.525 E0.00235
G1 X98.531 Y137.333 E0.00852
G1 X98.339 Y137.525 E0.00852
G1 X98.270 Y137.554 E0.00235
G1 X97.285 Y137.554 E0.03090
G1 X97.215 Y137.525 E0.00235
G1 X97.069 Y137.379 E0.00649
G1 X96.913 Y137.535 E0.00692
G1 X96.379 Y137.535 E0.01673
G1 X96.269 Y137.424 E0.00490
G1 X96.269 Y130.843 E0.20635
G1 X96.298 Y130.774 E0.00235
G1 X96.461 Y130.610 E0.00725
G1 X96.530 Y130.581 E0.00235
G1 X97.311 Y130.581 E0.02449
G1 X97.311 Y97.422 E1.03969
G1 X97.422 Y97.311 E0.00490
G1 X130.960 Y97.311 E1.05157
G1 X130.960 Y96.045 E0.03971
G1 X130.989 Y95.976 E0.00235
G1 X131.152 Y95.812 E0.00725
G1 X131.222 Y95.783 E0.00235
G1 X132.207 Y95.783 E0.03090
G1 X132.276 Y95.812 E0.00235
G1 X132.426 Y95.962 E0.00664
G1 X131.337 Y97.211 F9000.000
;TYPE:Support material
G1 F1200.000
G1 X131.337 Y96.161 E0.03294
G1 X132.091 Y96.161 E0.02365
G1 X132.091 Y97.041 E0.02762
G1 X132.846 Y97.041 E0.02365
G1 X132.846 Y96.161 E0.02762
G1 X133.600 Y96.161 E0.02365
G1 X133.600 Y97.041 E0.02762
G1 X133.690 Y97.041 E0.00283
G1 X133.959 Y97.310 E0.01191
G1 X133.959 Y111.469 E0.44393
G1 X134.354 Y111.469 E0.01240
G1 X134.354 Y96.161 E0.47998
G1 X135.108 Y96.161 E0.02365
G1 X135.108 Y111.469 E0.47998
G1 X135.862 Y111.469 E0.02365
G1 X135.862 Y96.161 E0.47998
