; generated by PrusaSlicer 2.3.0-beta3+win64 on 2020-12-15 at 10:38:15 UTC

; 

; external perimeters extrusion width = 0.45mm
; perimeters extrusion width = 0.45mm
; infill extrusion width = 0.45mm
; solid infill extrusion width = 0.45mm
; top infill extrusion width = 0.40mm
; first layer extrusion width = 0.42mm

M201 X500 Y500 Z100 E5000 ; sets maximum accelerations, mm/sec^2
M203 X500 Y500 Z10 E60 ; sets maximum feedrates, mm/sec
M204 P500 R1000 T500 ; sets acceleration (P, T) and retract acceleration (R), mm/sec^2
M205 X8.00 Y8.00 Z0.40 E5.00 ; sets the jerk limits, mm/sec
M205 S0 T0 ; sets the minimum extruding and travel feed rate, mm/sec
M107
;TYPE:Custom
G90 ; use absolute coordinates
M83 ; extruder relative mode
M104 S210 ; set extruder temp
M140 S60 ; set bed temp
M190 S60 ; wait for bed temp
M109 S210 ; wait for extruder temp
G28 ; home all
G1 Z2 F240
G1 X2 Y10 F3000
G1 Z0.28 F240
G92 E0
G1 Y190 E15 F1500 ; intro line
G1 X2.3 F5000
G92 E0
G1 Y10 E15 F1200 ; intro line
G92 E0
G21 ; set units to millimeters
G90 ; use absolute coordinates
M83 ; use relative distances for extrusion
; Filament gcode
;LAYER_CHANGE
;Z:0.2
;HEIGHT:0.2
;BEFORE_LAYER_CHANGE
G92 E0
;0.2


G1 E-5.00000 F3600.000
G1 Z0.200 F9000.000
;AFTER_LAYER_CHANGE
;0.2
G1 X73.497 Y60.720
G1 E5.00000 F2400.000
;TYPE:Skirt
;WIDTH:0.42
G1 F1200.000
G1 X73.873 Y60.267 E0.01846
G1 X74.346 Y59.922 E0.01835
G1 X74.889 Y59.703 E0.01835
G1 X75.468 Y59.623 E0.01835
G1 X155.504 Y59.623 E2.50945
G1 X156.402 Y59.801 E0.02872
G1 X157.167 Y60.305 E0.02872
G1 X157.684 Y61.062 E0.02872
G1 X157.877 Y61.957 E0.02872
G1 X157.877 Y169.008 E3.35650
G1 X157.781 Y169.669 E0.02095
G1 X157.503 Y170.280 E0.02107
G1 X157.127 Y170.733 E0.01846
G1 X156.654 Y171.078 E0.01835
G1 X156.108 Y171.298 E0.01846
G1 X155.524 Y171.377 E0.01846
G1 X85.489 Y171.377 E2.19591
G1 X84.827 Y171.280 E0.02095
G1 X84.220 Y171.003 E0.02095
G1 X83.814 Y170.676 E0.01633
G1 X83.490 Y170.268 E0.01633
G1 X83.262 Y169.800 E0.01633
G1 X83.141 Y169.294 E0.01633
G1 X73.134 Y82.230 E2.74780
G1 X73.123 Y61.958 E0.63560
G1 X73.224 Y61.313 E0.02048
G1 X73.472 Y60.774 E0.01860
G1 E-3.50000 F3600.000
;WIPE_START
G1 F7200.000
G1 X73.873 Y60.267 E-0.30733
G1 X74.346 Y59.922 E-0.27792
G1 X74.889 Y59.703 E-0.27792
G1 X75.468 Y59.623 E-0.27792
G1 X76.066 Y59.623 E-0.28390
;WIPE_END
G1 E-0.07500 F3600.000
G1 X73.405 Y86.235 F9000.000
G1 E5.00000 F2400.000
G1 F1200.000
G1 X72.557 Y85.709 E0.03128
G1 X71.887 Y85.052 E0.02942
G1 X71.371 Y84.351 E0.02730
G1 X70.787 Y82.547 E0.05944
G1 X70.787 Y61.453 E0.66139
G1 X71.435 Y59.530 E0.06363
G1 X71.939 Y58.892 E0.02550
G1 X72.951 Y57.994 E0.04242
G1 X73.767 Y57.585 E0.02862
G1 X74.990 Y57.287 E0.03947
G1 X155.986 Y57.290 E2.53957
G1 X156.935 Y57.474 E0.03029
G1 X157.843 Y57.865 E0.03101
G1 X159.062 Y58.888 E0.04990
G1 X159.853 Y60.106 E0.04551
G1 X160.213 Y61.489 E0.04481
G1 X160.213 Y132.547 E2.22798
G1 X159.565 Y134.470 E0.06363
G1 X159.061 Y135.108 E0.02550
G1 X158.065 Y135.992 E0.04173
G1 X157.688 Y136.187 F9000.000
G1 F1200.000
G1 X157.233 Y136.415 E0.01598
G1 X156.010 Y136.713 E0.03947
G1 X93.213 Y136.713 E1.96893
G1 X93.213 Y161.287 E0.77047
G1 X156.157 Y161.306 E1.97355
G1 X157.439 Y161.667 E0.04177
G1 X157.689 Y161.828 E0.00930
G1 X158.066 Y162.072 F9000.000
G1 F1200.000
G1 X158.565 Y162.394 E0.01865
G1 X159.487 Y163.421 E0.04326
G1 X159.851 Y164.097 E0.02406
G1 X160.099 Y164.790 E0.02310
G1 X160.216 Y169.514 E0.14815
G1 X159.565 Y171.469 E0.06460
G1 X159.061 Y172.108 E0.02553
G1 X158.049 Y173.006 E0.04242
G1 X157.233 Y173.415 E0.02862
G1 X156.010 Y173.713 E0.03947
G1 X84.953 Y173.713 E2.22793
G1 X83.030 Y173.065 E0.06363
G1 X82.392 Y172.561 E0.02550
G1 X81.494 Y171.549 E0.04242
G1 X81.085 Y170.733 E0.02862
G1 X80.787 Y169.510 E0.03947
G1 X80.787 Y150.459 E0.59732
G1 E-3.50000 F3600.000
;WIPE_START
G1 F7200.000
G1 X80.787 Y153.459 E-1.42500
;WIPE_END
G1 E-0.07500 F3600.000
G1 X80.787 Y147.157 F9000.000
G1 E5.00000 F2400.000
G1 F1200.000
G1 X80.787 Y128.490 E0.58527
G1 X81.085 Y127.267 E0.03947
G1 X81.494 Y126.451 E0.02862
G1 X82.392 Y125.439 E0.04242
G1 X83.030 Y124.935 E0.02550
G1 X84.953 Y124.287 E0.06363
G1 X147.787 Y124.287 E1.97010
G1 X147.787 Y69.713 E1.71110
G1 X83.213 Y69.713 E2.02464
G1 X83.213 Y82.428 E0.39864
G1 X82.953 Y83.646 E0.03907
G1 X82.374 Y84.734 E0.03864
G1 X81.557 Y85.612 E0.03760
G1 X80.714 Y86.200 E0.03224
G1 X79.745 Y86.590 E0.03274
G1 X74.866 Y86.697 E0.15300
G1 X73.803 Y86.402 E0.03458
G1 X73.758 Y86.006 F9000.000
G1 F1200.000
G1 X74.938 Y86.326 E0.03836
G1 X79.637 Y86.227 E0.14737
G1 X80.517 Y85.878 E0.02968
G1 X81.295 Y85.340 E0.02964
G1 X82.080 Y84.496 E0.03615
G1 X82.607 Y83.494 E0.03547
G1 X82.836 Y82.408 E0.03481
G1 X82.836 Y69.336 E0.40985
G1 X148.164 Y69.336 E2.04829
G1 X148.164 Y124.664 E1.73474
G1 X84.984 Y124.664 E1.98096
G1 X83.237 Y125.252 E0.05778
G1 X82.661 Y125.704 E0.02295
G1 X81.818 Y126.644 E0.03960
G1 X81.445 Y127.380 E0.02585
G1 X81.164 Y128.514 E0.03664
G1 X81.164 Y150.437 E0.68740
G1 E-3.50000 F3600.000
;WIPE_START
G1 F7200.000
G1 X81.164 Y147.437 E-1.42500
;WIPE_END
G1 E-0.07500 F3600.000
G1 X81.164 Y153.740 F9000.000
G1 E5.00000 F2400.000
G1 F1200.000
G1 X81.164 Y169.486 E0.49372
G1 X81.445 Y170.620 E0.03664
G1 X81.818 Y171.356 E0.02585
G1 X82.661 Y172.296 E0.03960
G1 X83.237 Y172.748 E0.02295
G1 X84.984 Y173.336 E0.05778
G1 X155.986 Y173.336 E2.22623
G1 X157.120 Y173.055 E0.03664
G1 X157.856 Y172.682 E0.02585
G1 X158.796 Y171.839 E0.03960
G1 X159.248 Y171.262 E0.02298
G1 X159.839 Y169.490 E0.05857
G1 X159.734 Y164.889 E0.14430
G1 X159.501 Y164.238 E0.02168
G1 X159.167 Y163.621 E0.02199
G1 X158.303 Y162.667 E0.04035
G1 X158.066 Y162.515 E0.00884
G1 X157.689 Y162.274 F9000.000
G1 F1200.000
G1 X157.261 Y162.001 E0.01590
G1 X156.082 Y161.676 E0.03835
G1 X92.836 Y161.664 E1.98302
G1 X92.836 Y136.336 E0.79412
G1 X155.986 Y136.336 E1.98002
G1 X157.120 Y136.055 E0.03664
G1 X157.688 Y135.767 E0.01997
G1 X158.065 Y135.494 F9000.000
G1 F1200.000
G1 X158.796 Y134.839 E0.03076
G1 X159.248 Y134.263 E0.02295
G1 X159.836 Y132.516 E0.05778
G1 X159.836 Y61.513 E2.22624
G1 X159.496 Y60.232 E0.04157
G1 X158.797 Y59.158 E0.04018
G1 X157.666 Y58.199 E0.04647
G1 X156.841 Y57.840 E0.02823
G1 X155.968 Y57.667 E0.02791
G1 X75.014 Y57.664 E2.53824
G1 X73.880 Y57.945 E0.03664
G1 X73.144 Y58.318 E0.02585
G1 X72.204 Y59.161 E0.03960
G1 X71.752 Y59.737 E0.02295
G1 X71.164 Y61.484 E0.05778
G1 X71.164 Y82.517 E0.65947
G1 X71.719 Y84.202 E0.05565
G1 X72.161 Y84.794 E0.02316
G1 X72.774 Y85.400 E0.02701
G1 X73.350 Y85.757 E0.02124
G1 X73.703 Y85.533 F9000.000
G1 F1200.000
G1 X73.919 Y85.666 E0.00796
G1 X75.009 Y85.955 E0.03534
G1 X79.532 Y85.863 E0.14184
G1 X80.323 Y85.554 E0.02663
G1 X81.035 Y85.066 E0.02707
G1 X81.759 Y84.297 E0.03311
G1 X82.261 Y83.342 E0.03382
G1 X82.459 Y82.389 E0.03054
G1 X82.459 Y68.959 E0.42108
G1 X148.541 Y68.959 E2.07193
G1 X148.541 Y125.041 E1.75839
G1 X85.014 Y125.041 E1.99182
G1 X83.443 Y125.569 E0.05197
G1 X82.929 Y125.970 E0.02043
G1 X82.142 Y126.840 E0.03679
G1 X81.805 Y127.494 E0.02308
G1 X81.541 Y128.538 E0.03376
G1 X81.541 Y153.718 E0.78952
G1 E-3.50000 F3600.000
;WIPE_START
G1 F7200.000
G1 X81.541 Y150.718 E-1.42500
;WIPE_END
G1 E-0.07500 F3600.000
G1 X81.541 Y157.020 F9000.000
G1 E5.00000 F2400.000
G1 F1200.000
G1 X81.541 Y169.462 E0.39011
G1 X81.805 Y170.506 E0.03376
G1 X82.142 Y171.160 E0.02308
G1 X82.929 Y172.030 E0.03679
G1 X83.443 Y172.431 E0.02043
G1 X85.014 Y172.959 E0.05197
G1 X155.962 Y172.959 E2.22452
G1 X157.006 Y172.695 E0.03376
G1 X157.660 Y172.358 E0.02308
G1 X158.530 Y171.571 E0.03679
G1 X158.931 Y171.056 E0.02045
G1 X159.461 Y169.465 E0.05258
G1 X159.369 Y164.987 E0.14044
G1 X159.151 Y164.379 E0.02025
G1 X158.847 Y163.822 E0.01989
G1 X158.066 Y162.965 E0.03635
G1 X157.689 Y162.716 F9000.000
G1 F1200.000
G1 X157.085 Y162.335 E0.02239
G1 X156.009 Y162.047 E0.03493
G1 X92.459 Y162.041 E1.99255
G1 X92.459 Y135.959 E0.81776
G1 X155.962 Y135.959 E1.99109
G1 X157.006 Y135.695 E0.03376
G1 X157.688 Y135.333 E0.02422
G1 X158.065 Y134.992 F9000.000
G1 F1200.000
G1 X158.530 Y134.571 E0.01966
G1 X158.931 Y134.057 E0.02043
G1 X159.459 Y132.486 E0.05197
G1 X159.459 Y61.538 E2.22453
G1 X159.163 Y60.410 E0.03655
G1 X158.530 Y59.426 E0.03669
G1 X157.488 Y58.533 E0.04302
G1 X156.746 Y58.205 E0.02545
G1 X155.948 Y58.044 E0.02550
G1 X75.038 Y58.041 E2.53689
G1 X73.994 Y58.305 E0.03376
G1 X73.340 Y58.642 E0.02308
G1 X72.470 Y59.429 E0.03679
G1 X72.069 Y59.943 E0.02043
G1 X71.541 Y61.514 E0.05197
G1 X71.541 Y82.485 E0.65753
G1 X72.066 Y84.052 E0.05179
G1 X72.437 Y84.536 E0.01912
G1 X72.992 Y85.091 E0.02462
G1 X73.295 Y85.279 E0.01118
G1 X73.649 Y85.058 F9000.000
G1 F1200.000
G1 X74.091 Y85.330 E0.01628
G1 X75.077 Y85.583 E0.03192
G1 X79.426 Y85.500 E0.13636
G1 X80.165 Y85.211 E0.02490
G1 X80.774 Y84.793 E0.02316
G1 X81.466 Y84.058 E0.03163
G1 X81.914 Y83.193 E0.03054
G1 X82.082 Y82.370 E0.02634
G1 X82.082 Y68.582 E0.43231
G1 X148.918 Y68.582 E2.09558
G1 X148.918 Y125.418 E1.78204
G1 X85.045 Y125.418 E2.00268
G1 X83.649 Y125.887 E0.04619
G1 X83.196 Y126.237 E0.01793
G1 X82.464 Y127.037 E0.03399
G1 X82.165 Y127.611 E0.02030
G1 X81.918 Y128.562 E0.03082
G1 X81.918 Y156.999 E0.89161
G1 E-3.50000 F3600.000
;WIPE_START
G1 F7200.000
G1 X81.918 Y153.999 E-1.42500
;WIPE_END
G1 E-0.07500 F3600.000
G1 X81.918 Y160.301 F9000.000
G1 E5.00000 F2400.000
G1 F1200.000
G1 X81.918 Y169.438 E0.28648
G1 X82.165 Y170.389 E0.03082
G1 X82.464 Y170.963 E0.02030
G1 X83.196 Y171.763 E0.03399
G1 X83.649 Y172.113 E0.01793
G1 X85.045 Y172.582 E0.04619
G1 X155.938 Y172.582 E2.22279
G1 X156.889 Y172.335 E0.03082
G1 X157.463 Y172.036 E0.02030
G1 X158.263 Y171.304 E0.03399
G1 X158.613 Y170.851 E0.01794
G1 X159.083 Y169.440 E0.04665
G1 X159.003 Y165.085 E0.13657
G1 X158.801 Y164.521 E0.01880
G1 X158.528 Y164.024 E0.01776
G1 X158.066 Y163.522 E0.02141
G1 X157.689 Y163.156 F9000.000
G1 F1200.000
G1 X156.911 Y162.671 E0.02874
G1 X155.938 Y162.418 E0.03152
G1 X92.082 Y162.418 E2.00215
G1 X92.082 Y135.582 E0.84141
G1 X155.938 Y135.582 E2.00215
G1 X156.889 Y135.335 E0.03082
G1 X157.463 Y135.036 E0.02030
G1 X157.688 Y134.830 E0.00956
G1 X158.065 Y134.485 F9000.000
G1 F1200.000
G1 X158.263 Y134.304 E0.00841
G1 X158.613 Y133.851 E0.01793
G1 X159.082 Y132.455 E0.04619
G1 X159.082 Y61.563 E2.22277
G1 X158.806 Y60.537 E0.03331
G1 X158.262 Y59.692 E0.03149
G1 X157.308 Y58.865 E0.03960
G1 X156.648 Y58.570 E0.02266
G1 X155.929 Y58.421 E0.02304
G1 X75.062 Y58.418 E2.53551
G1 X74.111 Y58.665 E0.03083
G1 X73.537 Y58.964 E0.02030
G1 X72.737 Y59.696 E0.03399
G1 X72.387 Y60.149 E0.01793
G1 X71.918 Y61.545 E0.04619
G1 X71.918 Y82.455 E0.65561
G1 X72.385 Y83.848 E0.04607
G1 X72.712 Y84.278 E0.01695
G1 X73.240 Y84.807 E0.02342
G1 X73.595 Y84.589 F9000.000
G1 F1200.000
G1 X74.216 Y84.973 E0.02288
G1 X75.098 Y85.206 E0.02862
G1 X79.322 Y85.136 E0.13246
G1 X79.972 Y84.886 E0.02185
G1 X80.516 Y84.517 E0.02061
G1 X81.144 Y83.860 E0.02848
G1 X81.566 Y83.044 E0.02883
G1 X81.705 Y82.352 E0.02212
G1 X81.705 Y68.205 E0.44356
G1 X149.295 Y68.205 E2.11923
G1 X149.295 Y125.795 E1.80568
G1 X85.076 Y125.795 E2.01355
G1 X83.853 Y126.206 E0.04045
G1 X83.461 Y126.505 E0.01546
G1 X82.785 Y127.236 E0.03121
G1 X82.523 Y127.729 E0.01752
G1 X82.295 Y128.587 E0.02783
G1 X82.295 Y160.280 E0.99369
G1 E-3.50000 F3600.000
;WIPE_START
G1 F7200.000
G1 X82.295 Y157.280 E-1.42500
;WIPE_END
G1 E-0.07500 F3600.000
G1 X82.295 Y163.582 F9000.000
G1 E5.00000 F2400.000
G1 F1200.000
G1 X82.295 Y169.413 E0.18282
G1 X82.523 Y170.271 E0.02783
G1 X82.785 Y170.764 E0.01752
G1 X83.461 Y171.495 E0.03121
G1 X83.853 Y171.794 E0.01546
G1 X85.076 Y172.205 E0.04045
G1 X155.913 Y172.205 E2.22105
G1 X156.771 Y171.977 E0.02783
G1 X157.264 Y171.715 E0.01752
G1 X157.995 Y171.039 E0.03121
G1 X158.294 Y170.647 E0.01547
G1 X158.706 Y169.414 E0.04077
G1 X158.638 Y165.183 E0.13268
G1 X158.451 Y164.663 E0.01732
G1 X158.210 Y164.228 E0.01559
G1 X158.066 Y164.073 E0.00665
G1 X157.689 Y163.667 F9000.000
G1 F1200.000
G1 X157.524 Y163.490 E0.00759
G1 X156.786 Y163.028 E0.02730
G1 X155.913 Y162.795 E0.02833
G1 X91.705 Y162.795 E2.01318
G1 X91.705 Y135.205 E0.86505
G1 X155.913 Y135.205 E2.01318
G1 X156.771 Y134.977 E0.02783
G1 X157.264 Y134.715 E0.01752
G1 X157.688 Y134.322 E0.01813
G1 X158.065 Y133.946 F9000.000
G1 F1200.000
G1 X158.294 Y133.647 E0.01181
G1 X158.705 Y132.424 E0.04045
G1 X158.705 Y61.587 E2.22105
G1 X158.472 Y60.714 E0.02835
G1 X157.992 Y59.957 E0.02809
G1 X157.128 Y59.197 E0.03609
G1 X156.513 Y58.923 E0.02110
G1 X155.910 Y58.798 E0.01933
G1 X75.087 Y58.795 E2.53412
G1 X74.229 Y59.023 E0.02783
G1 X73.736 Y59.285 E0.01752
G1 X73.005 Y59.961 E0.03121
G1 X72.706 Y60.353 E0.01546
G1 X72.295 Y61.576 E0.04045
G1 X72.295 Y82.424 E0.65370
G1 X72.704 Y83.645 E0.04038
G1 X72.988 Y84.021 E0.01477
G1 X73.171 Y84.204 E0.00810
G1 X73.531 Y84.030 F9000.000
G1 F1200.000
G1 X73.745 Y84.245 E0.00952
G1 X74.342 Y84.617 E0.02204
G1 X75.120 Y84.829 E0.02528
G1 X79.221 Y84.771 E0.12858
G1 X79.782 Y84.560 E0.01881
G1 X80.258 Y84.241 E0.01797
G1 X80.851 Y83.620 E0.02692
G1 X81.218 Y82.897 E0.02542
G1 X81.328 Y82.334 E0.01799
G1 X81.328 Y67.828 E0.45483
G1 X149.672 Y67.828 E2.14287
G1 X149.672 Y126.172 E1.82933
G1 X85.106 Y126.172 E2.02441
G1 X84.055 Y126.525 E0.03476
G1 X83.725 Y126.775 E0.01301
G1 X83.104 Y127.438 E0.02845
G1 X82.880 Y127.851 E0.01474
G1 X82.672 Y128.613 E0.02477
G1 X82.672 Y163.560 E1.09574
G1 E-3.50000 F3600.000
;WIPE_START
G1 F7200.000
G1 X82.672 Y160.560 E-1.42500
;WIPE_END
G1 E-0.07500 F3600.000
G1 X82.672 Y166.862 F9000.000
G1 E5.00000 F2400.000
G1 F1200.000
G1 X82.672 Y169.387 E0.07915
G1 X82.880 Y170.149 E0.02477
G1 X83.104 Y170.562 E0.01474
G1 X83.725 Y171.225 E0.02845
G1 X84.055 Y171.475 E0.01301
G1 X85.106 Y171.828 E0.03476
G1 X155.887 Y171.828 E2.21927
G1 X156.649 Y171.620 E0.02477
G1 X157.062 Y171.396 E0.01474
G1 X157.725 Y170.775 E0.02845
G1 X157.975 Y170.445 E0.01301
G1 X158.329 Y169.387 E0.03497
G1 X158.272 Y165.280 E0.12877
G1 X158.066 Y164.741 E0.01811
G1 X157.689 Y164.216 F9000.000
G1 F1200.000
G1 X157.266 Y163.765 E0.01937
G1 X156.658 Y163.383 E0.02249
G1 X155.887 Y163.172 E0.02509
G1 X91.328 Y163.172 E2.02419
G1 X91.328 Y134.828 E0.88870
G1 X155.887 Y134.828 E2.02419
G1 X156.649 Y134.620 E0.02477
G1 X157.062 Y134.396 E0.01474
G1 X157.688 Y133.809 E0.02690
G1 X158.065 Y133.175 F9000.000
G1 F1200.000
G1 X158.328 Y132.394 E0.02586
G1 X158.328 Y61.613 E2.21927
G1 X158.116 Y60.841 E0.02510
G1 X157.722 Y60.221 E0.02306
G1 X156.945 Y59.528 E0.03263
G1 X156.414 Y59.287 E0.01829
G1 X155.889 Y59.176 E0.01681
G1 X75.113 Y59.172 E2.53267
G1 X74.351 Y59.380 E0.02477
G1 X73.938 Y59.604 E0.01474
G1 X73.275 Y60.225 E0.02845
G1 X73.025 Y60.555 E0.01301
G1 X72.672 Y61.606 E0.03476
G1 X72.672 Y82.394 E0.65178
G1 X73.024 Y83.444 E0.03472
G1 X73.095 Y83.537 E0.00367
G1 X73.458 Y83.395 F9000.000
G1 F1200.000
G1 X73.541 Y83.508 E0.00440
G1 X73.997 Y83.964 E0.02022
G1 X74.472 Y84.262 E0.01756
G1 X75.144 Y84.451 E0.02190
G1 X79.122 Y84.406 E0.12472
G1 X79.594 Y84.232 E0.01578
G1 X80.004 Y83.963 E0.01539
G1 X80.528 Y83.424 E0.02358
G1 X80.869 Y82.751 E0.02363
G1 X80.951 Y82.317 E0.01385
G1 X80.951 Y67.451 E0.46612
G1 X150.049 Y67.451 E2.16652
G1 X150.049 Y126.549 E1.85298
G1 X85.137 Y126.549 E2.03527
G1 X84.257 Y126.845 E0.02912
G1 X83.986 Y127.047 E0.01059
G1 X83.422 Y127.643 E0.02573
G1 X83.237 Y127.976 E0.01196
G1 X83.049 Y128.640 E0.02162
G1 X83.049 Y166.841 E1.19776
G1 E-3.50000 F3600.000
;WIPE_START
G1 F7200.000
G1 X83.049 Y163.841 E-1.42500
;WIPE_END
G1 E-0.07500 F3600.000
G1 X157.689 Y164.836 F9000.000
G1 E5.00000 F2400.000
G1 F1200.000
G1 X157.577 Y164.641 E0.00704
G1 X157.009 Y164.042 E0.02589
G1 X156.529 Y163.738 E0.01781
G1 X155.860 Y163.549 E0.02179
G1 X90.951 Y163.549 E2.03517
G1 X90.951 Y134.451 E0.91235
G1 X155.860 Y134.451 E2.03517
G1 X156.524 Y134.263 E0.02162
G1 X156.857 Y134.078 E0.01196
G1 X157.453 Y133.514 E0.02573
G1 X157.655 Y133.243 E0.01059
G1 X157.688 Y133.144 E0.00329
G1 E-3.50000 F3600.000
;WIPE_START
G1 F7200.000
G1 X157.655 Y133.243 E-0.04983
G1 X157.453 Y133.514 E-0.16040
