; generated by PrusaSlicer 2.3.0-alpha3+win64 on 2020-11-09 at 13:49:15 UTC

; 

; external perimeters extrusion width = 0.45mm
; perimeters extrusion width = 0.45mm
; infill extrusion width = 0.45mm
; solid infill extrusion width = 0.45mm
; top infill extrusion width = 0.40mm
; first layer extrusion width = 0.42mm

M201 X500 Y500 Z100 E5000 ; sets maximum accelerations, mm/sec^2
M203 X500 Y500 Z10 E60 ; sets maximum feedrates, mm/sec
M204 P500 R1000 T500 ; sets acceleration (P, T) and retract acceleration (R), mm/sec^2
M205 X8.00 Y8.00 Z0.40 E5.00 ; sets the jerk limits, mm/sec
M205 S0 T0 ; sets the minimum extruding and travel feed rate, mm/sec
M107
;TYPE:Custom
G90 ; use absolute coordinates
M83 ; extruder relative mode
M104 S205 ; set extruder temp
M140 S60 ; set bed temp
M190 S60 ; wait for bed temp
M109 S205 ; wait for extruder temp
G28 ; home all
G1 Z2 F240
G1 X2 Y10 F3000
G1 Z0.28 F240
G92 E0.0
G1 Y190 E15.0 F1500.0 ; intro line
G1 X2.3 F5000
G1 Y10 E15.0 F1200.0 ; intro line
G92 E0.0
G21 ; set units to millimeters
G90 ; use absolute coordinates
M83 ; use relative distances for extrusion
; Filament gcode
;Z:0.2
;HEIGHT:0.2
;BEFORE_LAYER_CHANGE
G92 E0
;0.2


G1 E-5.00000 F3600.00000
G1 Z0.200 F9000.000
;AFTER_LAYER_CHANGE
;0.2
G1 X74.764 Y85.754
G1 E5.00000 F2400.00000
;TYPE:Skirt
G1 F1200.000
G1 X75.487 Y85.637 E0.02296
G1 X155.503 Y85.637 E2.50886
G1 X156.398 Y85.814 E0.02860
G1 X157.161 Y86.315 E0.02860
G1 X157.679 Y87.066 E0.02860
G1 X157.876 Y87.960 E0.02872
G1 X157.876 Y143.056 E1.72751
G1 X157.803 Y143.603 E0.01728
G1 X157.605 Y144.117 E0.01728
G1 X157.295 Y144.572 E0.01728
G1 X156.885 Y144.946 E0.01740
G1 X156.235 Y145.275 E0.02284
G1 X155.512 Y145.392 E0.02296
G1 X75.484 Y145.392 E2.50921
G1 X74.930 Y145.322 E0.01752
G1 X74.407 Y145.126 E0.01752
G1 X73.945 Y144.812 E0.01752
G1 X73.568 Y144.400 E0.01752
G1 X73.239 Y143.750 E0.02284
G1 X73.123 Y143.035 E0.02272
G1 X73.123 Y87.992 E1.72583
G1 X73.194 Y87.438 E0.01752
G1 X73.390 Y86.919 E0.01740
G1 X73.702 Y86.460 E0.01740
G1 X74.114 Y86.083 E0.01752
G1 X74.711 Y85.781 E0.02096
G1 E-3.50000 F3600.00000
G1 F7200.000
G1 X75.487 Y85.637 E-0.37506
G1 X77.697 Y85.637 E-1.04995
G1 E-0.07500 F3600.00000
G1 X76.087 Y88.602 F9000.000
G1 E5.00000 F2400.00000
;TYPE:Perimeter
G1 F1200.000
G1 X154.912 Y88.602 E2.47153
G1 X154.912 Y142.427 E1.68767
G1 X147.593 Y142.427 E0.22951
G1 X147.593 Y121.425 E0.65850
G1 X82.101 Y121.425 E2.05343
G1 X82.101 Y142.427 E0.65850
G1 X76.087 Y142.427 E0.18859
G1 X76.087 Y88.662 E1.68579
G1 E-3.50000 F3600.00000
G1 F7200.000
G1 X79.087 Y88.659 E-1.42500
G1 E-0.07500 F3600.00000
G1 X147.215 Y121.802 F9000.000
G1 E5.00000 F2400.00000
;TYPE:External perimeter
G1 F1200.000
G1 X82.478 Y121.802 E2.02978
G1 X82.478 Y142.804 E0.65850
G1 X75.709 Y142.804 E0.21224
G1 X75.709 Y88.224 E1.71132
G1 X155.290 Y88.224 E2.49518
G1 X155.290 Y142.804 E1.71132
G1 X147.215 Y142.804 E0.25315
G1 X147.215 Y121.862 E0.65662
G1 X147.167 Y121.405 F9000.000
G1 E-3.50000 F3600.00000
G1 F7200.000
G1 X144.215 Y121.860 E-1.42500
G1 E-0.07500 F3600.00000
G1 X154.799 Y128.413 F9000.000
G1 E5.00000 F2400.00000
;TYPE:Solid infill
G1 F1200.000
G1 X147.875 Y121.489 E0.30707
G1 X147.875 Y122.022 E0.01673
G1 X154.630 Y128.776 E0.29955
G1 X154.630 Y129.310 E0.01673
G1 X147.875 Y122.556 E0.29955
G1 X147.875 Y123.089 E0.01673
G1 X154.630 Y129.843 E0.29955
G1 X154.630 Y130.377 E0.01673
G1 X147.875 Y123.622 E0.29955
G1 X147.875 Y124.156 E0.01673
G1 X154.630 Y130.910 E0.29955
G1 X154.630 Y131.443 E0.01673
G1 X147.875 Y124.689 E0.29955
G1 X147.875 Y125.222 E0.01673
G1 X154.630 Y131.977 E0.29955
G1 X154.630 Y132.510 E0.01673
G1 X147.875 Y125.756 E0.29955
G1 X147.875 Y126.289 E0.01673
G1 X154.630 Y133.043 E0.29955
G1 X154.630 Y133.577 E0.01673
G1 X147.875 Y126.822 E0.29955
G1 X147.875 Y127.356 E0.01673
G1 X154.630 Y134.110 E0.29955
G1 X154.630 Y134.643 E0.01673
G1 X147.875 Y127.889 E0.29955
G1 X147.875 Y128.423 E0.01673
G1 X154.630 Y135.177 E0.29955
G1 X154.630 Y135.710 E0.01673
G1 X147.875 Y128.956 E0.29955
G1 X147.875 Y129.489 E0.01673
G1 X154.630 Y136.244 E0.29955
G1 X154.630 Y136.777 E0.01673
G1 X147.875 Y130.023 E0.29955
G1 X147.875 Y130.556 E0.01673
G1 X154.630 Y137.310 E0.29955
G1 X154.630 Y137.844 E0.01673
G1 X147.875 Y131.089 E0.29955
G1 X147.875 Y131.623 E0.01673
G1 X154.630 Y138.377 E0.29955
G1 X154.630 Y138.910 E0.01673
G1 X147.875 Y132.156 E0.29955
G1 X147.875 Y132.689 E0.01673
G1 X154.630 Y139.444 E0.29955
G1 X154.630 Y139.977 E0.01673
G1 X147.875 Y133.223 E0.29955
G1 X147.875 Y133.756 E0.01673
G1 X154.630 Y140.510 E0.29955
G1 X154.630 Y141.044 E0.01673
G1 X147.875 Y134.290 E0.29955
G1 X147.875 Y134.823 E0.01673
G1 X154.630 Y141.577 E0.29955
G1 X154.630 Y142.111 E0.01673
G1 X147.875 Y135.356 E0.29955
G1 X147.875 Y135.890 E0.01673
G1 X154.130 Y142.145 E0.27740
G1 X153.597 Y142.145 E0.01673
G1 X147.875 Y136.423 E0.25375
G1 X147.875 Y136.956 E0.01673
G1 X153.064 Y142.145 E0.23010
G1 X152.530 Y142.145 E0.01673
G1 X147.875 Y137.490 E0.20644
G1 X147.875 Y138.023 E0.01673
G1 X151.997 Y142.145 E0.18279
G1 X151.464 Y142.145 E0.01673
G1 X147.875 Y138.556 E0.15913
G1 X147.875 Y139.090 E0.01673
G1 X150.930 Y142.145 E0.13548
G1 X150.397 Y142.145 E0.01673
G1 X147.875 Y139.623 E0.11182
G1 X147.875 Y140.157 E0.01673
G1 X149.863 Y142.145 E0.08817
G1 X149.330 Y142.145 E0.01673
G1 X147.875 Y140.690 E0.06451
G1 X147.875 Y141.223 E0.01673
G1 X148.797 Y142.145 E0.04086
G1 X148.263 Y142.145 E0.01673
G1 X147.706 Y141.587 E0.02473
G1 E-3.50000 F3600.00000
G1 F7200.000
G1 X148.263 Y142.145 E-0.37459
G1 X148.797 Y142.145 E-0.25335
G1 X147.875 Y141.223 E-0.61889
G1 X147.875 Y140.848 E-0.17818
G1 E-0.07500 F3600.00000
G1 X154.799 Y89.477 F9000.000
G1 E5.00000 F2400.00000
G1 F1200.000
G1 X154.207 Y88.884 E0.02629
G1 X153.673 Y88.884 E0.01673
G1 X154.630 Y89.841 E0.04242
G1 X154.630 Y90.374 E0.01673
G1 X153.140 Y88.884 E0.06607
G1 X152.606 Y88.884 E0.01673
G1 X154.630 Y90.908 E0.08973
G1 X154.630 Y91.441 E0.01673
G1 X152.073 Y88.884 E0.11338
G1 X151.540 Y88.884 E0.01673
G1 X154.630 Y91.974 E0.13703
G1 X154.630 Y92.508 E0.01673
G1 X151.006 Y88.884 E0.16069
G1 X150.473 Y88.884 E0.01673
G1 X154.630 Y93.041 E0.18434
G1 X154.630 Y93.574 E0.01673
G1 X149.940 Y88.884 E0.20800
G1 X149.406 Y88.884 E0.01673
G1 X154.630 Y94.108 E0.23165
G1 X154.630 Y94.641 E0.01673
G1 X148.873 Y88.884 E0.25531
G1 X148.340 Y88.884 E0.01673
G1 X154.630 Y95.174 E0.27896
G1 X154.630 Y95.708 E0.01673
G1 X147.806 Y88.884 E0.30262
G1 X147.273 Y88.884 E0.01673
G1 X154.630 Y96.241 E0.32627
G1 X154.630 Y96.775 E0.01673
G1 X146.739 Y88.884 E0.34992
G1 X146.206 Y88.884 E0.01673
G1 X154.630 Y97.308 E0.37358
G1 X154.630 Y97.841 E0.01673
G1 X145.673 Y88.884 E0.39723
G1 X145.139 Y88.884 E0.01673
G1 X154.630 Y98.375 E0.42089
G1 X154.630 Y98.908 E0.01673
G1 X144.606 Y88.884 E0.44454
G1 X144.073 Y88.884 E0.01673
G1 X154.630 Y99.441 E0.46820
G1 X154.630 Y99.975 E0.01673
G1 X143.539 Y88.884 E0.49185
G1 X143.006 Y88.884 E0.01673
G1 X154.630 Y100.508 E0.51551
G1 X154.630 Y101.041 E0.01673
G1 X142.473 Y88.884 E0.53916
G1 X141.939 Y88.884 E0.01673
G1 X154.630 Y101.575 E0.56281
G1 X154.630 Y102.108 E0.01673
G1 X141.406 Y88.884 E0.58647
G1 X140.872 Y88.884 E0.01673
G1 X154.630 Y102.642 E0.61012
G1 X154.630 Y103.175 E0.01673
G1 X140.339 Y88.884 E0.63378
G1 X139.806 Y88.884 E0.01673
G1 X154.630 Y103.708 E0.65743
G1 X154.630 Y104.242 E0.01673
G1 X139.272 Y88.884 E0.68109
G1 X138.739 Y88.884 E0.01673
G1 X154.630 Y104.775 E0.70474
G1 X154.630 Y105.308 E0.01673
G1 X138.206 Y88.884 E0.72840
G1 X137.672 Y88.884 E0.01673
G1 X154.630 Y105.842 E0.75205
G1 X154.630 Y106.375 E0.01673
G1 X137.139 Y88.884 E0.77570
G1 X136.606 Y88.884 E0.01673
G1 X154.630 Y106.908 E0.79936
G1 X154.630 Y107.442 E0.01673
G1 X136.072 Y88.884 E0.82301
G1 X135.539 Y88.884 E0.01673
G1 X154.630 Y107.975 E0.84667
G1 X154.630 Y108.509 E0.01673
G1 X135.005 Y88.884 E0.87032
G1 X134.472 Y88.884 E0.01673
G1 X154.630 Y109.042 E0.89398
G1 X154.630 Y109.575 E0.01673
G1 X133.939 Y88.884 E0.91763
G1 X133.405 Y88.884 E0.01673
G1 X154.630 Y110.109 E0.94129
G1 X154.630 Y110.642 E0.01673
G1 X132.872 Y88.884 E0.96494
G1 X132.339 Y88.884 E0.01673
G1 X154.630 Y111.175 E0.98859
G1 X154.630 Y111.709 E0.01673
G1 X131.805 Y88.884 E1.01225
G1 X131.272 Y88.884 E0.01673
G1 X154.630 Y112.242 E1.03590
G1 X154.630 Y112.775 E0.01673
G1 X130.739 Y88.884 E1.05956
G1 X130.205 Y88.884 E0.01673
G1 X154.630 Y113.309 E1.08321
G1 X154.630 Y113.842 E0.01673
G1 X129.672 Y88.884 E1.10687
G1 X129.138 Y88.884 E0.01673
G1 X154.630 Y114.376 E1.13052
G1 X154.630 Y114.909 E0.01673
G1 X128.605 Y88.884 E1.15418
G1 X128.072 Y88.884 E0.01673
G1 X154.630 Y115.442 E1.17783
G1 X154.630 Y115.976 E0.01673
G1 X127.538 Y88.884 E1.20148
G1 X127.005 Y88.884 E0.01673
G1 X154.630 Y116.509 E1.22514
G1 X154.630 Y117.042 E0.01673
G1 X126.472 Y88.884 E1.24879
G1 X125.938 Y88.884 E0.01673
G1 X154.630 Y117.576 E1.27245
G1 X154.630 Y118.109 E0.01673
G1 X125.405 Y88.884 E1.29610
G1 X124.872 Y88.884 E0.01673
G1 X154.630 Y118.642 E1.31976
G1 X154.630 Y119.176 E0.01673
G1 X124.338 Y88.884 E1.34341
G1 X123.805 Y88.884 E0.01673
G1 X154.630 Y119.709 E1.36707
G1 X154.630 Y120.243 E0.01673
G1 X123.271 Y88.884 E1.39072
G1 X122.738 Y88.884 E0.01673
G1 X154.630 Y120.776 E1.41437
G1 X154.630 Y121.309 E0.01673
G1 X122.205 Y88.884 E1.43803
G1 X121.671 Y88.884 E0.01673
G1 X154.630 Y121.843 E1.46168
G1 X154.630 Y122.376 E0.01673
G1 X121.138 Y88.884 E1.48534
G1 X120.605 Y88.884 E0.01673
G1 X154.630 Y122.909 E1.50899
G1 X154.630 Y123.443 E0.01673
G1 X120.071 Y88.884 E1.53265
G1 X119.538 Y88.884 E0.01673
G1 X154.630 Y123.976 E1.55630
G1 X154.630 Y124.510 E0.01673
G1 X119.004 Y88.884 E1.57996
G1 X118.471 Y88.884 E0.01673
G1 X154.630 Y125.043 E1.60361
G1 X154.630 Y125.576 E0.01673
G1 X117.938 Y88.884 E1.62726
G1 X117.404 Y88.884 E0.01673
G1 X154.630 Y126.110 E1.65092
G1 X154.630 Y126.643 E0.01673
G1 X116.871 Y88.884 E1.67457
G1 X116.338 Y88.884 E0.01673
G1 X154.630 Y127.176 E1.69823
G1 X154.630 Y127.710 E0.01673
G1 X115.804 Y88.884 E1.72188
G1 X115.271 Y88.884 E0.01673
G1 X147.529 Y121.143 E1.43064
G1 X146.996 Y121.143 E0.01673
G1 X114.738 Y88.884 E1.43064
G1 X114.204 Y88.884 E0.01673
G1 X146.462 Y121.143 E1.43064
G1 X145.929 Y121.143 E0.01673
G1 X113.671 Y88.884 E1.43064
G1 X113.137 Y88.884 E0.01673
G1 X145.396 Y121.143 E1.43064
G1 X144.862 Y121.143 E0.01673
G1 X112.604 Y88.884 E1.43064
G1 X112.071 Y88.884 E0.01673
G1 X144.329 Y121.143 E1.43064
G1 X143.796 Y121.143 E0.01673
G1 X111.537 Y88.884 E1.43064
G1 X111.004 Y88.884 E0.01673
G1 X143.262 Y121.143 E1.43064
G1 X142.729 Y121.143 E0.01673
G1 X110.471 Y88.884 E1.43064
G1 X109.937 Y88.884 E0.01673
G1 X142.196 Y121.143 E1.43064
G1 X141.662 Y121.143 E0.01673
G1 X109.404 Y88.884 E1.43064
G1 X108.871 Y88.884 E0.01673
G1 X141.129 Y121.143 E1.43064
G1 X140.595 Y121.143 E0.01673
G1 X108.337 Y88.884 E1.43064
G1 X107.804 Y88.884 E0.01673
G1 X140.062 Y121.143 E1.43064
G1 X139.529 Y121.143 E0.01673
G1 X107.270 Y88.884 E1.43064
G1 X106.737 Y88.884 E0.01673
G1 X138.995 Y121.143 E1.43064
G1 X138.462 Y121.143 E0.01673
G1 X106.204 Y88.884 E1.43064
G1 X105.670 Y88.884 E0.01673
G1 X137.929 Y121.143 E1.43064
G1 X137.395 Y121.143 E0.01673
G1 X105.137 Y88.884 E1.43064
G1 X104.604 Y88.884 E0.01673
G1 X136.862 Y121.143 E1.43064
G1 X136.329 Y121.143 E0.01673
G1 X104.070 Y88.884 E1.43064
G1 X103.537 Y88.884 E0.01673
G1 X135.795 Y121.143 E1.43064
G1 X135.262 Y121.143 E0.01673
G1 X103.004 Y88.884 E1.43064
G1 X102.470 Y88.884 E0.01673
G1 X134.728 Y121.143 E1.43064
G1 X134.195 Y121.143 E0.01673
G1 X101.937 Y88.884 E1.43064
G1 X101.403 Y88.884 E0.01673
G1 X133.662 Y121.143 E1.43064
G1 X133.128 Y121.143 E0.01673
G1 X100.870 Y88.884 E1.43064
G1 X100.337 Y88.884 E0.01673
G1 X132.595 Y121.143 E1.43064
G1 X132.062 Y121.143 E0.01673
G1 X99.803 Y88.884 E1.43064
G1 X99.270 Y88.884 E0.01673
G1 X131.528 Y121.143 E1.43064
G1 X130.995 Y121.143 E0.01673
G1 X98.737 Y88.884 E1.43064
G1 X98.203 Y88.884 E0.01673
G1 X130.462 Y121.143 E1.43064
G1 X129.928 Y121.143 E0.01673
G1 X97.670 Y88.884 E1.43064
G1 X97.137 Y88.884 E0.01673
G1 X129.395 Y121.143 E1.43064
G1 X128.861 Y121.143 E0.01673
G1 X96.603 Y88.884 E1.43064
G1 X96.070 Y88.884 E0.01673
G1 X128.328 Y121.143 E1.43064
G1 X127.795 Y121.143 E0.01673
G1 X95.536 Y88.884 E1.43064
G1 X95.003 Y88.884 E0.01673
G1 X127.261 Y121.143 E1.43064
G1 X126.728 Y121.143 E0.01673
G1 X94.470 Y88.884 E1.43064
G1 X93.936 Y88.884 E0.01673
G1 X126.195 Y121.143 E1.43064
G1 X125.661 Y121.143 E0.01673
G1 X93.403 Y88.884 E1.43064
G1 X92.870 Y88.884 E0.01673
G1 X125.128 Y121.143 E1.43064
G1 X124.594 Y121.143 E0.01673
G1 X92.336 Y88.884 E1.43064
G1 X91.803 Y88.884 E0.01673
G1 X124.061 Y121.143 E1.43064
G1 X123.528 Y121.143 E0.01673
G1 X91.270 Y88.884 E1.43064
G1 X90.736 Y88.884 E0.01673
G1 X122.994 Y121.143 E1.43064
G1 X122.461 Y121.143 E0.01673
G1 X90.203 Y88.884 E1.43064
G1 X89.669 Y88.884 E0.01673
G1 X121.928 Y121.143 E1.43064
G1 X121.394 Y121.143 E0.01673
G1 X89.136 Y88.884 E1.43064
G1 X88.603 Y88.884 E0.01673
G1 X120.861 Y121.143 E1.43064
G1 X120.328 Y121.143 E0.01673
G1 X88.069 Y88.884 E1.43064
G1 X87.536 Y88.884 E0.01673
G1 X119.794 Y121.143 E1.43064
G1 X119.261 Y121.143 E0.01673
G1 X87.003 Y88.884 E1.43064
G1 X86.469 Y88.884 E0.01673
G1 X118.727 Y121.143 E1.43064
G1 X118.194 Y121.143 E0.01673
G1 X85.936 Y88.884 E1.43064
G1 X85.402 Y88.884 E0.01673
G1 X117.661 Y121.143 E1.43064
G1 X117.127 Y121.143 E0.01673
G1 X84.869 Y88.884 E1.43064
G1 X84.336 Y88.884 E0.01673
G1 X116.594 Y121.143 E1.43064
G1 X116.061 Y121.143 E0.01673
G1 X83.802 Y88.884 E1.43064
G1 X83.269 Y88.884 E0.01673
G1 X115.527 Y121.143 E1.43064
G1 X114.994 Y121.143 E0.01673
G1 X82.736 Y88.884 E1.43064
G1 X82.202 Y88.884 E0.01673
G1 X114.461 Y121.143 E1.43064
G1 X113.927 Y121.143 E0.01673
G1 X81.669 Y88.884 E1.43064
G1 X81.136 Y88.884 E0.01673
G1 X113.394 Y121.143 E1.43064
G1 X112.860 Y121.143 E0.01673
G1 X80.602 Y88.884 E1.43064
G1 X80.069 Y88.884 E0.01673
G1 X112.327 Y121.143 E1.43064
G1 X111.794 Y121.143 E0.01673
G1 X79.535 Y88.884 E1.43064
G1 X79.002 Y88.884 E0.01673
G1 X111.260 Y121.143 E1.43064
G1 X110.727 Y121.143 E0.01673
G1 X78.469 Y88.884 E1.43064
G1 X77.935 Y88.884 E0.01673
G1 X110.194 Y121.143 E1.43064
G1 X109.660 Y121.143 E0.01673
G1 X77.402 Y88.884 E1.43064
G1 X76.869 Y88.884 E0.01673
G1 X109.127 Y121.143 E1.43064
G1 X108.594 Y121.143 E0.01673
G1 X76.369 Y88.918 E1.42912
G1 X76.369 Y89.452 E0.01673
G1 X108.060 Y121.143 E1.40547
G1 X107.527 Y121.143 E0.01673
G1 X76.369 Y89.985 E1.38182
G1 X76.369 Y90.519 E0.01673
G1 X106.993 Y121.143 E1.35816
G1 X106.460 Y121.143 E0.01673
G1 X76.369 Y91.052 E1.33451
G1 X76.369 Y91.585 E0.01673
G1 X105.927 Y121.143 E1.31085
G1 X105.393 Y121.143 E0.01673
G1 X76.369 Y92.119 E1.28720
G1 X76.369 Y92.652 E0.01673
G1 X104.860 Y121.143 E1.26354
G1 X104.327 Y121.143 E0.01673
G1 X76.369 Y93.185 E1.23989
G1 X76.369 Y93.719 E0.01673
G1 X103.793 Y121.143 E1.21623
G1 X103.260 Y121.143 E0.01673
G1 X76.369 Y94.252 E1.19258
G1 X76.369 Y94.785 E0.01673
G1 X102.727 Y121.143 E1.16893
G1 X102.193 Y121.143 E0.01673
G1 X76.369 Y95.319 E1.14527
G1 X76.369 Y95.852 E0.01673
G1 X101.660 Y121.143 E1.12162
G1 X101.126 Y121.143 E0.01673
G1 X76.369 Y96.386 E1.09796
G1 X76.369 Y96.919 E0.01673
G1 X100.593 Y121.143 E1.07431
G1 X100.060 Y121.143 E0.01673
G1 X76.369 Y97.452 E1.05065
G1 X76.369 Y97.986 E0.01673
G1 X99.526 Y121.143 E1.02700
G1 X98.993 Y121.143 E0.01673
G1 X76.369 Y98.519 E1.00334
G1 X76.369 Y99.052 E0.01673
G1 X98.460 Y121.143 E0.97969
G1 X97.926 Y121.143 E0.01673
G1 X76.369 Y99.586 E0.95604
G1 X76.369 Y100.119 E0.01673
G1 X97.393 Y121.143 E0.93238
G1 X96.860 Y121.143 E0.01673
G1 X76.369 Y100.652 E0.90873
G1 X76.369 Y101.186 E0.01673
G1 X96.326 Y121.143 E0.88507
G1 X95.793 Y121.143 E0.01673
G1 X76.369 Y101.719 E0.86142
G1 X76.369 Y102.253 E0.01673
G1 X95.259 Y121.143 E0.83776
G1 X94.726 Y121.143 E0.01673
G1 X76.369 Y102.786 E0.81411
G1 X76.369 Y103.319 E0.01673
G1 X94.193 Y121.143 E0.79045
G1 X93.659 Y121.143 E0.01673
G1 X76.369 Y103.853 E0.76680
G1 X76.369 Y104.386 E0.01673
G1 X93.126 Y121.143 E0.74315
G1 X92.593 Y121.143 E0.01673
