; generated by PrusaSlicer 2.3.0-beta3+win64 on 2021-01-04 at 15:26:47 UTC

; 

; external perimeters extrusion width = 0.45mm
; perimeters extrusion width = 0.45mm
; infill extrusion width = 0.45mm
; solid infill extrusion width = 0.45mm
; top infill extrusion width = 0.40mm
; support material extrusion width = 0.38mm
; first layer extrusion width = 0.42mm

M201 X500 Y500 Z100 E5000 ; sets maximum accelerations, mm/sec^2
M203 X500 Y500 Z10 E60 ; sets maximum feedrates, mm/sec
M204 P500 R1000 T500 ; sets acceleration (P, T) and retract acceleration (R), mm/sec^2
M205 X8.00 Y8.00 Z0.40 E5.00 ; sets the jerk limits, mm/sec
M205 S0 T0 ; sets the minimum extruding and travel feed rate, mm/sec
M107
;TYPE:Custom
G90 ; use absolute coordinates
M83 ; extruder relative mode
M104 S210 ; set extruder temp
M140 S60 ; set bed temp
M190 S60 ; wait for bed temp
M109 S210 ; wait for extruder temp
G28 ; home all
G1 Z2 F240
G1 X2 Y10 F3000
G1 Z0.28 F240
G92 E0
G1 Y190 E15 F1500 ; intro line
G1 X2.3 F5000
G92 E0
G1 Y10 E15 F1200 ; intro line
G92 E0
G21 ; set units to millimeters
G90 ; use absolute coordinates
M83 ; use relative distances for extrusion
; Filament gcode
;LAYER_CHANGE
;Z:0.2
;HEIGHT:0.2
;BEFORE_LAYER_CHANGE
G92 E0
;0.2


G1 E-5.00000 F3600.000
G1 Z0.200 F9000.000
;AFTER_LAYER_CHANGE
;0.2
G1 X101.843 Y84.876
G1 E5.00000 F2400.000
;TYPE:Skirt
;WIDTH:0.42
G1 F1200.000
G1 X102.583 Y84.423 E0.02720
G1 X103.436 Y84.265 E0.02720
G1 X127.724 Y84.440 E0.76155
G1 X128.403 Y84.587 E0.02178
G1 X129.007 Y84.922 E0.02166
G1 X129.490 Y85.416 E0.02166
G1 X129.812 Y86.031 E0.02178
G1 X129.944 Y86.797 E0.02437
G1 X129.930 Y107.215 E0.64019
G1 X125.343 Y140.904 E1.06603
G1 X125.154 Y141.505 E0.01977
G1 X124.814 Y142.036 E0.01977
G1 X124.343 Y142.461 E0.01989
G1 X123.781 Y142.745 E0.01977
G1 X123.018 Y142.877 E0.02426
G1 X107.806 Y142.869 E0.47697
G1 X107.140 Y142.716 E0.02142
G1 X106.545 Y142.380 E0.02142
G1 X106.071 Y141.888 E0.02142
G1 X105.755 Y141.282 E0.02142
G1 X101.058 Y106.890 E1.08836
G1 X101.069 Y86.395 E0.64259
G1 X101.315 Y85.564 E0.02720
G1 X101.807 Y84.923 E0.02531
G1 E-3.50000 F3600.000
;WIPE_START
G1 F7200.000
G1 X102.583 Y84.423 E-0.43873
G1 X103.436 Y84.265 E-0.41200
G1 X104.645 Y84.274 E-0.57427
;WIPE_END
G1 E-0.07500 F3600.000
G1 X124.697 Y108.680 F9000.000
G1 E5.00000 F2400.000
G1 F1200.000
G1 X124.697 Y140.802 E1.00717
G1 X124.556 Y141.258 E0.01496
G1 X124.402 Y141.498 E0.00892
G1 X123.987 Y141.913 E0.01841
G1 X123.470 Y142.167 E0.01806
G1 X123.288 Y142.197 E0.00579
G1 X107.698 Y142.197 E0.48883
G1 X107.242 Y142.056 E0.01496
G1 X107.002 Y141.902 E0.00892
G1 X106.587 Y141.487 E0.01841
G1 X106.333 Y140.970 E0.01806
G1 X106.303 Y140.788 E0.00579
G1 X106.303 Y108.668 E1.00711
G1 X104.693 Y108.680 E0.05050
G1 X104.565 Y108.657 E0.00407
G1 X104.431 Y108.680 E0.00424
G1 X102.986 Y108.647 E0.04533
G1 X102.603 Y108.509 E0.01277
G1 X102.260 Y108.287 E0.01279
G1 X101.848 Y107.846 E0.01894
G1 X101.587 Y107.276 E0.01964
G1 X101.548 Y107.020 E0.00812
G1 X101.548 Y86.340 E0.64841
G1 X101.689 Y85.885 E0.01495
G1 X101.844 Y85.644 E0.00898
G1 X102.363 Y85.156 E0.02233
G1 X102.686 Y85.003 E0.01122
G1 X102.889 Y84.953 E0.00653
G1 X103.777 Y84.957 E0.02787
G1 X103.949 Y84.927 E0.00547
G1 X105.190 Y84.927 E0.03891
G1 X105.319 Y84.949 E0.00410
G1 X105.447 Y84.927 E0.00410
G1 X106.699 Y84.927 E0.03923
G1 X106.827 Y84.949 E0.00410
G1 X106.956 Y84.927 E0.00410
G1 X108.207 Y84.927 E0.03923
G1 X108.336 Y84.949 E0.00410
G1 X108.465 Y84.927 E0.00414
G1 X109.738 Y84.930 E0.03989
G1 X109.850 Y84.948 E0.00357
G1 X109.973 Y84.927 E0.00391
G1 X111.224 Y84.927 E0.03920
G1 X111.352 Y84.949 E0.00410
G1 X111.481 Y84.927 E0.00410
G1 X112.732 Y84.927 E0.03923
G1 X112.860 Y84.949 E0.00410
G1 X112.989 Y84.927 E0.00410
G1 X114.240 Y84.927 E0.03923
G1 X114.369 Y84.949 E0.00410
G1 X114.497 Y84.927 E0.00410
G1 X115.748 Y84.927 E0.03923
G1 X115.877 Y84.949 E0.00410
G1 X116.006 Y84.927 E0.00410
G1 X117.257 Y84.927 E0.03923
G1 X117.385 Y84.949 E0.00410
G1 X117.514 Y84.927 E0.00410
G1 X118.765 Y84.927 E0.03923
G1 X118.894 Y84.949 E0.00410
G1 X119.022 Y84.927 E0.00410
G1 X120.273 Y84.927 E0.03923
G1 X120.402 Y84.949 E0.00410
G1 X120.531 Y84.927 E0.00410
G1 X121.782 Y84.927 E0.03923
G1 X121.910 Y84.949 E0.00410
G1 X122.039 Y84.927 E0.00410
G1 X123.290 Y84.927 E0.03923
G1 X123.419 Y84.949 E0.00410
G1 X123.547 Y84.927 E0.00410
G1 X124.798 Y84.927 E0.03923
G1 X124.927 Y84.949 E0.00410
G1 X125.056 Y84.927 E0.00410
G1 X126.307 Y84.927 E0.03923
G1 X126.435 Y84.949 E0.00410
G1 X126.564 Y84.927 E0.00410
G1 X127.820 Y84.927 E0.03940
G1 X128.384 Y85.093 E0.01842
G1 X128.745 Y85.324 E0.01346
G1 X129.159 Y85.771 E0.01908
G1 X129.413 Y86.333 E0.01934
G1 X129.452 Y86.586 E0.00805
G1 X129.449 Y107.281 E0.64885
G1 X129.408 Y107.480 E0.00638
G1 X129.169 Y107.950 E0.01654
G1 X128.741 Y108.378 E0.01896
G1 X128.269 Y108.618 E0.01662
G1 X128.029 Y108.662 E0.00765
G1 X127.223 Y108.650 E0.02528
G1 X127.051 Y108.680 E0.00547
G1 X125.810 Y108.680 E0.03891
G1 X125.681 Y108.657 E0.00410
G1 X125.553 Y108.680 E0.00410
G1 X124.757 Y108.680 E0.02495
G1 X124.320 Y108.303 F9000.000
G1 F1200.000
G1 X124.320 Y140.771 E1.01800
G1 X124.207 Y141.115 E0.01136
G1 X124.122 Y141.244 E0.00484
G1 X123.743 Y141.624 E0.01682
G1 X123.379 Y141.801 E0.01270
G1 X123.271 Y141.820 E0.00345
G1 X107.729 Y141.820 E0.48728
G1 X107.385 Y141.707 E0.01136
G1 X107.256 Y141.622 E0.00484
G1 X106.876 Y141.243 E0.01682
G1 X106.699 Y140.879 E0.01270
G1 X106.680 Y140.771 E0.00345
G1 X106.680 Y108.303 E1.01800
G1 X106.225 Y108.303 E0.01426
G1 X106.073 Y108.270 E0.00488
G1 X105.921 Y108.303 E0.00488
G1 X104.717 Y108.303 E0.03774
G1 X104.565 Y108.270 E0.00488
G1 X104.412 Y108.303 E0.00491
G1 X103.084 Y108.281 E0.04165
G1 X102.750 Y108.162 E0.01110
G1 X102.516 Y108.009 E0.00877
G1 X102.175 Y107.655 E0.01542
G1 X101.955 Y107.188 E0.01618
G1 X101.925 Y107.004 E0.00584
G1 X101.925 Y86.372 E0.64692
G1 X102.038 Y86.028 E0.01136
G1 X102.122 Y85.900 E0.00479
G1 X102.553 Y85.483 E0.01880
G1 X102.827 Y85.353 E0.00952
G1 X102.949 Y85.326 E0.00391
G1 X103.813 Y85.334 E0.02710
G1 X103.969 Y85.304 E0.00499
G1 X105.167 Y85.304 E0.03754
G1 X105.319 Y85.337 E0.00488
G1 X105.471 Y85.304 E0.00488
G1 X106.675 Y85.304 E0.03774
G1 X106.827 Y85.337 E0.00488
G1 X106.979 Y85.304 E0.00488
G1 X108.183 Y85.304 E0.03774
G1 X108.335 Y85.337 E0.00488
G1 X108.488 Y85.304 E0.00490
G1 X109.717 Y85.307 E0.03851
G1 X109.855 Y85.333 E0.00441
G1 X109.996 Y85.304 E0.00453
G1 X111.200 Y85.304 E0.03775
G1 X111.352 Y85.337 E0.00488
G1 X111.504 Y85.304 E0.00488
G1 X112.708 Y85.304 E0.03774
G1 X112.860 Y85.337 E0.00488
G1 X113.013 Y85.304 E0.00488
G1 X114.216 Y85.304 E0.03774
G1 X114.369 Y85.337 E0.00488
G1 X114.521 Y85.304 E0.00488
G1 X115.725 Y85.304 E0.03774
G1 X115.877 Y85.337 E0.00488
G1 X116.029 Y85.304 E0.00488
G1 X117.233 Y85.304 E0.03774
G1 X117.385 Y85.337 E0.00488
G1 X117.538 Y85.304 E0.00488
G1 X118.741 Y85.304 E0.03774
G1 X118.894 Y85.337 E0.00488
G1 X119.046 Y85.304 E0.00488
G1 X120.250 Y85.304 E0.03774
G1 X120.402 Y85.337 E0.00488
G1 X120.554 Y85.304 E0.00488
G1 X121.758 Y85.304 E0.03774
G1 X121.910 Y85.337 E0.00488
G1 X122.063 Y85.304 E0.00488
G1 X123.266 Y85.304 E0.03774
G1 X123.419 Y85.337 E0.00488
G1 X123.571 Y85.304 E0.00488
G1 X124.775 Y85.304 E0.03774
G1 X124.927 Y85.337 E0.00488
G1 X125.079 Y85.304 E0.00488
G1 X126.283 Y85.304 E0.03774
G1 X126.435 Y85.337 E0.00488
G1 X126.588 Y85.304 E0.00488
G1 X127.791 Y85.304 E0.03773
G1 X128.246 Y85.444 E0.01495
G1 X128.489 Y85.601 E0.00905
G1 X128.831 Y85.960 E0.01555
G1 X129.046 Y86.420 E0.01592
G1 X129.075 Y86.602 E0.00578
G1 X129.075 Y107.235 E0.64692
G1 X129.056 Y107.343 E0.00345
G1 X128.879 Y107.707 E0.01270
G1 X128.498 Y108.088 E0.01688
G1 X128.132 Y108.266 E0.01278
G1 X128.019 Y108.285 E0.00358
G1 X127.187 Y108.273 E0.02608
G1 X127.031 Y108.303 E0.00500
G1 X125.833 Y108.303 E0.03754
G1 X125.681 Y108.270 E0.00488
G1 X125.529 Y108.303 E0.00488
G1 X124.380 Y108.303 E0.03603
G1 X124.167 Y107.876 F9000.000
G1 F1200.000
G1 X123.943 Y107.950 E0.00741
G1 X123.943 Y140.736 E1.02796
G1 X123.861 Y140.963 E0.00757
G1 X123.500 Y141.333 E0.01622
G1 X123.250 Y141.443 E0.00856
G1 X107.764 Y141.443 E0.48553
G1 X107.537 Y141.361 E0.00757
G1 X107.167 Y141.000 E0.01622
G1 X107.057 Y140.750 E0.00856
G1 X107.057 Y107.926 E1.02917
G1 X106.254 Y107.926 E0.02518
G1 X106.073 Y107.878 E0.00588
G1 X105.892 Y107.926 E0.00588
G1 X104.746 Y107.926 E0.03592
G1 X104.565 Y107.878 E0.00588
G1 X104.384 Y107.926 E0.00586
G1 X103.180 Y107.915 E0.03775
G1 X102.899 Y107.814 E0.00937
G1 X102.767 Y107.728 E0.00492
G1 X102.498 Y107.459 E0.01193
G1 X102.321 Y107.095 E0.01270
G1 X102.302 Y106.987 E0.00345
G1 X102.302 Y86.407 E0.64527
G1 X102.402 Y86.153 E0.00856
G1 X102.745 Y85.809 E0.01522
G1 X102.997 Y85.700 E0.00863
G1 X103.855 Y85.712 E0.02689
G1 X103.993 Y85.681 E0.00444
G1 X105.138 Y85.681 E0.03589
G1 X105.319 Y85.729 E0.00588
G1 X105.500 Y85.681 E0.00588
G1 X106.646 Y85.681 E0.03592
G1 X106.827 Y85.729 E0.00588
G1 X107.008 Y85.681 E0.00588
G1 X108.154 Y85.681 E0.03592
G1 X108.335 Y85.729 E0.00588
G1 X108.517 Y85.681 E0.00587
G1 X109.691 Y85.684 E0.03683
G1 X109.862 Y85.723 E0.00548
G1 X110.025 Y85.681 E0.00528
G1 X111.171 Y85.681 E0.03594
G1 X111.352 Y85.729 E0.00588
G1 X111.533 Y85.681 E0.00588
G1 X112.679 Y85.681 E0.03592
G1 X112.860 Y85.729 E0.00588
G1 X113.042 Y85.681 E0.00588
G1 X114.187 Y85.681 E0.03592
G1 X114.369 Y85.729 E0.00588
G1 X114.550 Y85.681 E0.00588
G1 X115.696 Y85.681 E0.03592
G1 X115.877 Y85.729 E0.00588
G1 X116.058 Y85.681 E0.00588
G1 X117.204 Y85.681 E0.03592
G1 X117.385 Y85.729 E0.00588
G1 X117.567 Y85.681 E0.00588
G1 X118.712 Y85.681 E0.03592
G1 X118.894 Y85.729 E0.00588
G1 X119.075 Y85.681 E0.00588
G1 X120.221 Y85.681 E0.03592
G1 X120.402 Y85.729 E0.00588
G1 X120.583 Y85.681 E0.00588
G1 X121.729 Y85.681 E0.03592
G1 X121.910 Y85.729 E0.00588
G1 X122.092 Y85.681 E0.00588
G1 X123.237 Y85.681 E0.03592
G1 X123.419 Y85.729 E0.00588
G1 X123.600 Y85.681 E0.00588
G1 X124.746 Y85.681 E0.03592
G1 X124.927 Y85.729 E0.00588
G1 X125.108 Y85.681 E0.00588
G1 X126.254 Y85.681 E0.03592
G1 X126.435 Y85.729 E0.00588
G1 X126.617 Y85.681 E0.00588
G1 X127.759 Y85.681 E0.03582
G1 X128.103 Y85.794 E0.01136
G1 X128.231 Y85.877 E0.00477
G1 X128.536 Y86.197 E0.01386
G1 X128.679 Y86.509 E0.01075
G1 X128.698 Y86.620 E0.00352
G1 X128.698 Y107.214 E0.64572
G1 X128.588 Y107.464 E0.00856
G1 X128.255 Y107.797 E0.01477
G1 X128.003 Y107.907 E0.00863
G1 X127.145 Y107.895 E0.02689
G1 X127.007 Y107.926 E0.00444
G1 X125.862 Y107.926 E0.03589
G1 X125.681 Y107.878 E0.00588
G1 X125.500 Y107.926 E0.00588
G1 X124.354 Y107.926 E0.03592
G1 X124.225 Y107.892 E0.00419
G1 X125.681 Y107.477 F9000.000
G1 F1200.000
G1 X125.464 Y107.549 E0.00717
G1 X124.390 Y107.549 E0.03368
G1 X124.173 Y107.477 E0.00717
G1 X123.956 Y107.549 E0.00717
G1 X123.566 Y107.549 E0.01223
G1 X123.566 Y140.694 E1.03924
G1 X123.537 Y140.763 E0.00235
G1 X123.263 Y141.037 E0.01215
G1 X123.194 Y141.066 E0.00235
G1 X107.806 Y141.066 E0.48246
G1 X107.737 Y141.037 E0.00235
G1 X107.463 Y140.763 E0.01215
G1 X107.434 Y140.694 E0.00235
G1 X107.434 Y107.549 E1.03924
G1 X106.290 Y107.549 E0.03588
G1 X106.073 Y107.477 E0.00717
G1 X105.856 Y107.549 E0.00717
G1 X104.782 Y107.549 E0.03368
G1 X104.565 Y107.477 E0.00717
G1 X104.348 Y107.549 E0.00717
G1 X103.276 Y107.549 E0.03360
G1 X103.022 Y107.449 E0.00856
G1 X102.789 Y107.216 E0.01032
G1 X102.686 Y106.998 E0.00757
G1 X102.679 Y86.449 E0.64431
G1 X102.708 Y86.380 E0.00235
G1 X102.982 Y86.106 E0.01215
G1 X103.050 Y86.077 E0.00231
G1 X103.908 Y86.090 E0.02690
G1 X104.023 Y86.058 E0.00375
G1 X105.102 Y86.058 E0.03383
G1 X105.319 Y86.130 E0.00717
G1 X105.536 Y86.058 E0.00717
G1 X106.610 Y86.058 E0.03368
G1 X106.827 Y86.130 E0.00717
G1 X107.044 Y86.058 E0.00717
G1 X108.118 Y86.058 E0.03368
G1 X108.335 Y86.130 E0.00717
G1 X108.553 Y86.058 E0.00717
G1 X109.638 Y86.058 E0.03405
G1 X109.836 Y86.132 E0.00663
G1 X110.061 Y86.058 E0.00741
G1 X111.135 Y86.058 E0.03368
G1 X111.352 Y86.130 E0.00717
G1 X111.569 Y86.058 E0.00717
G1 X112.643 Y86.058 E0.03368
G1 X112.860 Y86.130 E0.00717
G1 X113.078 Y86.058 E0.00717
G1 X114.152 Y86.058 E0.03368
G1 X114.369 Y86.130 E0.00717
G1 X114.586 Y86.058 E0.00717
G1 X115.660 Y86.058 E0.03368
G1 X115.877 Y86.130 E0.00717
G1 X116.094 Y86.058 E0.00717
G1 X117.168 Y86.058 E0.03368
G1 X117.385 Y86.130 E0.00717
G1 X117.603 Y86.058 E0.00717
G1 X118.677 Y86.058 E0.03368
G1 X118.894 Y86.130 E0.00717
G1 X119.111 Y86.058 E0.00717
G1 X120.185 Y86.058 E0.03368
G1 X120.402 Y86.130 E0.00717
G1 X120.619 Y86.058 E0.00717
G1 X121.693 Y86.058 E0.03368
G1 X121.910 Y86.130 E0.00717
G1 X122.127 Y86.058 E0.00717
G1 X123.202 Y86.058 E0.03368
G1 X123.419 Y86.130 E0.00717
G1 X123.636 Y86.058 E0.00717
G1 X124.710 Y86.058 E0.03368
G1 X124.927 Y86.130 E0.00717
G1 X125.144 Y86.058 E0.00717
G1 X126.218 Y86.058 E0.03368
G1 X126.435 Y86.130 E0.00717
G1 X126.652 Y86.058 E0.00717
G1 X127.724 Y86.058 E0.03360
G1 X127.978 Y86.157 E0.00856
G1 X128.211 Y86.390 E0.01032
G1 X128.321 Y86.640 E0.00856
G1 X128.321 Y107.158 E0.64331
G1 X128.292 Y107.227 E0.00235
G1 X128.018 Y107.501 E0.01215
G1 X127.950 Y107.529 E0.00231
G1 X127.092 Y107.517 E0.02690
G1 X126.977 Y107.549 E0.00375
G1 X125.898 Y107.549 E0.03383
G1 X125.738 Y107.496 E0.00529
G1 E-3.50000 F3600.000
;WIPE_START
G1 F7200.000
G1 X125.464 Y107.549 E-0.13260
G1 X124.390 Y107.549 E-0.51018
G1 X124.173 Y107.477 E-0.10861
G1 X123.956 Y107.549 E-0.10861
G1 X123.566 Y107.549 E-0.18529
G1 X123.566 Y108.348 E-0.37970
;WIPE_END
G1 E-0.07500 F3600.000
G1 X105.319 Y86.656 F9000.000
G1 E5.00000 F2400.000
G1 F1200.000
G1 X105.511 Y86.464 E0.00852
G1 X105.580 Y86.435 E0.00235
G1 X106.566 Y86.435 E0.03090
G1 X106.635 Y86.464 E0.00235
G1 X106.827 Y86.656 E0.00852
G1 X107.019 Y86.464 E0.00852
G1 X107.089 Y86.435 E0.00235
G1 X108.074 Y86.435 E0.03090
G1 X108.143 Y86.464 E0.00235
G1 X108.335 Y86.656 E0.00852
G1 X108.528 Y86.464 E0.00852
G1 X108.597 Y86.435 E0.00235
G1 X109.582 Y86.435 E0.03090
G1 X109.652 Y86.464 E0.00235
G1 X109.844 Y86.656 E0.00852
G1 X110.036 Y86.464 E0.00852
G1 X110.105 Y86.435 E0.00235
G1 X111.091 Y86.435 E0.03090
G1 X111.160 Y86.464 E0.00235
G1 X111.352 Y86.656 E0.00852
G1 X111.544 Y86.464 E0.00852
G1 X111.614 Y86.435 E0.00235
G1 X112.599 Y86.435 E0.03090
G1 X112.668 Y86.464 E0.00235
G1 X112.860 Y86.656 E0.00852
G1 X113.053 Y86.464 E0.00852
G1 X113.122 Y86.435 E0.00235
G1 X114.107 Y86.435 E0.03090
G1 X114.177 Y86.464 E0.00235
G1 X114.369 Y86.656 E0.00852
G1 X114.561 Y86.464 E0.00852
G1 X114.630 Y86.435 E0.00235
G1 X115.616 Y86.435 E0.03090
G1 X115.685 Y86.464 E0.00235
G1 X115.877 Y86.656 E0.00852
G1 X116.069 Y86.464 E0.00852
G1 X116.139 Y86.435 E0.00235
G1 X117.124 Y86.435 E0.03090
G1 X117.193 Y86.464 E0.00235
G1 X117.385 Y86.656 E0.00852
G1 X117.578 Y86.464 E0.00852
G1 X117.647 Y86.435 E0.00235
G1 X118.632 Y86.435 E0.03090
G1 X118.702 Y86.464 E0.00235
G1 X118.894 Y86.656 E0.00852
G1 X119.086 Y86.464 E0.00852
G1 X119.155 Y86.435 E0.00235
G1 X120.141 Y86.435 E0.03090
G1 X120.210 Y86.464 E0.00235
G1 X120.402 Y86.656 E0.00852
G1 X120.594 Y86.464 E0.00852
G1 X120.663 Y86.435 E0.00235
G1 X121.649 Y86.435 E0.03090
G1 X121.718 Y86.464 E0.00235
G1 X121.910 Y86.656 E0.00852
G1 X122.102 Y86.464 E0.00852
G1 X122.172 Y86.435 E0.00235
G1 X123.157 Y86.435 E0.03090
G1 X123.227 Y86.464 E0.00235
G1 X123.419 Y86.656 E0.00852
G1 X123.611 Y86.464 E0.00852
G1 X123.680 Y86.435 E0.00235
G1 X124.666 Y86.435 E0.03090
G1 X124.735 Y86.464 E0.00235
G1 X124.927 Y86.656 E0.00852
G1 X125.119 Y86.464 E0.00852
G1 X125.188 Y86.435 E0.00235
G1 X126.174 Y86.435 E0.03090
G1 X126.243 Y86.464 E0.00235
G1 X126.435 Y86.656 E0.00852
G1 X126.627 Y86.464 E0.00852
G1 X126.697 Y86.435 E0.00235
G1 X127.682 Y86.435 E0.03090
G1 X127.751 Y86.464 E0.00235
G1 X127.915 Y86.627 E0.00725
G1 X127.944 Y86.697 E0.00235
G1 X127.944 Y107.042 E0.63793
G1 X127.833 Y107.153 E0.00490
G1 X127.300 Y107.153 E0.01673
G1 X127.144 Y106.997 E0.00692
G1 X126.997 Y107.143 E0.00649
G1 X126.928 Y107.172 E0.00235
G1 X125.943 Y107.172 E0.03090
G1 X125.873 Y107.143 E0.00235
