; generated by PrusaSlicer 2.3.0-beta3+win64 on 2021-01-02 at 13:43:57 UTC

; 

; external perimeters extrusion width = 0.45mm
; perimeters extrusion width = 0.45mm
; infill extrusion width = 0.45mm
; solid infill extrusion width = 0.45mm
; top infill extrusion width = 0.40mm
; support material extrusion width = 0.38mm
; first layer extrusion width = 0.42mm

M201 X500 Y500 Z100 E5000 ; sets maximum accelerations, mm/sec^2
M203 X500 Y500 Z10 E60 ; sets maximum feedrates, mm/sec
M204 P500 R1000 T500 ; sets acceleration (P, T) and retract acceleration (R), mm/sec^2
M205 X8.00 Y8.00 Z0.40 E5.00 ; sets the jerk limits, mm/sec
M205 S0 T0 ; sets the minimum extruding and travel feed rate, mm/sec
M107
;TYPE:Custom
G90 ; use absolute coordinates
M83 ; extruder relative mode
M104 S210 ; set extruder temp
M140 S60 ; set bed temp
M190 S60 ; wait for bed temp
M109 S210 ; wait for extruder temp
G28 ; home all
G1 Z2 F240
G1 X2 Y10 F3000
G1 Z0.28 F240
G92 E0
G1 Y190 E15 F1500 ; intro line
G1 X2.3 F5000
G92 E0
G1 Y10 E15 F1200 ; intro line
G92 E0
G21 ; set units to millimeters
G90 ; use absolute coordinates
M83 ; use relative distances for extrusion
; Filament gcode
;LAYER_CHANGE
;Z:0.2
;HEIGHT:0.2
;BEFORE_LAYER_CHANGE
G92 E0
;0.2


G1 E-5.00000 F3600.000
G1 Z0.200 F9000.000
;AFTER_LAYER_CHANGE
;0.2
G1 X103.884 Y93.916
G1 E5.00000 F2400.000
;TYPE:Skirt
;WIDTH:0.42
G1 F1200.000
G1 X104.732 Y93.411 E0.03094
G1 X105.699 Y93.237 E0.03082
G1 X125.541 Y93.417 E0.62214
G1 X126.278 Y93.584 E0.02371
G1 X126.945 Y93.949 E0.02383
G1 X127.487 Y94.482 E0.02383
G1 X127.863 Y95.142 E0.02383
G1 X128.058 Y96.139 E0.03183
G1 X128.021 Y114.428 E0.57347
G1 X123.100 Y131.409 E0.55433
G1 X122.849 Y131.938 E0.01835
G1 X122.489 Y132.405 E0.01848
G1 X122.038 Y132.784 E0.01848
G1 X121.517 Y133.059 E0.01848
G1 X120.541 Y133.254 E0.03119
G1 X110.189 Y133.237 E0.32459
G1 X109.472 Y133.055 E0.02320
G1 X108.826 Y132.687 E0.02333
G1 X108.304 Y132.162 E0.02320
G1 X107.941 Y131.517 E0.02320
G1 X103.047 Y114.560 E0.55340
G1 X102.946 Y113.966 E0.01886
G1 X102.966 Y95.627 E0.57502
G1 X103.269 Y94.688 E0.03094
G1 X103.847 Y93.963 E0.02906
G1 X104.117 Y94.214 F9000.000
G1 F1200.000
G1 X104.853 Y93.768 E0.02696
G1 X105.699 Y93.614 E0.02696
G1 X125.484 Y93.790 E0.62039
G1 X126.130 Y93.931 E0.02071
G1 X126.708 Y94.243 E0.02060
G1 X127.182 Y94.703 E0.02071
G1 X127.511 Y95.276 E0.02071
G1 X127.681 Y96.142 E0.02767
G1 X127.650 Y114.358 E0.57117
G1 X122.749 Y131.269 E0.55203
G1 X122.532 Y131.734 E0.01609
G1 X122.222 Y132.138 E0.01597
G1 X121.834 Y132.468 E0.01597
G1 X121.384 Y132.707 E0.01597
G1 X120.533 Y132.877 E0.02720
G1 X110.260 Y132.865 E0.32210
G1 X109.633 Y132.713 E0.02024
G1 X109.072 Y132.401 E0.02012
G1 X108.614 Y131.947 E0.02024
G1 X108.294 Y131.386 E0.02024
G1 X103.411 Y114.459 E0.55236
G1 X103.324 Y113.969 E0.01562
G1 X103.335 Y95.713 E0.57239
G1 X103.588 Y94.892 E0.02696
G1 X104.080 Y94.261 E0.02508
G1 E-3.50000 F3600.000
;WIPE_START
G1 F7200.000
G1 X104.853 Y93.768 E-0.43520
G1 X105.699 Y93.614 E-0.40845
G1 X106.923 Y93.625 E-0.58135
;WIPE_END
G1 E-0.07500 F3600.000
G1 X122.197 Y115.687 F9000.000
G1 E5.00000 F2400.000
G1 F1200.000
G1 X122.197 Y130.802 E0.47392
G1 X122.056 Y131.258 E0.01496
G1 X121.902 Y131.497 E0.00891
G1 X121.474 Y131.921 E0.01889
G1 X121.304 Y132.034 E0.00640
G1 X120.802 Y132.197 E0.01654
G1 X110.215 Y132.197 E0.33197
G1 X109.983 Y132.153 E0.00740
G1 X109.514 Y131.914 E0.01650
G1 X109.098 Y131.498 E0.01845
G1 X108.944 Y131.258 E0.00892
G1 X108.803 Y130.802 E0.01496
G1 X108.803 Y115.704 E0.47339
G1 X108.326 Y115.670 E0.01501
G1 X108.207 Y115.691 E0.00378
G1 X106.956 Y115.691 E0.03923
G1 X106.827 Y115.668 E0.00409
G1 X106.694 Y115.691 E0.00424
G1 X105.241 Y115.655 E0.04557
G1 X104.729 Y115.451 E0.01728
G1 X104.522 Y115.299 E0.00804
G1 X104.183 Y114.959 E0.01504
G1 X103.903 Y114.445 E0.01838
G1 X103.825 Y114.162 E0.00919
G1 X103.810 Y95.706 E0.57870
G1 X103.855 Y95.474 E0.00740
G1 X104.094 Y95.005 E0.01650
G1 X104.521 Y94.577 E0.01896
G1 X104.945 Y94.354 E0.01502
G1 X105.233 Y94.293 E0.00922
G1 X106.040 Y94.305 E0.02530
G1 X106.212 Y94.275 E0.00547
G1 X107.453 Y94.275 E0.03891
G1 X107.581 Y94.298 E0.00410
G1 X107.710 Y94.275 E0.00410
G1 X108.961 Y94.275 E0.03923
G1 X109.090 Y94.298 E0.00410
G1 X109.218 Y94.275 E0.00410
G1 X110.469 Y94.275 E0.03923
G1 X110.598 Y94.298 E0.00410
G1 X110.727 Y94.275 E0.00410
G1 X111.978 Y94.275 E0.03923
G1 X112.106 Y94.298 E0.00410
G1 X112.235 Y94.275 E0.00410
G1 X113.486 Y94.275 E0.03923
G1 X113.615 Y94.298 E0.00410
G1 X113.743 Y94.275 E0.00410
G1 X114.994 Y94.275 E0.03923
G1 X115.123 Y94.298 E0.00410
G1 X115.252 Y94.275 E0.00410
G1 X116.503 Y94.275 E0.03923
G1 X116.631 Y94.298 E0.00410
G1 X116.760 Y94.275 E0.00410
G1 X118.011 Y94.275 E0.03923
G1 X118.140 Y94.298 E0.00410
G1 X118.268 Y94.275 E0.00410
G1 X119.519 Y94.275 E0.03923
G1 X119.648 Y94.298 E0.00410
G1 X119.778 Y94.275 E0.00414
G1 X121.050 Y94.279 E0.03989
G1 X121.163 Y94.296 E0.00357
G1 X121.286 Y94.275 E0.00391
G1 X122.536 Y94.275 E0.03920
G1 X122.665 Y94.298 E0.00410
G1 X122.793 Y94.275 E0.00410
G1 X124.044 Y94.275 E0.03923
G1 X124.173 Y94.298 E0.00409
G1 X124.303 Y94.275 E0.00414
G1 X125.619 Y94.284 E0.04127
G1 X126.125 Y94.442 E0.01661
G1 X126.483 Y94.672 E0.01335
G1 X126.897 Y95.120 E0.01912
G1 X127.137 Y95.635 E0.01782
G1 X127.187 Y95.907 E0.00869
G1 X127.187 Y114.292 E0.57643
G1 X127.146 Y114.491 E0.00638
G1 X126.906 Y114.962 E0.01654
G1 X126.480 Y115.388 E0.01892
G1 X125.958 Y115.644 E0.01821
G1 X125.769 Y115.673 E0.00600
G1 X124.960 Y115.661 E0.02536
G1 X124.788 Y115.691 E0.00547
G1 X123.547 Y115.691 E0.03891
G1 X123.419 Y115.668 E0.00409
G1 X123.289 Y115.691 E0.00412
G1 X122.257 Y115.688 E0.03238
G1 X121.820 Y115.309 F9000.000
G1 F1200.000
G1 X121.820 Y130.771 E0.48479
G1 X121.707 Y131.115 E0.01136
G1 X121.622 Y131.244 E0.00484
G1 X121.242 Y131.625 E0.01686
G1 X121.152 Y131.688 E0.00345
G1 X120.769 Y131.820 E0.01270
G1 X110.229 Y131.820 E0.33047
G1 X110.121 Y131.801 E0.00345
G1 X109.757 Y131.624 E0.01270
G1 X109.378 Y131.244 E0.01682
G1 X109.293 Y131.115 E0.00484
G1 X109.180 Y130.771 E0.01136
G1 X109.180 Y115.314 E0.48463
G1 X108.488 Y115.314 E0.02171
G1 X108.335 Y115.281 E0.00488
G1 X108.183 Y115.314 E0.00488
G1 X106.979 Y115.314 E0.03774
G1 X106.827 Y115.281 E0.00488
G1 X106.674 Y115.314 E0.00491
G1 X105.345 Y115.291 E0.04169
G1 X104.929 Y115.130 E0.01399
G1 X104.778 Y115.021 E0.00584
G1 X104.471 Y114.714 E0.01362
G1 X104.247 Y114.291 E0.01500
G1 X104.196 Y114.093 E0.00641
G1 X104.188 Y95.720 E0.57605
G1 X104.206 Y95.612 E0.00345
G1 X104.384 Y95.248 E0.01270
G1 X104.765 Y94.866 E0.01693
G1 X105.090 Y94.702 E0.01141
G1 X105.247 Y94.671 E0.00501
G1 X106.075 Y94.682 E0.02598
G1 X106.232 Y94.652 E0.00500
G1 X107.429 Y94.652 E0.03754
G1 X107.581 Y94.685 E0.00488
G1 X107.734 Y94.652 E0.00488
G1 X108.937 Y94.652 E0.03774
G1 X109.090 Y94.685 E0.00488
G1 X109.242 Y94.652 E0.00488
G1 X110.446 Y94.652 E0.03774
G1 X110.598 Y94.685 E0.00488
G1 X110.750 Y94.652 E0.00488
G1 X111.954 Y94.652 E0.03774
G1 X112.106 Y94.685 E0.00488
G1 X112.259 Y94.652 E0.00488
G1 X113.462 Y94.652 E0.03774
G1 X113.615 Y94.685 E0.00488
G1 X113.767 Y94.652 E0.00488
G1 X114.971 Y94.652 E0.03774
G1 X115.123 Y94.685 E0.00488
G1 X115.275 Y94.652 E0.00488
G1 X116.479 Y94.652 E0.03774
G1 X116.631 Y94.685 E0.00488
G1 X116.784 Y94.652 E0.00488
G1 X117.987 Y94.652 E0.03774
G1 X118.140 Y94.685 E0.00488
G1 X118.292 Y94.652 E0.00488
G1 X119.496 Y94.652 E0.03774
G1 X119.648 Y94.685 E0.00488
G1 X119.801 Y94.652 E0.00490
G1 X121.029 Y94.656 E0.03851
G1 X121.167 Y94.682 E0.00441
G1 X121.308 Y94.652 E0.00453
G1 X122.512 Y94.652 E0.03775
G1 X122.665 Y94.685 E0.00488
G1 X122.817 Y94.652 E0.00488
G1 X124.021 Y94.652 E0.03774
G1 X124.173 Y94.685 E0.00488
G1 X124.324 Y94.652 E0.00486
G1 X125.585 Y94.661 E0.03953
G1 X125.982 Y94.792 E0.01311
G1 X126.226 Y94.950 E0.00911
G1 X126.569 Y95.308 E0.01555
G1 X126.783 Y95.769 E0.01592
G1 X126.812 Y95.951 E0.00578
G1 X126.812 Y114.246 E0.57364
G1 X126.794 Y114.354 E0.00345
G1 X126.616 Y114.718 E0.01270
G1 X126.236 Y115.099 E0.01688
G1 X125.869 Y115.277 E0.01278
G1 X125.757 Y115.296 E0.00358
G1 X124.925 Y115.284 E0.02608
G1 X124.768 Y115.314 E0.00500
G1 X123.571 Y115.314 E0.03754
G1 X123.419 Y115.281 E0.00488
G1 X123.267 Y115.314 E0.00487
G1 X121.880 Y115.309 E0.04349
G1 X121.443 Y114.937 F9000.000
G1 F1200.000
G1 X121.443 Y130.736 E0.49535
G1 X121.343 Y130.990 E0.00856
G1 X120.990 Y131.343 E0.01566
G1 X120.736 Y131.443 E0.00856
G1 X110.250 Y131.443 E0.32876
G1 X110.000 Y131.333 E0.00856
G1 X109.657 Y130.990 E0.01522
G1 X109.557 Y130.736 E0.00856
G1 X109.557 Y114.937 E0.49535
G1 X108.517 Y114.937 E0.03262
G1 X108.335 Y114.889 E0.00588
G1 X108.154 Y114.937 E0.00588
G1 X107.008 Y114.937 E0.03592
G1 X106.827 Y114.889 E0.00588
G1 X106.647 Y114.937 E0.00586
G1 X105.444 Y114.926 E0.03771
G1 X105.124 Y114.806 E0.01071
G1 X105.032 Y114.742 E0.00352
G1 X104.760 Y114.470 E0.01208
G1 X104.595 Y114.144 E0.01144
G1 X104.568 Y114.030 E0.00369
G1 X104.565 Y95.741 E0.57342
G1 X104.674 Y95.491 E0.00856
G1 X105.007 Y95.158 E0.01477
G1 X105.260 Y95.048 E0.00863
G1 X106.117 Y95.060 E0.02689
G1 X106.255 Y95.029 E0.00444
G1 X107.400 Y95.029 E0.03589
G1 X107.581 Y95.077 E0.00588
G1 X107.763 Y95.029 E0.00588
G1 X108.908 Y95.029 E0.03592
G1 X109.090 Y95.077 E0.00588
G1 X109.271 Y95.029 E0.00588
G1 X110.417 Y95.029 E0.03592
G1 X110.598 Y95.077 E0.00588
G1 X110.779 Y95.029 E0.00588
G1 X111.925 Y95.029 E0.03592
G1 X112.106 Y95.077 E0.00588
G1 X112.288 Y95.029 E0.00588
G1 X113.433 Y95.029 E0.03592
G1 X113.615 Y95.077 E0.00588
G1 X113.796 Y95.029 E0.00588
G1 X114.942 Y95.029 E0.03592
G1 X115.123 Y95.077 E0.00588
G1 X115.304 Y95.029 E0.00588
G1 X116.450 Y95.029 E0.03592
G1 X116.631 Y95.077 E0.00588
G1 X116.813 Y95.029 E0.00588
G1 X117.958 Y95.029 E0.03592
G1 X118.140 Y95.077 E0.00588
G1 X118.321 Y95.029 E0.00588
G1 X119.467 Y95.029 E0.03592
G1 X119.648 Y95.077 E0.00588
G1 X119.829 Y95.029 E0.00587
G1 X121.003 Y95.033 E0.03683
G1 X121.174 Y95.071 E0.00548
G1 X121.337 Y95.029 E0.00528
G1 X122.483 Y95.029 E0.03594
G1 X122.665 Y95.077 E0.00588
G1 X122.846 Y95.029 E0.00588
G1 X123.992 Y95.029 E0.03592
G1 X124.173 Y95.077 E0.00588
G1 X124.354 Y95.029 E0.00588
G1 X125.497 Y95.029 E0.03582
G1 X125.841 Y95.142 E0.01136
G1 X125.968 Y95.226 E0.00477
G1 X126.274 Y95.545 E0.01386
G1 X126.416 Y95.857 E0.01075
G1 X126.435 Y95.968 E0.00352
G1 X126.429 Y114.257 E0.57344
G1 X126.326 Y114.475 E0.00757
G1 X125.993 Y114.809 E0.01477
G1 X125.740 Y114.918 E0.00863
G1 X124.883 Y114.906 E0.02689
G1 X124.745 Y114.937 E0.00444
G1 X123.600 Y114.937 E0.03589
G1 X123.419 Y114.889 E0.00588
G1 X123.237 Y114.937 E0.00588
G1 X122.092 Y114.937 E0.03592
G1 X121.910 Y114.889 E0.00588
G1 X121.729 Y114.937 E0.00588
G1 X121.503 Y114.937 E0.00710
G1 X123.419 Y114.488 F9000.000
G1 F1200.000
G1 X123.202 Y114.560 E0.00717
G1 X122.127 Y114.560 E0.03368
G1 X121.910 Y114.488 E0.00717
G1 X121.693 Y114.560 E0.00717
G1 X121.066 Y114.560 E0.01968
G1 X121.066 Y130.694 E0.50586
G1 X121.037 Y130.763 E0.00235
G1 X120.763 Y131.037 E0.01215
G1 X120.694 Y131.066 E0.00235
G1 X110.306 Y131.066 E0.32569
G1 X110.237 Y131.037 E0.00235
G1 X109.963 Y130.763 E0.01215
G1 X109.934 Y130.694 E0.00235
G1 X109.934 Y114.489 E0.50809
G1 X109.635 Y114.560 E0.00965
G1 X108.553 Y114.560 E0.03393
G1 X108.335 Y114.488 E0.00717
G1 X108.118 Y114.560 E0.00717
G1 X107.044 Y114.560 E0.03368
G1 X106.827 Y114.488 E0.00717
G1 X106.610 Y114.560 E0.00717
G1 X105.538 Y114.560 E0.03360
G1 X105.284 Y114.461 E0.00856
G1 X105.051 Y114.228 E0.01032
G1 X104.942 Y113.977 E0.00856
G1 X104.942 Y95.797 E0.57003
G1 X104.970 Y95.728 E0.00235
G1 X105.244 Y95.454 E0.01215
G1 X105.312 Y95.426 E0.00231
G1 X106.170 Y95.438 E0.02690
G1 X106.285 Y95.406 E0.00375
G1 X107.364 Y95.406 E0.03383
G1 X107.581 Y95.478 E0.00717
G1 X107.798 Y95.406 E0.00717
G1 X108.873 Y95.406 E0.03368
G1 X109.090 Y95.478 E0.00717
G1 X109.307 Y95.406 E0.00717
G1 X110.381 Y95.406 E0.03368
G1 X110.598 Y95.478 E0.00717
G1 X110.815 Y95.406 E0.00717
G1 X111.889 Y95.406 E0.03368
G1 X112.106 Y95.478 E0.00717
G1 X112.323 Y95.406 E0.00717
G1 X113.397 Y95.406 E0.03368
G1 X113.615 Y95.478 E0.00717
G1 X113.832 Y95.406 E0.00717
G1 X114.906 Y95.406 E0.03368
G1 X115.123 Y95.478 E0.00717
G1 X115.340 Y95.406 E0.00717
G1 X116.414 Y95.406 E0.03368
G1 X116.631 Y95.478 E0.00717
G1 X116.848 Y95.406 E0.00717
G1 X117.922 Y95.406 E0.03368
G1 X118.140 Y95.478 E0.00717
G1 X118.357 Y95.406 E0.00717
G1 X119.431 Y95.406 E0.03368
G1 X119.648 Y95.478 E0.00717
G1 X119.865 Y95.406 E0.00717
G1 X120.951 Y95.406 E0.03405
G1 X121.149 Y95.480 E0.00663
G1 X121.373 Y95.406 E0.00741
G1 X122.447 Y95.406 E0.03368
G1 X122.665 Y95.478 E0.00717
G1 X122.882 Y95.406 E0.00717
G1 X123.956 Y95.406 E0.03368
G1 X124.173 Y95.478 E0.00717
G1 X124.390 Y95.406 E0.00717
G1 X125.462 Y95.406 E0.03360
G1 X125.716 Y95.506 E0.00856
G1 X125.949 Y95.739 E0.01032
G1 X126.058 Y95.989 E0.00856
G1 X126.058 Y114.169 E0.57003
G1 X126.030 Y114.238 E0.00235
G1 X125.756 Y114.512 E0.01215
G1 X125.688 Y114.541 E0.00231
G1 X124.830 Y114.528 E0.02690
G1 X124.715 Y114.560 E0.00375
G1 X123.636 Y114.560 E0.03383
G1 X123.476 Y114.507 E0.00529
G1 E-3.50000 F3600.000
;WIPE_START
G1 F7200.000
G1 X123.202 Y114.560 E-0.13260
G1 X122.127 Y114.560 E-0.51018
G1 X121.910 Y114.488 E-0.10861
G1 X121.693 Y114.560 E-0.10861
G1 X121.066 Y114.560 E-0.29811
G1 X121.066 Y115.122 E-0.26688
;WIPE_END
G1 E-0.07500 F3600.000
G1 X107.581 Y96.004 F9000.000
G1 E5.00000 F2400.000
G1 F1200.000
G1 X107.773 Y95.812 E0.00852
G1 X107.843 Y95.783 E0.00235
G1 X108.828 Y95.783 E0.03090
G1 X108.898 Y95.812 E0.00235
G1 X109.090 Y96.004 E0.00852
G1 X109.282 Y95.812 E0.00852
G1 X109.351 Y95.783 E0.00235
G1 X110.337 Y95.783 E0.03090
G1 X110.406 Y95.812 E0.00235
G1 X110.598 Y96.004 E0.00852
G1 X110.790 Y95.812 E0.00852
G1 X110.859 Y95.783 E0.00235
G1 X111.845 Y95.783 E0.03090
G1 X111.914 Y95.812 E0.00235
G1 X112.106 Y96.004 E0.00852
G1 X112.298 Y95.812 E0.00852
G1 X112.368 Y95.783 E0.00235
G1 X113.353 Y95.783 E0.03090
G1 X113.422 Y95.812 E0.00235
G1 X113.615 Y96.004 E0.00852
G1 X113.807 Y95.812 E0.00852
G1 X113.876 Y95.783 E0.00235
G1 X114.861 Y95.783 E0.03090
G1 X114.931 Y95.812 E0.00235
G1 X115.123 Y96.004 E0.00852
G1 X115.315 Y95.812 E0.00852
G1 X115.384 Y95.783 E0.00235
G1 X116.370 Y95.783 E0.03090
G1 X116.439 Y95.812 E0.00235
G1 X116.631 Y96.004 E0.00852
G1 X116.823 Y95.812 E0.00852
G1 X116.893 Y95.783 E0.00235
G1 X117.878 Y95.783 E0.03090
G1 X117.947 Y95.812 E0.00235
G1 X118.140 Y96.004 E0.00852
G1 X118.332 Y95.812 E0.00852
G1 X118.401 Y95.783 E0.00235
G1 X119.386 Y95.783 E0.03090
G1 X119.456 Y95.812 E0.00235
G1 X119.648 Y96.004 E0.00852
G1 X119.840 Y95.812 E0.00852
G1 X119.909 Y95.783 E0.00235
G1 X120.895 Y95.783 E0.03090
G1 X120.964 Y95.812 E0.00235
G1 X121.156 Y96.004 E0.00852
G1 X121.348 Y95.812 E0.00852
G1 X121.418 Y95.783 E0.00235
G1 X122.403 Y95.783 E0.03090
G1 X122.472 Y95.812 E0.00235
G1 X122.665 Y96.004 E0.00852
G1 X122.857 Y95.812 E0.00852
G1 X122.926 Y95.783 E0.00235
G1 X123.911 Y95.783 E0.03090
G1 X123.981 Y95.812 E0.00235
G1 X124.173 Y96.004 E0.00852
G1 X124.365 Y95.812 E0.00852
G1 X124.434 Y95.783 E0.00235
G1 X125.420 Y95.783 E0.03090
G1 X125.489 Y95.812 E0.00235
G1 X125.653 Y95.976 E0.00725
G1 X125.681 Y96.045 E0.00235
G1 X125.681 Y114.054 E0.56465
G1 X125.571 Y114.164 E0.00490
G1 X125.037 Y114.164 E0.01673
G1 X124.881 Y114.008 E0.00692
G1 X124.735 Y114.154 E0.00649
G1 X124.666 Y114.183 E0.00235
G1 X123.680 Y114.183 E0.03090
G1 X123.611 Y114.154 E0.00235
G1 X123.419 Y113.962 E0.00852
G1 X123.227 Y114.154 E0.00852
G1 X123.157 Y114.183 E0.00235
G1 X122.172 Y114.183 E0.03090
G1 X122.102 Y114.154 E0.00235
G1 X121.910 Y113.962 E0.00852
G1 X121.718 Y114.154 E0.00852
G1 X121.649 Y114.183 E0.00235
G1 X120.689 Y114.183 E0.03011
G1 X120.689 Y130.578 E0.51406
G1 X120.578 Y130.689 E0.00490
G1 X110.422 Y130.689 E0.31844
G1 X110.311 Y130.578 E0.00490
G1 X110.311 Y110.578 E0.62708
G1 X109.844 Y110.385 E0.01587
G1 X109.844 Y113.921 E0.11089
G1 X109.815 Y113.991 E0.00235
G1 X109.652 Y114.154 E0.00725
