; generated by PrusaSlicer 2.3.0-alpha4+win64 on 2020-11-28 at 10:51:07 UTC

; 

; external perimeters extrusion width = 0.45mm
; perimeters extrusion width = 0.45mm
; infill extrusion width = 0.45mm
; solid infill extrusion width = 0.45mm
; top infill extrusion width = 0.40mm
; first layer extrusion width = 0.42mm

M201 X500 Y500 Z100 E5000 ; sets maximum accelerations, mm/sec^2
M203 X500 Y500 Z10 E60 ; sets maximum feedrates, mm/sec
M204 P500 R1000 T500 ; sets acceleration (P, T) and retract acceleration (R), mm/sec^2
M205 X8.00 Y8.00 Z0.40 E5.00 ; sets the jerk limits, mm/sec
M205 S0 T0 ; sets the minimum extruding and travel feed rate, mm/sec
M107
;TYPE:Custom
G90 ; use absolute coordinates
M83 ; extruder relative mode
M104 S205 ; set extruder temp
M140 S60 ; set bed temp
M190 S60 ; wait for bed temp
M109 S205 ; wait for extruder temp
G28 ; home all
G1 Z2 F240
G1 X2 Y10 F3000
G1 Z0.28 F240
G92 E0
G1 Y190 E15 F1500 ; intro line
G1 X2.3 F5000
G92 E0
G1 Y10 E15 F1200 ; intro line
G92 E0
G21 ; set units to millimeters
G90 ; use absolute coordinates
M83 ; use relative distances for extrusion
; Filament gcode
;Z:0.2
;HEIGHT:0.2
;BEFORE_LAYER_CHANGE
G92 E0
;0.2


G1 E-5.00000 F3600.00000
G1 Z0.200 F9000.000
;AFTER_LAYER_CHANGE
;0.2
G1 X64.747 Y77.245
G1 E5.00000 F2400.00000
;TYPE:Skirt
G1 F1200.000
G1 X65.487 Y77.123 E0.02355
G1 X165.504 Y77.123 E3.13594
G1 X166.402 Y77.301 E0.02872
G1 X167.167 Y77.805 E0.02872
G1 X167.684 Y78.562 E0.02872
G1 X167.877 Y79.457 E0.02872
G1 X167.877 Y151.530 E2.25981
G1 X167.808 Y152.070 E0.01704
G1 X167.616 Y152.582 E0.01716
G1 X167.315 Y153.035 E0.01704
G1 X166.919 Y153.407 E0.01704
G1 X166.253 Y153.755 E0.02355
G1 X165.513 Y153.877 E0.02355
G1 X65.489 Y153.877 E3.13618
G1 X64.945 Y153.811 E0.01716
G1 X64.428 Y153.622 E0.01728
G1 X63.968 Y153.318 E0.01728
G1 X63.593 Y152.919 E0.01716
G1 X63.247 Y152.257 E0.02343
G1 X63.123 Y151.516 E0.02355
G1 X63.123 Y79.485 E2.25850
G1 X63.189 Y78.942 E0.01716
G1 X63.378 Y78.428 E0.01716
G1 X63.682 Y77.968 E0.01728
G1 X64.081 Y77.593 E0.01716
G1 X64.693 Y77.273 E0.02167
G1 X65.198 Y77.803 F9000.000
G1 F1200.000
G1 X165.824 Y77.807 E3.15507
G1 X166.062 Y77.862 E0.00767
G1 X166.382 Y78.013 E0.01109
G1 X166.901 Y78.501 E0.02233
G1 X167.056 Y78.742 E0.00898
G1 X167.197 Y79.198 E0.01495
G1 X167.197 Y151.802 E2.27647
G1 X167.056 Y152.259 E0.01500
G1 X166.952 Y152.436 E0.00641
G1 X166.436 Y152.952 E0.02289
G1 X166.259 Y153.056 E0.00641
G1 X165.802 Y153.197 E0.01500
G1 X65.198 Y153.197 E3.15439
G1 X64.741 Y153.056 E0.01500
G1 X64.564 Y152.952 E0.00641
G1 X64.048 Y152.436 E0.02289
G1 X63.944 Y152.259 E0.00641
G1 X63.803 Y151.802 E0.01500
G1 X63.803 Y79.198 E2.27647
G1 X63.944 Y78.741 E0.01500
G1 X64.048 Y78.564 E0.00641
G1 X64.564 Y78.048 E0.02289
G1 X64.741 Y77.944 E0.00641
G1 X65.140 Y77.821 E0.01312
G1 X64.883 Y78.294 F9000.000
G1 F1200.000
G1 X65.229 Y78.180 E0.01144
G1 X165.802 Y78.184 E3.15338
G1 X165.919 Y78.211 E0.00377
G1 X166.192 Y78.340 E0.00947
G1 X166.623 Y78.757 E0.01880
G1 X166.707 Y78.885 E0.00479
G1 X166.820 Y79.229 E0.01136
G1 X166.820 Y151.771 E2.27448
G1 X166.706 Y152.117 E0.01144
G1 X166.644 Y152.217 E0.00369
G1 X166.217 Y152.644 E0.01893
G1 X166.117 Y152.706 E0.00369
G1 X165.771 Y152.820 E0.01144
G1 X65.229 Y152.820 E3.15240
G1 X64.883 Y152.706 E0.01144
G1 X64.783 Y152.644 E0.00369
G1 X64.356 Y152.217 E0.01893
G1 X64.294 Y152.117 E0.00369
G1 X64.180 Y151.771 E0.01144
G1 X64.180 Y79.229 E2.27448
G1 X64.294 Y78.883 E0.01144
G1 X64.356 Y78.783 E0.00369
G1 X64.832 Y78.326 E0.02069
G1 X65.037 Y78.639 F9000.000
G1 F1200.000
G1 X65.264 Y78.557 E0.00757
G1 X165.750 Y78.557 E3.15065
G1 X166.000 Y78.667 E0.00856
G1 X166.343 Y79.010 E0.01522
G1 X166.443 Y79.264 E0.00856
G1 X166.443 Y151.736 E2.27228
G1 X166.343 Y151.990 E0.00856
G1 X165.990 Y152.343 E0.01566
G1 X165.736 Y152.443 E0.00856
G1 X65.264 Y152.443 E3.15020
G1 X65.010 Y152.343 E0.00856
G1 X64.657 Y151.990 E0.01566
G1 X64.557 Y151.736 E0.00856
G1 X64.557 Y79.264 E2.27228
G1 X64.657 Y79.010 E0.00856
G1 X64.991 Y78.676 E0.01480
G1 X65.237 Y78.963 F9000.000
G1 F1200.000
G1 X65.306 Y78.934 E0.00235
G1 X165.694 Y78.934 E3.14758
G1 X165.763 Y78.963 E0.00235
G1 X166.037 Y79.237 E0.01215
G1 X166.066 Y79.306 E0.00235
G1 X166.066 Y151.694 E2.26966
G1 X166.037 Y151.763 E0.00235
G1 X165.763 Y152.037 E0.01215
G1 X165.694 Y152.066 E0.00235
G1 X65.306 Y152.066 E3.14758
G1 X65.237 Y152.037 E0.00235
G1 X64.963 Y151.763 E0.01215
G1 X64.934 Y151.694 E0.00235
G1 X64.934 Y79.306 E2.26966
G1 X64.963 Y79.237 E0.00235
G1 X65.195 Y79.006 E0.01027
G1 X65.422 Y79.311 F9000.000
G1 F1200.000
G1 X165.578 Y79.311 E3.14033
G1 X165.689 Y79.422 E0.00490
G1 X165.689 Y151.578 E2.26241
G1 X165.578 Y151.689 E0.00490
G1 X65.422 Y151.689 E3.14033
G1 X65.311 Y151.578 E0.00490
G1 X65.311 Y79.422 E2.26241
G1 X65.379 Y79.354 E0.00302
G1 X65.710 Y79.710 F9000.000
;TYPE:External perimeter
G1 F1200.000
G1 X165.290 Y79.710 E3.12226
G1 X165.290 Y151.290 E2.24434
G1 X65.710 Y151.290 E3.12226
G1 X65.710 Y79.770 E2.24246
G1 X66.101 Y79.793 F9000.000
G1 X66.087 Y80.087
;TYPE:Perimeter
G1 F1200.000
G1 X164.913 Y80.087 E3.09861
G1 X164.913 Y150.913 E2.22069
G1 X66.087 Y150.913 E3.09861
G1 X66.087 Y80.147 E2.21881
G1 E-3.50000 F3600.00000
G1 F7200.000
G1 X69.087 Y80.145 E-1.42500
G1 E-0.07500 F3600.00000
G1 X74.998 Y126.761 F9000.000
G1 E5.00000 F2400.00000
;TYPE:External perimeter
G1 F1200.000
G1 X78.000 Y126.284 E0.09529
G1 X81.002 Y126.761 E0.09529
G1 X83.710 Y128.140 E0.09529
G1 X85.860 Y130.290 E0.09534
G1 X87.239 Y132.998 E0.09529
G1 X87.715 Y136.000 E0.09529
G1 X87.239 Y139.002 E0.09529
G1 X85.860 Y141.710 E0.09529
G1 X83.710 Y143.860 E0.09534
G1 X81.002 Y145.239 E0.09529
G1 X78.000 Y145.715 E0.09529
G1 X74.998 Y145.239 E0.09529
G1 X72.290 Y143.860 E0.09529
G1 X70.140 Y141.710 E0.09534
G1 X68.761 Y139.002 E0.09529
G1 X68.284 Y136.000 E0.09529
G1 X68.761 Y132.998 E0.09529
G1 X70.140 Y130.290 E0.09529
G1 X72.290 Y128.140 E0.09534
G1 X74.945 Y126.788 E0.09341
G1 X75.081 Y126.370 F9000.000
G1 X74.880 Y126.398
;TYPE:Perimeter
G1 F1200.000
G1 X78.000 Y125.903 E0.09904
G1 X81.120 Y126.398 E0.09904
G1 X83.934 Y127.831 E0.09904
G1 X86.169 Y130.066 E0.09909
G1 X87.602 Y132.880 E0.09904
G1 X88.096 Y136.000 E0.09903
G1 X87.602 Y139.120 E0.09903
G1 X86.169 Y141.934 E0.09904
G1 X83.934 Y144.169 E0.09909
G1 X81.120 Y145.602 E0.09904
G1 X78.000 Y146.096 E0.09903
G1 X74.880 Y145.602 E0.09903
G1 X72.066 Y144.169 E0.09904
G1 X69.831 Y141.934 E0.09909
G1 X68.398 Y139.120 E0.09904
G1 X67.903 Y136.000 E0.09904
G1 X68.398 Y132.880 E0.09904
G1 X69.831 Y130.066 E0.09904
G1 X72.066 Y127.831 E0.09909
G1 X74.827 Y126.425 E0.09715
G1 E-3.50000 F3600.00000
G1 F7200.000
G1 X77.787 Y125.938 E-1.42500
G1 E-0.07500 F3600.00000
G1 X74.998 Y123.239 F9000.000
G1 E5.00000 F2400.00000
;TYPE:External perimeter
G1 F1200.000
G1 X72.290 Y121.860 E0.09529
G1 X70.140 Y119.710 E0.09534
G1 X68.761 Y117.002 E0.09529
G1 X68.284 Y114.000 E0.09529
G1 X68.761 Y110.998 E0.09529
G1 X70.140 Y108.290 E0.09529
G1 X72.290 Y106.140 E0.09534
G1 X74.998 Y104.761 E0.09529
G1 X78.000 Y104.284 E0.09529
G1 X81.002 Y104.761 E0.09529
G1 X83.710 Y106.140 E0.09529
G1 X85.860 Y108.290 E0.09534
G1 X87.239 Y110.998 E0.09529
G1 X87.715 Y114.000 E0.09529
G1 X87.239 Y117.002 E0.09529
G1 X85.860 Y119.710 E0.09529
G1 X83.710 Y121.860 E0.09534
G1 X81.002 Y123.239 E0.09529
G1 X78.000 Y123.715 E0.09529
G1 X75.058 Y123.249 E0.09341
G1 X74.701 Y123.507 F9000.000
G1 X74.880 Y123.602
;TYPE:Perimeter
G1 F1200.000
G1 X72.066 Y122.169 E0.09904
G1 X69.831 Y119.934 E0.09909
G1 X68.398 Y117.120 E0.09904
G1 X67.903 Y114.000 E0.09904
G1 X68.398 Y110.880 E0.09904
G1 X69.831 Y108.066 E0.09904
G1 X72.066 Y105.831 E0.09909
G1 X74.880 Y104.398 E0.09904
G1 X78.000 Y103.903 E0.09904
G1 X81.120 Y104.398 E0.09904
G1 X83.934 Y105.831 E0.09904
G1 X86.169 Y108.066 E0.09909
G1 X87.602 Y110.880 E0.09904
G1 X88.096 Y114.000 E0.09903
G1 X87.602 Y117.120 E0.09903
G1 X86.169 Y119.934 E0.09904
G1 X83.934 Y122.169 E0.09909
G1 X81.120 Y123.602 E0.09904
G1 X78.000 Y124.096 E0.09903
G1 X74.940 Y123.612 E0.09715
G1 E-3.50000 F3600.00000
G1 F7200.000
G1 X72.259 Y122.266 E-1.42500
G1 E-0.07500 F3600.00000
G1 X78.000 Y101.715 F9000.000
G1 E5.00000 F2400.00000
;TYPE:External perimeter
G1 F1200.000
G1 X74.998 Y101.239 E0.09529
G1 X72.290 Y99.860 E0.09529
G1 X70.140 Y97.710 E0.09534
G1 X68.761 Y95.002 E0.09529
G1 X68.284 Y92.000 E0.09529
G1 X68.761 Y88.998 E0.09529
G1 X70.140 Y86.290 E0.09529
G1 X72.290 Y84.140 E0.09534
G1 X74.998 Y82.761 E0.09529
G1 X78.000 Y82.284 E0.09529
G1 X81.002 Y82.761 E0.09529
G1 X83.710 Y84.140 E0.09529
G1 X85.860 Y86.290 E0.09534
G1 X87.239 Y88.998 E0.09529
G1 X87.715 Y92.000 E0.09529
G1 X87.239 Y95.002 E0.09529
G1 X85.860 Y97.710 E0.09529
G1 X83.710 Y99.860 E0.09534
G1 X81.002 Y101.239 E0.09529
G1 X78.059 Y101.705 E0.09341
G1 X77.800 Y102.061 F9000.000
G1 X78.000 Y102.096
;TYPE:Perimeter
G1 F1200.000
G1 X74.880 Y101.602 E0.09903
G1 X72.066 Y100.169 E0.09904
G1 X69.831 Y97.934 E0.09909
G1 X68.398 Y95.120 E0.09904
G1 X67.903 Y92.000 E0.09904
G1 X68.398 Y88.880 E0.09904
G1 X69.831 Y86.066 E0.09904
G1 X72.066 Y83.831 E0.09909
G1 X74.880 Y82.398 E0.09904
G1 X78.000 Y81.903 E0.09904
G1 X81.120 Y82.398 E0.09904
G1 X83.934 Y83.831 E0.09904
G1 X86.169 Y86.066 E0.09909
G1 X87.602 Y88.880 E0.09904
G1 X88.096 Y92.000 E0.09903
G1 X87.602 Y95.120 E0.09903
G1 X86.169 Y97.934 E0.09904
G1 X83.934 Y100.169 E0.09909
G1 X81.120 Y101.602 E0.09904
G1 X78.059 Y102.087 E0.09715
G1 E-3.50000 F3600.00000
G1 F7200.000
G1 X75.094 Y101.635 E-1.42500
G1 E-0.07500 F3600.00000
G1 X91.287 Y84.287 F9000.000
G1 E5.00000 F2400.00000
;TYPE:External perimeter
G1 F1200.000
G1 X139.712 Y84.287 E1.51833
G1 X139.712 Y143.712 E1.86323
G1 X91.287 Y143.712 E1.51833
G1 X91.287 Y84.347 E1.86135
G1 X91.197 Y83.897 F9000.000
G1 X90.910 Y83.910
;TYPE:Perimeter
G1 F1200.000
G1 X140.089 Y83.910 E1.54198
G1 X140.089 Y144.089 E1.88688
G1 X90.910 Y144.089 E1.54198
G1 X90.910 Y83.970 E1.88499
G1 E-3.50000 F3600.00000
G1 F7200.000
G1 X93.910 Y83.966 E-1.42500
G1 E-0.07500 F3600.00000
G1 X143.284 Y92.000 F9000.000
G1 E5.00000 F2400.00000
;TYPE:External perimeter
G1 F1200.000
G1 X143.761 Y88.998 E0.09529
G1 X145.140 Y86.290 E0.09529
G1 X147.290 Y84.140 E0.09534
G1 X149.998 Y82.761 E0.09529
G1 X153.000 Y82.284 E0.09529
G1 X156.002 Y82.761 E0.09529
G1 X158.710 Y84.140 E0.09529
G1 X160.860 Y86.290 E0.09534
G1 X162.239 Y88.998 E0.09529
G1 X162.716 Y92.000 E0.09529
G1 X162.239 Y95.002 E0.09529
G1 X160.860 Y97.710 E0.09529
G1 X158.710 Y99.860 E0.09534
G1 X156.002 Y101.239 E0.09529
G1 X153.000 Y101.715 E0.09529
G1 X149.998 Y101.239 E0.09529
G1 X147.290 Y99.860 E0.09529
G1 X145.140 Y97.710 E0.09534
G1 X143.761 Y95.002 E0.09529
G1 X143.294 Y92.059 E0.09341
G1 X142.938 Y91.800 F9000.000
G1 X142.903 Y92.000
;TYPE:Perimeter
G1 F1200.000
G1 X143.398 Y88.880 E0.09904
G1 X144.831 Y86.066 E0.09904
G1 X147.066 Y83.831 E0.09909
G1 X149.880 Y82.398 E0.09904
G1 X153.000 Y81.903 E0.09904
G1 X156.120 Y82.398 E0.09904
G1 X158.934 Y83.831 E0.09904
G1 X161.169 Y86.066 E0.09909
G1 X162.602 Y88.880 E0.09904
G1 X163.097 Y92.000 E0.09904
G1 X162.602 Y95.120 E0.09904
G1 X161.169 Y97.934 E0.09904
G1 X158.934 Y100.169 E0.09909
G1 X156.120 Y101.602 E0.09904
G1 X153.000 Y102.096 E0.09903
G1 X149.880 Y101.602 E0.09903
G1 X147.066 Y100.169 E0.09904
G1 X144.831 Y97.934 E0.09909
G1 X143.398 Y95.120 E0.09904
G1 X142.912 Y92.059 E0.09716
G1 E-3.50000 F3600.00000
G1 F7200.000
G1 X143.365 Y89.094 E-1.42500
G1 E-0.07500 F3600.00000
G1 X149.998 Y104.761 F9000.000
G1 E5.00000 F2400.00000
;TYPE:External perimeter
G1 F1200.000
G1 X153.000 Y104.284 E0.09529
G1 X156.002 Y104.761 E0.09529
G1 X158.710 Y106.140 E0.09529
G1 X160.860 Y108.290 E0.09534
G1 X162.239 Y110.998 E0.09529
G1 X162.716 Y114.000 E0.09529
G1 X162.239 Y117.002 E0.09529
G1 X160.860 Y119.710 E0.09529
G1 X158.710 Y121.860 E0.09534
G1 X156.002 Y123.239 E0.09529
G1 X153.000 Y123.715 E0.09529
G1 X149.998 Y123.239 E0.09529
G1 X147.290 Y121.860 E0.09529
G1 X145.140 Y119.710 E0.09534
G1 X143.761 Y117.002 E0.09529
G1 X143.285 Y114.000 E0.09529
G1 X143.761 Y110.998 E0.09529
G1 X145.140 Y108.290 E0.09529
G1 X147.290 Y106.140 E0.09534
G1 X149.945 Y104.788 E0.09341
G1 X150.081 Y104.370 F9000.000
G1 X149.880 Y104.398
;TYPE:Perimeter
G1 F1200.000
G1 X153.000 Y103.903 E0.09904
G1 X156.120 Y104.398 E0.09904
G1 X158.934 Y105.831 E0.09904
G1 X161.169 Y108.066 E0.09909
G1 X162.602 Y110.880 E0.09904
G1 X163.097 Y114.000 E0.09904
G1 X162.602 Y117.120 E0.09904
G1 X161.169 Y119.934 E0.09904
G1 X158.934 Y122.169 E0.09909
G1 X156.120 Y123.602 E0.09904
G1 X153.000 Y124.096 E0.09903
G1 X149.880 Y123.602 E0.09903
G1 X147.066 Y122.169 E0.09904
G1 X144.831 Y119.934 E0.09909
G1 X143.398 Y117.120 E0.09904
G1 X142.904 Y114.000 E0.09903
G1 X143.398 Y110.880 E0.09903
G1 X144.831 Y108.066 E0.09904
G1 X147.066 Y105.831 E0.09909
G1 X149.827 Y104.425 E0.09715
G1 E-3.50000 F3600.00000
G1 F7200.000
G1 X152.787 Y103.938 E-1.42500
G1 E-0.07500 F3600.00000
G1 X153.000 Y126.284 F9000.000
G1 E5.00000 F2400.00000
;TYPE:External perimeter
G1 F1200.000
G1 X156.002 Y126.761 E0.09529
G1 X158.710 Y128.140 E0.09529
G1 X160.860 Y130.290 E0.09534
G1 X162.239 Y132.998 E0.09529
G1 X162.716 Y136.000 E0.09529
G1 X162.239 Y139.002 E0.09529
G1 X160.860 Y141.710 E0.09529
G1 X158.710 Y143.860 E0.09534
G1 X156.002 Y145.239 E0.09529
G1 X153.000 Y145.715 E0.09529
G1 X149.998 Y145.239 E0.09529
G1 X147.290 Y143.860 E0.09529
G1 X145.140 Y141.710 E0.09534
G1 X143.761 Y139.002 E0.09529
G1 X143.285 Y136.000 E0.09529
G1 X143.761 Y132.998 E0.09529
G1 X145.140 Y130.290 E0.09529
G1 X147.290 Y128.140 E0.09534
G1 X149.998 Y126.761 E0.09529
G1 X152.941 Y126.294 E0.09341
G1 X153.200 Y125.938 F9000.000
G1 X153.000 Y125.903
;TYPE:Perimeter
G1 F1200.000
G1 X156.120 Y126.398 E0.09904
G1 X158.934 Y127.831 E0.09904
G1 X161.169 Y130.066 E0.09909
G1 X162.602 Y132.880 E0.09904
G1 X163.097 Y136.000 E0.09904
G1 X162.602 Y139.120 E0.09904
G1 X161.169 Y141.934 E0.09904
G1 X158.934 Y144.169 E0.09909
G1 X156.120 Y145.602 E0.09904
G1 X153.000 Y146.096 E0.09903
G1 X149.880 Y145.602 E0.09903
G1 X147.066 Y144.169 E0.09904
G1 X144.831 Y141.934 E0.09909
G1 X143.398 Y139.120 E0.09904
G1 X142.904 Y136.000 E0.09903
G1 X143.398 Y132.880 E0.09903
G1 X144.831 Y130.066 E0.09904
G1 X147.066 Y127.831 E0.09909
G1 X149.880 Y126.398 E0.09904
G1 X152.941 Y125.912 E0.09716
G1 E-3.50000 F3600.00000
G1 F7200.000
G1 X155.906 Y126.365 E-1.42500
G1 E-0.07500 F3600.00000
G1 X164.800 Y80.964 F9000.000
G1 E5.00000 F2400.00000
;TYPE:Solid infill
G1 F1200.000
G1 X164.206 Y80.370 E0.02636
G1 X163.672 Y80.370 E0.01677
G1 X164.630 Y81.328 E0.04253
G1 X164.630 Y81.862 E0.01677
G1 X163.138 Y80.370 E0.06624
G1 X162.604 Y80.370 E0.01677
G1 X164.630 Y82.396 E0.08995
G1 X164.630 Y82.930 E0.01677
G1 X162.070 Y80.370 E0.11366
G1 X161.536 Y80.370 E0.01677
G1 X164.630 Y83.464 E0.13737
G1 X164.630 Y83.998 E0.01677
G1 X161.002 Y80.370 E0.16108
G1 X160.468 Y80.370 E0.01677
G1 X164.630 Y84.532 E0.18479
G1 X164.630 Y85.066 E0.01677
G1 X159.934 Y80.370 E0.20850
G1 X159.400 Y80.370 E0.01677
G1 X164.630 Y85.600 E0.23221
G1 X164.630 Y86.134 E0.01677
G1 X158.866 Y80.370 E0.25592
G1 X158.332 Y80.370 E0.01677
G1 X164.630 Y86.668 E0.27963
G1 X164.630 Y87.202 E0.01677
G1 X157.798 Y80.370 E0.30334
G1 X157.264 Y80.370 E0.01677
G1 X164.630 Y87.736 E0.32705
G1 X164.630 Y88.270 E0.01677
G1 X156.730 Y80.370 E0.35076
G1 X156.196 Y80.370 E0.01677
G1 X164.630 Y88.804 E0.37447
G1 X164.630 Y89.338 E0.01677
G1 X155.662 Y80.370 E0.39818
G1 X155.128 Y80.370 E0.01677
G1 X157.585 Y82.827 E0.10908
G1 X156.497 Y82.273 E0.03834
G1 X154.594 Y80.370 E0.08448
G1 X154.060 Y80.370 E0.01677
G1 X155.742 Y82.051 E0.07466
G1 X155.107 Y81.951 E0.02018
G1 X153.526 Y80.370 E0.07019
G1 X152.992 Y80.370 E0.01677
G1 X154.472 Y81.850 E0.06572
G1 X153.838 Y81.749 E0.02018
G1 X152.458 Y80.370 E0.06124
G1 X151.924 Y80.370 E0.01677
G1 X153.203 Y81.648 E0.05677
G1 X153.000 Y81.616 E0.00645
G1 X152.687 Y81.666 E0.00996
G1 X151.390 Y80.370 E0.05755
G1 X150.856 Y80.370 E0.01677
G1 X152.226 Y81.739 E0.06080
G1 X151.765 Y81.812 E0.01465
