; generated by PrusaSlicer 2.3.0-alpha4+win64 on 2020-11-28 at 12:32:04 UTC

; 

; external perimeters extrusion width = 0.45mm
; perimeters extrusion width = 0.45mm
; infill extrusion width = 0.45mm
; solid infill extrusion width = 0.45mm
; top infill extrusion width = 0.45mm
; first layer extrusion width = 0.42mm

M201 X500 Y500 Z100 E5000 ; sets maximum accelerations, mm/sec^2
M203 X500 Y500 Z10 E60 ; sets maximum feedrates, mm/sec
M204 P500 R1000 T500 ; sets acceleration (P, T) and retract acceleration (R), mm/sec^2
M205 X8.00 Y8.00 Z0.40 E5.00 ; sets the jerk limits, mm/sec
M205 S0 T0 ; sets the minimum extruding and travel feed rate, mm/sec
M107
;TYPE:Custom
G90 ; use absolute coordinates
M83 ; extruder relative mode
M104 S205 ; set extruder temp
M140 S60 ; set bed temp
M190 S60 ; wait for bed temp
M109 S205 ; wait for extruder temp
G28 ; home all
G1 Z2 F240
G1 X2 Y10 F3000
G1 Z0.28 F240
G92 E0
G1 Y190 E15 F1500 ; intro line
G1 X2.3 F5000
G92 E0
G1 Y10 E15 F1200 ; intro line
G92 E0
G21 ; set units to millimeters
G90 ; use absolute coordinates
M83 ; use relative distances for extrusion
; Filament gcode
;Z:0.2
;HEIGHT:0.2
;BEFORE_LAYER_CHANGE
G92 E0
;0.2


G1 E-5.00000 F3600.00000
G1 Z0.200 F9000.000
;AFTER_LAYER_CHANGE
;0.2
G1 X64.889 Y65.022
G1 E5.00000 F2400.00000
;TYPE:Skirt
G1 F1200.000
G1 X67.268 Y62.601 E0.10643
G1 X67.816 Y62.207 E0.02119
G1 X70.522 Y60.828 E0.09522
G1 X71.005 Y60.654 E0.01609
G1 X129.503 Y52.123 E1.85356
G1 X133.141 Y52.695 E0.11545
G1 X136.183 Y54.206 E0.10651
G1 X136.751 Y54.619 E0.02201
G1 X138.901 Y56.771 E0.09537
G1 X139.228 Y57.200 E0.01692
G1 X170.259 Y112.252 E1.98144
G1 X171.667 Y115.012 E0.09715
G1 X171.875 Y115.647 E0.02095
G1 X172.377 Y118.988 E0.10594
G1 X171.878 Y122.338 E0.10618
G1 X171.706 Y122.905 E0.01858
G1 X170.069 Y126.035 E0.11076
G1 X133.055 Y174.053 E1.90095
G1 X130.729 Y176.401 E0.10361
G1 X130.211 Y176.779 E0.02012
G1 X127.138 Y178.306 E0.10758
G1 X123.432 Y178.876 E0.11757
G1 X78.323 Y175.870 E1.41749
G1 X75.147 Y175.375 E0.10078
G1 X74.595 Y175.206 E0.01811
G1 X71.522 Y173.611 E0.10854
G1 X69.109 Y171.240 E0.10607
G1 X68.712 Y170.694 E0.02119
G1 X67.179 Y167.587 E0.10864
G1 X59.124 Y122.348 E1.44073
G1 X58.636 Y119.251 E0.09831
G1 X62.633 Y71.783 E1.49358
G1 X63.125 Y68.648 E0.09952
G1 X63.300 Y68.084 E0.01852
G1 X64.861 Y65.075 E0.10627
G1 E-3.50000 F3600.00000
G1 F7200.000
G1 X66.953 Y62.925 E-1.42500
G1 E-0.07500 F3600.00000
G1 X127.918 Y153.492 F9000.000
G1 E5.00000 F2400.00000
G1 F1200.000
G1 X131.505 Y155.255 E0.12532
G1 X134.730 Y158.287 E0.13879
G1 X137.005 Y162.576 E0.15221
G1 X137.708 Y167.418 E0.15341
G1 X137.644 Y167.791 E0.01188
G1 X137.506 Y168.587 F9000.000
G1 F1200.000
G1 X137.026 Y171.362 E0.08828
G1 X135.247 Y175.001 E0.12701
G1 X132.213 Y178.229 E0.13892
G1 X127.924 Y180.505 E0.15222
G1 X123.082 Y181.208 E0.15341
G1 X119.138 Y180.526 E0.12551
G1 X115.499 Y178.747 E0.12701
G1 X115.257 Y178.520 E0.01039
G1 X114.825 Y178.114 F9000.000
G1 F1200.000
G1 X112.271 Y175.713 E0.10991
G1 X109.995 Y171.424 E0.15222
G1 X109.292 Y166.582 E0.15341
G1 X109.974 Y162.638 E0.12551
G1 X111.753 Y158.999 E0.12701
G1 X114.793 Y155.765 E0.13916
G1 X119.474 Y153.365 E0.16496
G1 X122.962 Y152.813 E0.11071
G1 X123.982 Y152.812 E0.03198
G1 X127.918 Y153.492 E0.12524
G1 E-3.50000 F3600.00000
G1 F7200.000
G1 X124.962 Y152.981 E-1.42500
G1 E-0.07500 F3600.00000
G1 X123.934 Y153.186 F9000.000
G1 E5.00000 F2400.00000
G1 F1200.000
G1 X127.827 Y153.859 E0.12387
G1 X131.313 Y155.581 E0.12189
G1 X134.448 Y158.540 E0.13519
G1 X136.656 Y162.723 E0.14831
G1 X137.332 Y167.383 E0.14763
G1 X137.150 Y168.431 E0.03337
G1 X137.012 Y169.228 F9000.000
G1 F1200.000
G1 X136.659 Y171.271 E0.06502
G1 X134.921 Y174.809 E0.12360
G1 X131.960 Y177.948 E0.13530
G1 X127.777 Y180.156 E0.14831
G1 X123.117 Y180.832 E0.14763
G1 X119.229 Y180.159 E0.12373
G1 X115.992 Y178.569 E0.11308
G1 X115.405 Y178.152 F9000.000
G1 F1200.000
G1 X112.552 Y175.460 E0.12300
G1 X110.344 Y171.277 E0.14831
G1 X109.668 Y166.617 E0.14763
G1 X110.341 Y162.729 E0.12372
G1 X112.079 Y159.191 E0.12360
G1 X115.044 Y156.047 E0.13551
G1 X119.563 Y153.733 E0.15917
G1 X123.007 Y153.188 E0.10932
G1 X123.934 Y153.186 E0.02907
G1 E-3.50000 F3600.00000
G1 F7200.000
G1 X123.007 Y153.188 E-0.44046
G1 X120.959 Y153.512 E-0.98454
G1 E-0.07500 F3600.00000
G1 X127.684 Y154.209 F9000.000
G1 E5.00000 F2400.00000
G1 F1200.000
G1 X131.120 Y155.906 E0.12014
G1 X134.166 Y158.792 E0.13158
G1 X136.288 Y162.810 E0.14245
G1 X136.955 Y167.349 E0.14385
G1 X136.661 Y169.065 E0.05460
G1 X136.526 Y169.859 F9000.000
G1 F1200.000
G1 X136.309 Y171.129 E0.04040
G1 X134.596 Y174.617 E0.12184
G1 X131.708 Y177.666 E0.13167
G1 X127.690 Y179.788 E0.14246
G1 X123.151 Y180.455 E0.14385
G1 X119.371 Y179.809 E0.12025
G1 X116.982 Y178.635 E0.08346
G1 X116.091 Y178.198 F9000.000
G1 F1200.000
G1 X115.883 Y178.096 E0.00728
G1 X112.834 Y175.208 E0.13167
G1 X110.712 Y171.190 E0.14246
G1 X110.045 Y166.651 E0.14385
G1 X110.691 Y162.871 E0.12025
G1 X112.404 Y159.383 E0.12184
G1 X115.296 Y156.330 E0.13184
G1 X119.651 Y154.101 E0.15341
G1 X123.051 Y153.562 E0.10793
G1 X123.887 Y153.561 E0.02619
G1 X127.684 Y154.209 E0.12081
G1 E-3.50000 F3600.00000
G1 F7200.000
G1 X124.727 Y153.704 E-1.42500
G1 E-0.07500 F3600.00000
G1 X123.840 Y153.935 F9000.000
G1 E5.00000 F2400.00000
G1 F1200.000
G1 X127.542 Y154.560 E0.11773
G1 X130.927 Y156.231 E0.11837
G1 X133.884 Y159.044 E0.12794
G1 X135.939 Y162.957 E0.13858
G1 X136.578 Y167.315 E0.13810
G1 X136.170 Y169.703 E0.07598
G1 X136.034 Y170.497 F9000.000
G1 F1200.000
G1 X135.941 Y171.039 E0.01723
G1 X134.270 Y174.425 E0.11839
G1 X131.456 Y177.384 E0.12804
G1 X127.543 Y179.439 E0.13858
G1 X123.185 Y180.078 E0.13810
G1 X119.461 Y179.441 E0.11846
G1 X117.960 Y178.700 E0.05249
G1 X117.075 Y178.264 F9000.000
G1 F1200.000
G1 X116.075 Y177.770 E0.03494
G1 X113.116 Y174.956 E0.12804
G1 X111.061 Y171.043 E0.13858
G1 X110.422 Y166.685 E0.13810
G1 X111.059 Y162.961 E0.11846
G1 X112.730 Y159.575 E0.11839
G1 X115.547 Y156.613 E0.12818
G1 X119.740 Y154.469 E0.14766
G1 X123.096 Y153.937 E0.10654
G1 X123.840 Y153.935 E0.02333
G1 E-3.50000 F3600.00000
G1 F7200.000
G1 X123.096 Y153.937 E-0.35341
G1 X120.868 Y154.290 E-1.07159
G1 E-0.07500 F3600.00000
G1 X127.452 Y154.927 F9000.000
G1 E5.00000 F2400.00000
G1 F1200.000
G1 X130.734 Y156.556 E0.11488
G1 X133.601 Y159.295 E0.12433
G1 X135.571 Y163.044 E0.13277
G1 X136.201 Y167.282 E0.13433
G1 X135.687 Y170.330 E0.09693
G1 X135.351 Y171.383 F9000.000
G1 F1200.000
G1 X133.945 Y174.232 E0.09960
G1 X131.205 Y177.101 E0.12440
G1 X127.456 Y179.071 E0.13278
G1 X123.218 Y179.701 E0.13433
G1 X119.603 Y179.091 E0.11495
G1 X118.945 Y178.766 E0.02302
G1 X118.060 Y178.329 F9000.000
G1 F1200.000
G1 X116.268 Y177.445 E0.06264
G1 X113.399 Y174.705 E0.12440
G1 X111.429 Y170.956 E0.13278
G1 X110.799 Y166.718 E0.13433
G1 X111.409 Y163.103 E0.11495
G1 X113.055 Y159.768 E0.11662
G1 X115.798 Y156.897 E0.12451
G1 X119.828 Y154.836 E0.14193
G1 X123.140 Y154.312 E0.10515
G1 X123.793 Y154.310 E0.02046
G1 X127.452 Y154.927 E0.11635
G1 E-3.50000 F3600.00000
G1 F7200.000
G1 X124.494 Y154.428 E-1.42500
G1 E-0.07500 F3600.00000
G1 X123.747 Y154.684 F9000.000
G1 E5.00000 F2400.00000
G1 F1200.000
G1 X127.310 Y155.277 E0.11324
G1 X130.540 Y156.881 E0.11309
G1 X133.318 Y159.546 E0.12068
G1 X135.222 Y163.190 E0.12893
G1 X135.825 Y167.248 E0.12863
G1 X135.224 Y170.806 E0.11314
G1 X135.051 Y171.154 E0.01219
G1 X134.191 Y172.888 F9000.000
G1 F1200.000
G1 X133.620 Y174.038 E0.04025
G1 X130.954 Y176.817 E0.12076
G1 X127.310 Y178.722 E0.12893
G1 X123.252 Y179.325 E0.12863
G1 X120.595 Y178.876 E0.08449
G1 X119.028 Y178.394 F9000.000
G1 F1200.000
G1 X116.462 Y177.120 E0.08983
G1 X113.683 Y174.454 E0.12076
G1 X111.778 Y170.810 E0.12893
G1 X111.175 Y166.752 E0.12863
G1 X111.776 Y163.194 E0.11314
G1 X113.380 Y159.962 E0.11312
G1 X116.048 Y157.181 E0.12084
G1 X119.917 Y155.204 E0.13621
G1 X123.185 Y154.687 E0.10377
G1 X123.747 Y154.684 E0.01761
G1 X123.731 Y155.061 F9000.000
G1 F1200.000
G1 X123.229 Y155.061 E0.01573
G1 X120.005 Y155.572 E0.10236
G1 X116.297 Y157.465 E0.13052
G1 X113.705 Y160.156 E0.11716
G1 X112.126 Y163.336 E0.11133
G1 X111.552 Y166.784 E0.10960
G1 X112.146 Y170.722 E0.12487
G1 X113.966 Y174.204 E0.12318
G1 X116.656 Y176.795 E0.11710
G1 X119.836 Y178.374 E0.11133
G1 X120.577 Y178.497 E0.02353
G1 E-3.50000 F3600.00000
G1 F7200.000
G1 X119.836 Y178.374 E-0.35649
G1 X117.821 Y177.374 E-1.06851
G1 E-0.07500 F3600.00000
G1 X133.870 Y172.687 F9000.000
G1 E5.00000 F2400.00000
G1 F1200.000
G1 X134.874 Y170.664 E0.07082
G1 X135.448 Y167.216 E0.10960
G1 X134.854 Y163.278 E0.12487
G1 X133.034 Y159.796 E0.12318
G1 X130.346 Y157.205 E0.11706
G1 X127.219 Y155.644 E0.10956
G1 X123.731 Y155.061 E0.11090
G1 E-3.50000 F3600.00000
G1 F7200.000
G1 X126.690 Y155.556 E-1.42500
G1 E-0.07500 F3600.00000
G1 X120.093 Y155.940 F9000.000
G1 E5.00000 F2400.00000
G1 F1200.000
G1 X123.274 Y155.436 E0.10096
G1 X123.685 Y155.436 E0.01290
G1 X127.077 Y155.995 E0.10777
G1 X130.151 Y157.530 E0.10775
G1 X132.749 Y160.045 E0.11339
G1 X134.505 Y163.424 E0.11937
G1 X135.071 Y167.183 E0.11921
G1 X134.506 Y170.574 E0.10778
G1 X132.971 Y173.650 E0.10778
G1 X130.455 Y176.249 E0.11345
G1 X127.076 Y178.005 E0.11937
G1 X123.317 Y178.571 E0.11921
G1 X119.926 Y178.006 E0.10778
G1 X116.850 Y176.471 E0.10779
G1 X114.251 Y173.955 E0.11345
G1 X112.495 Y170.576 E0.11937
G1 X111.929 Y166.817 E0.11921
G1 X112.494 Y163.426 E0.10778
G1 X114.029 Y160.350 E0.10779
G1 X116.546 Y157.750 E0.11349
G1 X120.040 Y155.967 E0.12297
G1 X120.182 Y156.308 F9000.000
G1 F1200.000
G1 X123.318 Y155.811 E0.09957
G1 X123.640 Y155.811 E0.01010
G1 X126.934 Y156.345 E0.10462
G1 X129.957 Y157.854 E0.10593
G1 X132.465 Y160.294 E0.10973
G1 X134.137 Y163.511 E0.11368
G1 X134.694 Y167.152 E0.11547
G1 X134.156 Y170.431 E0.10419
G1 X132.647 Y173.455 E0.10597
G1 X130.206 Y175.965 E0.10978
G1 X126.989 Y177.637 E0.11368
G1 X123.348 Y178.194 E0.11547
G1 X120.069 Y177.656 E0.10419
G1 X117.045 Y176.147 E0.10597
G1 X114.535 Y173.706 E0.10978
G1 X112.863 Y170.489 E0.11368
G1 X112.306 Y166.848 E0.11547
G1 X112.844 Y163.569 E0.10419
G1 X114.353 Y160.545 E0.10597
G1 X116.795 Y158.035 E0.10980
G1 X120.128 Y156.335 E0.11732
G1 X120.270 Y156.675 F9000.000
G1 F1200.000
G1 X123.361 Y156.186 E0.09814
G1 X123.622 Y156.187 E0.00819
G1 X126.845 Y156.712 E0.10236
G1 X129.761 Y158.178 E0.10233
G1 X132.179 Y160.543 E0.10606
G1 X133.788 Y163.657 E0.10991
G1 X134.317 Y167.120 E0.10985
G1 X133.789 Y170.342 E0.10236
G1 X132.323 Y173.259 E0.10237
G1 X129.957 Y175.679 E0.10611
G1 X126.843 Y177.288 E0.10991
G1 X123.380 Y177.817 E0.10985
G1 X120.158 Y177.289 E0.10236
G1 X117.241 Y175.823 E0.10237
G1 X114.821 Y173.457 E0.10611
G1 X113.212 Y170.343 E0.10991
G1 X112.683 Y166.880 E0.10985
G1 X113.211 Y163.658 E0.10236
G1 X114.677 Y160.741 E0.10238
G1 X117.043 Y158.321 E0.10612
G1 X120.216 Y156.703 E0.11169
G1 X120.358 Y157.043 F9000.000
G1 F1200.000
G1 X123.403 Y156.561 E0.09666
G1 X123.601 Y156.564 E0.00622
G1 X126.755 Y157.080 E0.10019
G1 X129.564 Y158.501 E0.09871
G1 X131.893 Y160.790 E0.10241
G1 X133.420 Y163.745 E0.10429
G1 X133.940 Y167.090 E0.10613
G1 X133.439 Y170.198 E0.09872
G1 X132.000 Y173.064 E0.10053
G1 X129.710 Y175.393 E0.10243
G1 X126.755 Y176.920 E0.10429
G1 X123.410 Y177.440 E0.10613
G1 X120.302 Y176.939 E0.09873
G1 X117.436 Y175.500 E0.10053
G1 X115.107 Y173.210 E0.10243
G1 X113.580 Y170.255 E0.10429
G1 X113.060 Y166.910 E0.10613
G1 X113.561 Y163.802 E0.09872
G1 X115.000 Y160.936 E0.10053
G1 X117.290 Y158.607 E0.10242
G1 X120.305 Y157.070 E0.10609
G1 X120.446 Y157.411 F9000.000
G1 F1200.000
G1 X123.443 Y156.936 E0.09514
G1 X123.577 Y156.940 E0.00418
G1 X126.611 Y157.429 E0.09637
G1 X129.367 Y158.824 E0.09686
G1 X131.607 Y161.037 E0.09872
G1 X133.071 Y163.890 E0.10055
G1 X133.563 Y167.059 E0.10055
G1 X133.071 Y170.109 E0.09687
G1 X131.677 Y172.867 E0.09688
G1 X129.463 Y175.107 E0.09874
G1 X126.610 Y176.571 E0.10055
G1 X123.441 Y177.063 E0.10055
G1 X120.391 Y176.571 E0.09687
G1 X117.633 Y175.177 E0.09688
G1 X115.393 Y172.963 E0.09874
G1 X113.929 Y170.110 E0.10055
G1 X113.437 Y166.941 E0.10055
G1 X113.929 Y163.891 E0.09687
G1 X115.323 Y161.133 E0.09688
G1 X117.537 Y158.893 E0.09873
G1 X120.393 Y157.438 E0.10051
G1 X120.535 Y157.779 F9000.000
G1 F1200.000
G1 X123.480 Y157.312 E0.09349
G1 X123.543 Y157.316 E0.00198
G1 X126.522 Y157.797 E0.09460
G1 X129.170 Y159.146 E0.09319
G1 X131.319 Y161.283 E0.09503
G1 X132.721 Y164.034 E0.09683
G1 X133.186 Y167.029 E0.09503
G1 X132.721 Y169.966 E0.09321
G1 X131.354 Y172.670 E0.09501
G1 X129.217 Y174.819 E0.09502
G1 X126.466 Y176.221 E0.09683
G1 X123.471 Y176.686 E0.09503
G1 X120.534 Y176.221 E0.09321
G1 X117.830 Y174.854 E0.09502
G1 X115.681 Y172.717 E0.09502
G1 X114.279 Y169.966 E0.09683
G1 X113.814 Y166.971 E0.09503
G1 X114.279 Y164.034 E0.09321
G1 X115.646 Y161.330 E0.09502
G1 X117.783 Y159.181 E0.09502
G1 X120.481 Y157.806 E0.09495
G1 E-3.50000 F3600.00000
G1 F7200.000
G1 X123.441 Y157.319 E-1.42500
G1 E-0.07500 F3600.00000
G1 X82.862 Y150.474 F9000.000
G1 E5.00000 F2400.00000
G1 F1200.000
G1 X86.501 Y152.253 E0.12701
G1 X89.729 Y155.287 E0.13892
G1 X92.005 Y159.576 E0.15222
G1 X92.708 Y164.418 E0.15341
G1 X92.026 Y168.362 E0.12551
G1 X90.247 Y172.001 E0.12701
G1 X87.213 Y175.229 E0.13892
G1 X85.464 Y176.157 E0.06207
G1 X84.831 Y176.493 F9000.000
G1 F1200.000
G1 X82.924 Y177.505 E0.06768
G1 X78.082 Y178.208 E0.15341
G1 X74.138 Y177.526 E0.12551
G1 X70.499 Y175.747 E0.12701
G1 X67.271 Y172.713 E0.13892
G1 X64.995 Y168.424 E0.15222
G1 X64.292 Y163.582 E0.15341
G1 X64.974 Y159.638 E0.12551
G1 X65.412 Y158.741 E0.03129
G1 X65.693 Y158.167 F9000.000
G1 F1200.000
G1 X66.753 Y155.999 E0.07567
G1 X69.787 Y152.771 E0.13892
G1 X74.076 Y150.495 E0.15222
G1 X78.918 Y149.792 E0.15341
G1 X82.862 Y150.474 E0.12551
G1 E-3.50000 F3600.00000
G1 F7200.000
G1 X79.906 Y149.963 E-1.42500
G1 E-0.07500 F3600.00000
G1 X78.883 Y150.168 F9000.000
G1 E5.00000 F2400.00000
G1 F1200.000
G1 X82.771 Y150.841 E0.12372
G1 X86.309 Y152.579 E0.12360
G1 X89.448 Y155.540 E0.13530
G1 X91.656 Y159.723 E0.14831
G1 X92.332 Y164.383 E0.14763
G1 X91.659 Y168.271 E0.12372
G1 X89.921 Y171.809 E0.12360
G1 X86.960 Y174.948 E0.13530
G1 X84.758 Y176.110 E0.07807
G1 X84.123 Y176.446 F9000.000
G1 F1200.000
G1 X82.777 Y177.156 E0.04771
G1 X78.117 Y177.832 E0.14763
G1 X74.229 Y177.159 E0.12372
G1 X70.691 Y175.421 E0.12360
G1 X67.552 Y172.460 E0.13530
G1 X65.344 Y168.277 E0.14831
G1 X64.668 Y163.617 E0.14763
G1 X65.341 Y159.729 E0.12373
G1 X65.522 Y159.360 E0.01290
G1 X65.803 Y158.787 F9000.000
G1 F1200.000
G1 X67.079 Y156.191 E0.09070
G1 X70.040 Y153.052 E0.13530
G1 X74.223 Y150.844 E0.14831
G1 X78.883 Y150.168 E0.14763
G1 E-3.50000 F3600.00000
G1 F7200.000
G1 X75.914 Y150.599 E-1.42500
G1 E-0.07500 F3600.00000
G1 X82.629 Y151.191 F9000.000
G1 E5.00000 F2400.00000
G1 F1200.000
G1 X86.117 Y152.904 E0.12184
G1 X89.166 Y155.792 E0.13167
G1 X91.288 Y159.810 E0.14246
G1 X91.955 Y164.349 E0.14385
G1 X91.309 Y168.129 E0.12025
G1 X89.596 Y171.617 E0.12184
G1 X86.708 Y174.666 E0.13167
G1 X84.061 Y176.064 E0.09385
G1 X83.426 Y176.399 F9000.000
G1 F1200.000
G1 X82.690 Y176.788 E0.02608
G1 X78.151 Y177.455 E0.14385
G1 X74.371 Y176.809 E0.12025
G1 X70.883 Y175.096 E0.12184
G1 X67.834 Y172.208 E0.13167
G1 X65.712 Y168.190 E0.14246
G1 X65.045 Y163.651 E0.14385
G1 X65.653 Y160.095 E0.11313
G1 X65.915 Y159.415 F9000.000
G1 F1200.000
G1 X67.404 Y156.383 E0.10592
G1 X70.292 Y153.334 E0.13167
G1 X74.310 Y151.212 E0.14246
G1 X78.849 Y150.545 E0.14385
G1 X82.629 Y151.191 E0.12025
G1 E-3.50000 F3600.00000
G1 F7200.000
G1 X79.672 Y150.686 E-1.42500
G1 E-0.07500 F3600.00000
G1 X78.815 Y150.922 F9000.000
G1 E5.00000 F2400.00000
G1 F1200.000
G1 X82.539 Y151.559 E0.11846
G1 X85.925 Y153.230 E0.11839
G1 X88.884 Y156.044 E0.12804
G1 X90.939 Y159.957 E0.13858
G1 X91.578 Y164.315 E0.13810
G1 X90.941 Y168.039 E0.11846
G1 X89.270 Y171.425 E0.11839
G1 X86.456 Y174.384 E0.12804
G1 X83.348 Y176.016 E0.11008
G1 X82.710 Y176.352 F9000.000
G1 F1200.000
