; generated by PrusaSlicer 2.3.0+win64 on 2021-03-08 at 10:01:37 UTC

; 

; external perimeters extrusion width = 0.45mm
; perimeters extrusion width = 0.45mm
; infill extrusion width = 0.45mm
; solid infill extrusion width = 0.45mm
; top infill extrusion width = 0.45mm
; first layer extrusion width = 0.42mm

M201 X500 Y500 Z100 E5000 ; sets maximum accelerations, mm/sec^2
M203 X500 Y500 Z10 E60 ; sets maximum feedrates, mm/sec
M204 P500 R1000 T500 ; sets acceleration (P, T) and retract acceleration (R), mm/sec^2
M205 X8.00 Y8.00 Z0.40 E5.00 ; sets the jerk limits, mm/sec
M205 S0 T0 ; sets the minimum extruding and travel feed rate, mm/sec
M107
;TYPE:Custom
G90 ; use absolute coordinates
M83 ; extruder relative mode
M104 S210 ; set extruder temp
M140 S60 ; set bed temp
M190 S60 ; wait for bed temp
M109 S210 ; wait for extruder temp
G28 ; home all
G1 Z2 F240
G1 X2 Y10 F3000
G1 Z0.28 F240
G92 E0.0
G1 Y190 E15.0 F1500.0 ; intro line
G1 X2.3 F5000
G1 Y10 E30 F1200.0 ; intro line
G92 E0.0
G21 ; set units to millimeters
G90 ; use absolute coordinates
M83 ; use relative distances for extrusion
; Filament gcode
;LAYER_CHANGE
;Z:0.2
;HEIGHT:0.2
;BEFORE_LAYER_CHANGE
;0.2


G1 E-5.00000 F3600.000
G1 Z0.200 F9000.000
;AFTER_LAYER_CHANGE
;0.2
G1 X106.459 Y87.363
G1 E5.00000 F2400.000
;TYPE:Skirt
;WIDTH:0.42
G1 F1200.000
G1 X107.246 Y87.137 E0.02567
G1 X112.504 Y87.123 E0.16486
G1 X113.029 Y87.182 E0.01657
G1 X113.528 Y87.357 E0.01657
G1 X113.979 Y87.639 E0.01668
G1 X114.353 Y88.011 E0.01657
G1 X135.796 Y116.157 E1.10941
G1 X137.233 Y119.685 E0.11944
G1 X137.377 Y120.491 E0.02567
G1 X137.237 Y121.305 E0.02590
G1 X135.833 Y124.781 E0.11752
G1 X135.272 Y125.437 E0.02708
G1 X131.663 Y128.271 E0.14389
G1 X131.153 Y128.566 E0.01846
G1 X125.355 Y130.874 E0.19568
G1 X117.910 Y132.381 E0.23817
G1 X109.998 Y132.877 E0.24855
G1 X101.958 Y132.367 E0.25259
G1 X94.634 Y130.870 E0.23438
G1 X88.584 Y128.435 E0.20449
G1 X84.744 Y125.450 E0.15250
G1 X84.382 Y125.092 E0.01597
G1 X84.038 Y124.524 E0.02083
G1 X82.764 Y121.308 E0.10845
G1 X82.625 Y120.593 E0.02284
G1 X82.708 Y119.869 E0.02284
G1 X84.167 Y116.219 E0.12323
G1 X105.796 Y87.843 E1.11873
G1 X106.411 Y87.398 E0.02379
G1 E-3.50000 F3600.000
;WIPE_START
G1 F7200.000
G1 X107.246 Y87.137 E-0.41578
G1 X109.371 Y87.131 E-1.00922
;WIPE_END
G1 E-0.07500 F3600.000
G1 X108.087 Y90.087 F9000.000
G1 E5.00000 F2400.000
;TYPE:Perimeter
G1 F1200.000
G1 X111.913 Y90.087 E0.11996
G1 X111.913 Y111.209 E0.66227
G1 X117.647 Y111.572 E0.18016
G1 X124.526 Y112.975 E0.22011
G1 X129.929 Y115.136 E0.18245
G1 X133.289 Y117.774 E0.13394
G1 X134.369 Y120.500 E0.09194
G1 X133.289 Y123.226 E0.09194
G1 X129.929 Y125.864 E0.13394
G1 X124.526 Y128.025 E0.18245
G1 X117.647 Y129.428 E0.22011
G1 X110.000 Y129.912 E0.24026
G1 X102.353 Y129.428 E0.24026
G1 X95.474 Y128.025 E0.22011
G1 X90.071 Y125.864 E0.18245
G1 X86.711 Y123.226 E0.13394
G1 X85.631 Y120.500 E0.09194
G1 X86.711 Y117.774 E0.09194
G1 X90.071 Y115.136 E0.13394
G1 X95.474 Y112.975 E0.18245
G1 X102.353 Y111.572 E0.22011
G1 X108.087 Y111.209 E0.18016
G1 X108.087 Y90.147 E0.66039
G1 E-3.50000 F3600.000
;WIPE_START
G1 F7200.000
G1 X111.087 Y90.100 E-1.42500
;WIPE_END
G1 E-0.07500 F3600.000
G1 X112.290 Y110.855 F9000.000
G1 E5.00000 F2400.000
;TYPE:External perimeter
G1 F1200.000
G1 X117.697 Y111.198 E0.16988
G1 X124.635 Y112.612 E0.22199
G1 X130.119 Y114.806 E0.18521
G1 X133.602 Y117.540 E0.13883
G1 X134.774 Y120.500 E0.09982
G1 X133.602 Y123.460 E0.09982
G1 X130.119 Y126.194 E0.13883
G1 X124.635 Y128.388 E0.18521
G1 X117.697 Y129.802 E0.22199
G1 X110.000 Y130.290 E0.24183
G1 X102.303 Y129.802 E0.24183
G1 X95.365 Y128.388 E0.22199
G1 X89.881 Y126.194 E0.18521
G1 X86.398 Y123.460 E0.13883
G1 X85.226 Y120.500 E0.09982
G1 X86.398 Y117.540 E0.09982
G1 X89.881 Y114.806 E0.13883
G1 X95.365 Y112.612 E0.18521
G1 X102.303 Y111.198 E0.22199
G1 X107.710 Y110.855 E0.16988
G1 X107.710 Y89.710 E0.66300
G1 X112.290 Y89.710 E0.14360
G1 X112.290 Y110.795 E0.66112
G1 X112.302 Y111.255 F9000.000
G1 E-3.50000 F3600.000
;WIPE_START
G1 F7200.000
G1 X115.282 Y111.018 E-1.42500
;WIPE_END
G1 E-0.07500 F3600.000
G1 X111.800 Y90.968 F9000.000
G1 E5.00000 F2400.000
;TYPE:Solid infill
;WIDTH:0.422764
G1 F1200.000
G1 X111.201 Y90.370 E0.02673
G1 X110.664 Y90.370 E0.01697
G1 X111.630 Y91.336 E0.04315
G1 X111.630 Y91.873 E0.01697
G1 X110.127 Y90.370 E0.06714
G1 X109.590 Y90.370 E0.01697
G1 X111.630 Y92.410 E0.09113
G1 X111.630 Y92.947 E0.01697
G1 X109.053 Y90.370 E0.11513
G1 X108.515 Y90.370 E0.01697
G1 X111.630 Y93.485 E0.13912
G1 X111.630 Y94.022 E0.01697
G1 X108.370 Y90.761 E0.14562
G1 X108.370 Y91.299 E0.01697
G1 X111.630 Y94.559 E0.14562
G1 X111.630 Y95.096 E0.01697
G1 X108.370 Y91.836 E0.14562
G1 X108.370 Y92.373 E0.01697
G1 X111.630 Y95.633 E0.14562
G1 X111.630 Y96.170 E0.01697
G1 X108.370 Y92.910 E0.14562
G1 X108.370 Y93.447 E0.01697
G1 X111.630 Y96.708 E0.14562
G1 X111.630 Y97.245 E0.01697
G1 X108.370 Y93.985 E0.14562
G1 X108.370 Y94.522 E0.01697
G1 X111.630 Y97.782 E0.14562
G1 X111.630 Y98.319 E0.01697
G1 X108.370 Y95.059 E0.14562
G1 X108.370 Y95.596 E0.01697
G1 X111.630 Y98.856 E0.14562
G1 X111.630 Y99.394 E0.01697
G1 X108.370 Y96.133 E0.14562
G1 X108.370 Y96.670 E0.01697
G1 X111.630 Y99.931 E0.14562
G1 X111.630 Y100.468 E0.01697
G1 X108.370 Y97.208 E0.14562
G1 X108.370 Y97.745 E0.01697
G1 X111.630 Y101.005 E0.14562
G1 X111.630 Y101.542 E0.01697
G1 X108.370 Y98.282 E0.14562
G1 X108.370 Y98.819 E0.01697
G1 X111.630 Y102.079 E0.14562
G1 X111.630 Y102.617 E0.01697
G1 X108.370 Y99.356 E0.14562
G1 X108.370 Y99.894 E0.01697
G1 X111.630 Y103.154 E0.14562
G1 X111.630 Y103.691 E0.01697
G1 X108.370 Y100.431 E0.14562
G1 X108.370 Y100.968 E0.01697
G1 X111.630 Y104.228 E0.14562
G1 X111.630 Y104.765 E0.01697
G1 X108.370 Y101.505 E0.14562
G1 X108.370 Y102.042 E0.01697
G1 X111.630 Y105.303 E0.14562
G1 X111.630 Y105.840 E0.01697
G1 X108.370 Y102.579 E0.14562
G1 X108.370 Y103.117 E0.01697
G1 X111.630 Y106.377 E0.14562
G1 X111.630 Y106.914 E0.01697
G1 X108.370 Y103.654 E0.14562
G1 X108.370 Y104.191 E0.01697
G1 X111.630 Y107.451 E0.14562
G1 X111.630 Y107.988 E0.01697
G1 X108.370 Y104.728 E0.14562
G1 X108.370 Y105.265 E0.01697
G1 X111.630 Y108.526 E0.14562
G1 X111.630 Y109.063 E0.01697
G1 X108.370 Y105.803 E0.14562
G1 X108.370 Y106.340 E0.01697
G1 X111.630 Y109.600 E0.14562
G1 X111.630 Y110.137 E0.01697
G1 X108.370 Y106.877 E0.14562
G1 X108.370 Y107.414 E0.01697
G1 X111.800 Y110.844 E0.15320
G1 E-3.50000 F3600.000
;WIPE_START
G1 F7200.000
G1 X109.678 Y108.723 E-1.42500
;WIPE_END
G1 E-0.07500 F3600.000
G1 X131.201 Y116.278 F9000.000
G1 E5.00000 F2400.000
G1 F1200.000
G1 X133.173 Y118.251 E0.08811
G1 X133.526 Y119.141 E0.03022
G1 X129.757 Y115.372 E0.16834
G1 X128.862 Y115.014 E0.03046
G1 X133.878 Y120.030 E0.22407
G1 X134.064 Y120.500 E0.01596
G1 X133.992 Y120.682 E0.00617
G1 X127.966 Y114.655 E0.26916
G1 X127.071 Y114.297 E0.03046
G1 X133.840 Y121.066 E0.30235
G1 X133.688 Y121.451 E0.01307
G1 X126.176 Y113.939 E0.33553
G1 X125.280 Y113.581 E0.03046
G1 X133.535 Y121.836 E0.36871
G1 X133.383 Y122.221 E0.01307
G1 X124.400 Y113.238 E0.40124
G1 X123.725 Y113.100 E0.02175
G1 X133.230 Y122.605 E0.42457
G1 X133.078 Y122.990 E0.01307
G1 X123.050 Y112.962 E0.44790
G1 X122.376 Y112.825 E0.02175
G1 X132.801 Y123.250 E0.46565
G1 X132.500 Y123.486 E0.01208
G1 X121.701 Y112.687 E0.48235
G1 X121.026 Y112.550 E0.02175
G1 X132.199 Y123.722 E0.49904
G1 X131.898 Y123.959 E0.01208
G1 X120.351 Y112.412 E0.51574
G1 X119.677 Y112.275 E0.02175
G1 X131.597 Y124.195 E0.53244
G1 X131.296 Y124.431 E0.01208
G1 X119.002 Y112.137 E0.54914
G1 X118.327 Y112.000 E0.02175
G1 X130.995 Y124.667 E0.56583
G1 X130.694 Y124.904 E0.01208
G1 X117.652 Y111.862 E0.58253
G1 X117.073 Y111.819 E0.01836
G1 X130.393 Y125.140 E0.59499
G1 X130.092 Y125.376 E0.01208
G1 X116.499 Y111.783 E0.60716
G1 X115.926 Y111.747 E0.01815
G1 X129.791 Y125.612 E0.61934
G1 X129.409 Y125.767 E0.01303
G1 X115.352 Y111.710 E0.62788
G1 X114.779 Y111.674 E0.01815
G1 X129.025 Y125.921 E0.63636
G1 X128.642 Y126.074 E0.01305
G1 X114.205 Y111.638 E0.64484
G1 X113.632 Y111.602 E0.01815
G1 X128.258 Y126.228 E0.65331
G1 X127.874 Y126.381 E0.01305
G1 X113.058 Y111.565 E0.66179
G1 X112.485 Y111.529 E0.01815
G1 X127.491 Y126.535 E0.67027
G1 X127.107 Y126.688 E0.01305
G1 X108.370 Y107.951 E0.83692
G1 X108.370 Y108.488 E0.01697
G1 X126.723 Y126.842 E0.81979
G1 X126.340 Y126.995 E0.01305
G1 X108.370 Y109.026 E0.80265
G1 X108.370 Y109.563 E0.01697
G1 X125.956 Y127.149 E0.78551
G1 X125.572 Y127.302 E0.01305
G1 X108.370 Y110.100 E0.76837
G1 X108.370 Y110.637 E0.01697
G1 X125.188 Y127.456 E0.75123
G1 X124.805 Y127.609 E0.01305
G1 X108.370 Y111.174 E0.73409
G1 X108.370 Y111.475 E0.00949
G1 X108.147 Y111.489 E0.00705
G1 X124.417 Y127.759 E0.72673
G1 X123.971 Y127.850 E0.01438
G1 X107.642 Y111.521 E0.72936
G1 X107.137 Y111.553 E0.01599
G1 X123.525 Y127.941 E0.73200
G1 X123.079 Y128.032 E0.01438
G1 X106.632 Y111.585 E0.73463
G1 X106.126 Y111.617 E0.01599
G1 X122.632 Y128.123 E0.73727
G1 X122.186 Y128.214 E0.01438
G1 X105.621 Y111.649 E0.73990
G1 X105.116 Y111.681 E0.01599
G1 X121.740 Y128.305 E0.74254
G1 X121.294 Y128.396 E0.01438
G1 X104.611 Y111.713 E0.74517
G1 X104.106 Y111.745 E0.01599
G1 X120.848 Y128.487 E0.74781
G1 X120.401 Y128.578 E0.01438
G1 X103.600 Y111.777 E0.75044
G1 X103.095 Y111.809 E0.01599
G1 X119.955 Y128.669 E0.75308
G1 X119.509 Y128.760 E0.01438
G1 X102.590 Y111.841 E0.75571
G1 X102.390 Y111.853 E0.00633
G1 X102.120 Y111.908 E0.00869
G1 X119.063 Y128.851 E0.75675
G1 X118.616 Y128.941 E0.01438
G1 X101.674 Y111.999 E0.75675
G1 X101.228 Y112.090 E0.01438
G1 X118.170 Y129.032 E0.75675
G1 X117.724 Y129.123 E0.01438
G1 X100.782 Y112.181 E0.75675
G1 X100.336 Y112.272 E0.01438
G1 X117.234 Y129.170 E0.75479
G1 X116.729 Y129.202 E0.01599
G1 X99.889 Y112.363 E0.75216
G1 X99.443 Y112.454 E0.01438
G1 X116.224 Y129.234 E0.74952
G1 X115.718 Y129.266 E0.01599
G1 X98.997 Y112.545 E0.74689
G1 X98.551 Y112.636 E0.01438
G1 X115.213 Y129.298 E0.74425
G1 X114.708 Y129.330 E0.01599
G1 X98.105 Y112.727 E0.74162
G1 X97.658 Y112.818 E0.01438
G1 X114.203 Y129.362 E0.73898
G1 X113.698 Y129.394 E0.01599
G1 X97.212 Y112.909 E0.73635
G1 X96.766 Y113.000 E0.01438
G1 X113.192 Y129.426 E0.73371
G1 X112.687 Y129.458 E0.01599
G1 X96.320 Y113.091 E0.73108
G1 X95.874 Y113.182 E0.01438
G1 X112.182 Y129.490 E0.72844
G1 X111.677 Y129.522 E0.01599
G1 X95.445 Y113.291 E0.72501
G1 X95.062 Y113.444 E0.01305
G1 X111.172 Y129.554 E0.71958
G1 X110.666 Y129.586 E0.01599
G1 X94.678 Y113.598 E0.71415
G1 X94.294 Y113.751 E0.01305
G1 X110.161 Y129.618 E0.70873
G1 X110.000 Y129.628 E0.00510
G1 X109.609 Y129.604 E0.01236
G1 X93.910 Y113.905 E0.70122
G1 X93.527 Y114.058 E0.01305
G1 X109.036 Y129.567 E0.69274
G1 X108.462 Y129.531 E0.01815
G1 X93.143 Y114.212 E0.68427
G1 X92.759 Y114.365 E0.01305
G1 X107.889 Y129.495 E0.67579
G1 X107.315 Y129.458 E0.01815
G1 X92.376 Y114.519 E0.66731
G1 X91.992 Y114.672 E0.01305
G1 X106.742 Y129.422 E0.65884
G1 X106.169 Y129.386 E0.01815
G1 X91.608 Y114.826 E0.65036
G1 X91.225 Y114.979 E0.01305
G1 X105.595 Y129.350 E0.64188
G1 X105.022 Y129.313 E0.01815
G1 X90.841 Y115.133 E0.63341
G1 X90.457 Y115.286 E0.01305
G1 X104.448 Y129.277 E0.62493
G1 X103.875 Y129.241 E0.01815
G1 X90.104 Y115.470 E0.61510
G1 X89.803 Y115.706 E0.01208
G1 X103.301 Y129.204 E0.60292
G1 X102.728 Y129.168 E0.01815
G1 X89.502 Y115.942 E0.59075
G1 X89.201 Y116.179 E0.01208
G1 X102.113 Y129.090 E0.57671
G1 X101.438 Y128.953 E0.02175
G1 X88.900 Y116.415 E0.56002
G1 X88.599 Y116.651 E0.01208
G1 X100.763 Y128.815 E0.54332
G1 X100.088 Y128.677 E0.02175
G1 X88.298 Y116.887 E0.52662
G1 X87.997 Y117.124 E0.01208
G1 X99.414 Y128.540 E0.50992
G1 X98.739 Y128.402 E0.02175
G1 X87.696 Y117.360 E0.49323
G1 X87.396 Y117.596 E0.01208
G1 X98.064 Y128.265 E0.47653
G1 X97.389 Y128.127 E0.02175
G1 X87.095 Y117.832 E0.45983
G1 X86.946 Y117.949 E0.00596
G1 X86.869 Y118.144 E0.00662
G1 X96.715 Y127.990 E0.43977
G1 X96.040 Y127.852 E0.02175
G1 X86.716 Y118.529 E0.41644
G1 X86.564 Y118.913 E0.01307
G1 X95.303 Y127.652 E0.39033
G1 X94.408 Y127.294 E0.03046
G1 X86.412 Y119.298 E0.35715
G1 X86.259 Y119.683 E0.01307
G1 X93.512 Y126.936 E0.32397
G1 X92.617 Y126.578 E0.03046
G1 X86.107 Y120.068 E0.29079
G1 X85.954 Y120.453 E0.01307
G1 X91.722 Y126.220 E0.25760
G1 X90.826 Y125.862 E0.03046
G1 X86.245 Y121.280 E0.20466
G1 X86.597 Y122.169 E0.03022
G1 X90.236 Y125.808 E0.16253
M106 S255
;LAYER_CHANGE
;Z:0.44
;HEIGHT:0.24
;BEFORE_LAYER_CHANGE
;0.44


G1 E-3.50000 F3600.000
;WIPE_START
G1 F7200.000
G1 X88.114 Y123.687 E-1.42500
;WIPE_END
G1 E-0.07500 F3600.000
G1 Z0.440 F9000.000
;AFTER_LAYER_CHANGE
;0.44
M104 S205 ; set temperature
G1 X82.625 Y120.593
G1 E5.00000 F2400.000
;TYPE:Skirt
;WIDTH:0.42
G1 X82.708 Y119.869 E0.02678
G1 X84.167 Y116.219 E0.14451
G1 X105.796 Y87.843 E1.31191
G1 X106.459 Y87.363 E0.03010
G1 X107.246 Y87.137 E0.03010
G1 X112.504 Y87.123 E0.19332
G1 X113.029 Y87.182 E0.01943
G1 X113.528 Y87.357 E0.01943
G1 X113.979 Y87.639 E0.01957
G1 X114.353 Y88.011 E0.01943
G1 X135.796 Y116.157 E1.30099
G1 X137.233 Y119.685 E0.14007
G1 X137.377 Y120.491 E0.03010
G1 X137.237 Y121.305 E0.03038
G1 X135.833 Y124.781 E0.13781
G1 X135.272 Y125.437 E0.03175
G1 X131.663 Y128.271 E0.16873
G1 X131.153 Y128.566 E0.02165
G1 X125.355 Y130.874 E0.22947
G1 X117.910 Y132.381 E0.27929
G1 X109.998 Y132.877 E0.29147
G1 X101.958 Y132.367 E0.29621
G1 X94.634 Y130.870 E0.27485
G1 X88.584 Y128.435 E0.23980
G1 X84.744 Y125.450 E0.17883
G1 X84.382 Y125.092 E0.01873
G1 X84.038 Y124.524 E0.02443
G1 X82.764 Y121.308 E0.12718
G1 X82.636 Y120.652 E0.02458
G1 E-3.50000 F3600.000
;WIPE_START
G1 F7200.000
G1 X82.708 Y119.869 E-0.37327
G1 X83.530 Y117.813 E-1.05173
;WIPE_END
G1 E-0.07500 F3600.000
G1 X111.877 Y111.244 F9000.000
G1 E5.00000 F2400.000
;TYPE:Perimeter
;WIDTH:0.45
G1 X117.643 Y111.609 E0.22973
G1 X124.516 Y113.010 E0.27890
G1 X129.910 Y115.168 E0.23103
G1 X133.258 Y117.796 E0.16925
G1 X134.329 Y120.500 E0.11563
G1 X133.258 Y123.204 E0.11563
G1 X129.910 Y125.832 E0.16925
G1 X124.516 Y127.990 E0.23103
G1 X117.643 Y129.391 E0.27890
G1 X110.000 Y129.875 E0.30450
G1 X102.357 Y129.391 E0.30450
G1 X95.484 Y127.990 E0.27890
G1 X90.090 Y125.832 E0.23103
G1 X86.742 Y123.204 E0.16925
G1 X85.671 Y120.500 E0.11563
G1 X86.742 Y117.796 E0.11563
G1 X90.090 Y115.168 E0.16925
G1 X95.484 Y113.010 E0.23103
G1 X102.357 Y111.609 E0.27890
G1 X108.123 Y111.244 E0.22973
G1 X108.123 Y90.123 E0.83978
G1 X111.877 Y90.123 E0.14923
G1 X111.877 Y111.184 E0.83739
G1 X112.275 Y110.869 F9000.000
;TYPE:External perimeter
G1 F1500.000
G1 X117.695 Y111.213 E0.21595
G1 X124.630 Y112.626 E0.28142
G1 X130.111 Y114.819 E0.23473
G1 X133.589 Y117.549 E0.17581
G1 X134.758 Y120.500 E0.12619
G1 X133.589 Y123.451 E0.12619
G1 X130.111 Y126.181 E0.17581
G1 X124.630 Y128.374 E0.23473
G1 X117.695 Y129.787 E0.28142
G1 X110.000 Y130.275 E0.30659
G1 X102.305 Y129.787 E0.30659
G1 X95.370 Y128.374 E0.28142
G1 X89.889 Y126.181 E0.23473
G1 X86.411 Y123.451 E0.17581
G1 X85.242 Y120.500 E0.12619
G1 X86.411 Y117.549 E0.12619
G1 X89.889 Y114.819 E0.17581
G1 X95.370 Y112.626 E0.23473
G1 X102.305 Y111.213 E0.28142
G1 X107.725 Y110.869 E0.21595
G1 X107.725 Y89.725 E0.84075
G1 X112.275 Y89.725 E0.18092
G1 X112.275 Y110.809 E0.83836
G1 X112.286 Y111.269 F9000.000
G1 E-3.50000 F3600.000
;WIPE_START
G1 F7200.000
G1 X115.267 Y111.032 E-1.42500
;WIPE_END
G1 E-0.07500 F3600.000
G1 X108.243 Y110.912 F9000.000
G1 E5.00000 F2400.000
;TYPE:Solid infill
;WIDTH:0.452692
G1 X111.578 Y107.578 E0.18878
G1 X111.578 Y107.010 E0.02271
G1 X108.422 Y110.165 E0.17863
G1 X108.422 Y109.598 E0.02271
G1 X111.578 Y106.443 E0.17863
G1 X111.578 Y105.875 E0.02271
G1 X108.422 Y109.031 E0.17863
G1 X108.422 Y108.463 E0.02271
G1 X111.578 Y105.308 E0.17863
G1 X111.578 Y104.741 E0.02271
G1 X108.422 Y107.896 E0.17863
G1 X108.422 Y107.329 E0.02271
G1 X111.578 Y104.173 E0.17863
G1 X111.578 Y103.606 E0.02271
G1 X108.422 Y106.761 E0.17863
G1 X108.422 Y106.194 E0.02271
G1 X111.578 Y103.039 E0.17863
G1 X111.578 Y102.471 E0.02271
G1 X108.422 Y105.626 E0.17863
