; generated by PrusaSlicer 2.3.0-alpha3+win64 on 2020-11-17 at 08:05:06 UTC

; 

; external perimeters extrusion width = 0.45mm
; perimeters extrusion width = 0.45mm
; infill extrusion width = 0.45mm
; solid infill extrusion width = 0.45mm
; top infill extrusion width = 0.45mm
; first layer extrusion width = 0.42mm

M201 X500 Y500 Z100 E5000 ; sets maximum accelerations, mm/sec^2
M203 X500 Y500 Z10 E60 ; sets maximum feedrates, mm/sec
M204 P500 R1000 T500 ; sets acceleration (P, T) and retract acceleration (R), mm/sec^2
M205 X8.00 Y8.00 Z0.40 E5.00 ; sets the jerk limits, mm/sec
M205 S0 T0 ; sets the minimum extruding and travel feed rate, mm/sec
M107
;TYPE:Custom
G90 ; use absolute coordinates
M83 ; extruder relative mode
M104 S205 ; set extruder temp
M140 S60 ; set bed temp
M190 S60 ; wait for bed temp
M109 S205 ; wait for extruder temp
G28 ; home all
G1 Z2 F240
G1 X2 Y10 F3000
G1 Z0.28 F240
G92 E0.0
G1 Y190 E15.0 F1500.0 ; intro line
G1 X2.3 F5000
G1 Y10 E15.0 F1200.0 ; intro line
G92 E0.0
G21 ; set units to millimeters
G90 ; use absolute coordinates
M83 ; use relative distances for extrusion
; Filament gcode
;Z:0.2
;HEIGHT:0.2
;BEFORE_LAYER_CHANGE
G92 E0
;0.2


G1 E-5.00000 F3600.00000
G1 Z0.200 F9000.000
;AFTER_LAYER_CHANGE
;0.2
G1 X10.373 Y40.313
G1 E5.00000 F2400.00000
;TYPE:Skirt
G1 F1200.000
G1 X11.161 Y40.177 E0.02508
G1 X201.170 Y40.177 E5.95759
G1 X202.072 Y40.356 E0.02884
G1 X202.841 Y40.867 E0.02896
G1 X203.356 Y41.629 E0.02884
G1 X203.543 Y42.530 E0.02884
G1 X203.543 Y192.569 E4.70437
G1 X203.482 Y193.090 E0.01645
G1 X203.306 Y193.588 E0.01657
G1 X203.027 Y194.033 E0.01645
G1 X202.654 Y194.407 E0.01657
G1 X201.959 Y194.795 E0.02496
G1 X201.171 Y194.931 E0.02508
G1 X11.162 Y194.931 E5.95759
G1 X10.637 Y194.871 E0.01657
G1 X10.138 Y194.697 E0.01657
G1 X9.687 Y194.415 E0.01668
G1 X9.312 Y194.042 E0.01657
G1 X8.925 Y193.347 E0.02496
G1 X8.789 Y192.563 E0.02496
G1 X8.789 Y42.546 E4.70366
G1 X8.849 Y42.021 E0.01657
G1 X9.024 Y41.523 E0.01657
G1 X9.305 Y41.075 E0.01657
G1 X9.677 Y40.701 E0.01657
G1 X10.320 Y40.342 E0.02308
G1 E-3.50000 F3600.00000
G1 F7200.000
G1 X11.161 Y40.177 E-0.40695
G1 X13.304 Y40.177 E-1.01805
G1 E-0.07500 F3600.00000
G1 X9.354 Y38.168 F9000.000
G1 E5.00000 F2400.00000
G1 F1200.000
G1 X10.656 Y37.840 E0.04211
G1 X201.652 Y37.844 E5.98854
G1 X202.600 Y38.028 E0.03029
G1 X203.509 Y38.419 E0.03101
G1 X204.728 Y39.442 E0.04990
G1 X205.518 Y40.660 E0.04551
G1 X205.879 Y42.042 E0.04481
G1 X205.879 Y193.063 E4.73516
G1 X205.581 Y194.287 E0.03948
G1 X205.168 Y195.110 E0.02886
G1 X204.098 Y196.271 E0.04952
G1 X202.978 Y196.940 E0.04091
G1 X201.676 Y197.267 E0.04211
G1 X10.656 Y197.267 E5.98928
G1 X9.433 Y196.969 E0.03948
G1 X8.610 Y196.556 E0.02886
G1 X7.448 Y195.487 E0.04952
G1 X6.780 Y194.366 E0.04091
G1 X6.452 Y193.064 E0.04211
G1 X6.452 Y42.044 E4.73511
G1 X6.751 Y40.821 E0.03948
G1 X7.163 Y39.998 E0.02886
G1 X8.233 Y38.837 E0.04952
G1 X9.302 Y38.198 E0.03903
G1 X9.475 Y38.526 F9000.000
G1 F1200.000
G1 X10.680 Y38.217 E0.03901
G1 X201.633 Y38.221 E5.98720
G1 X202.507 Y38.394 E0.02792
G1 X203.332 Y38.753 E0.02823
G1 X204.463 Y39.712 E0.04647
G1 X205.162 Y40.786 E0.04018
G1 X205.502 Y42.067 E0.04157
G1 X205.502 Y193.040 E4.73365
G1 X205.220 Y194.174 E0.03664
G1 X204.844 Y194.915 E0.02606
G1 X203.880 Y195.963 E0.04464
G1 X202.857 Y196.582 E0.03750
G1 X201.651 Y196.890 E0.03901
G1 X10.680 Y196.890 E5.98779
G1 X9.545 Y196.608 E0.03664
G1 X8.804 Y196.232 E0.02606
G1 X7.757 Y195.268 E0.04464
G1 X7.138 Y194.245 E0.03750
G1 X6.829 Y193.040 E0.03901
G1 X6.829 Y42.068 E4.73362
G1 X7.111 Y40.934 E0.03664
G1 X7.487 Y40.192 E0.02606
G1 X8.452 Y39.145 E0.04464
G1 X9.423 Y38.557 E0.03562
G1 X9.616 Y38.880 F9000.000
G1 F1200.000
G1 X10.703 Y38.595 E0.03524
G1 X201.614 Y38.598 E5.98587
G1 X202.411 Y38.759 E0.02550
G1 X203.154 Y39.086 E0.02545
G1 X204.196 Y39.979 E0.04302
G1 X204.828 Y40.964 E0.03669
G1 X205.125 Y42.091 E0.03655
G1 X205.125 Y193.016 E4.73214
G1 X204.860 Y194.060 E0.03376
G1 X204.521 Y194.719 E0.02325
G1 X203.623 Y195.686 E0.04138
G1 X202.688 Y196.244 E0.03415
G1 X201.628 Y196.513 E0.03428
G1 X10.703 Y196.513 E5.98631
G1 X9.660 Y196.249 E0.03376
G1 X9.000 Y195.909 E0.02325
G1 X8.034 Y195.011 E0.04138
G1 X7.476 Y194.076 E0.03415
G1 X7.206 Y193.016 E0.03428
G1 X7.206 Y42.092 E4.73214
G1 X7.471 Y41.048 E0.03376
G1 X7.810 Y40.389 E0.02325
G1 X8.709 Y39.422 E0.04138
G1 X9.565 Y38.911 E0.03126
G1 X9.754 Y39.228 F9000.000
G1 F1200.000
G1 X10.728 Y38.972 E0.03157
G1 X201.594 Y38.975 E5.98448
G1 X202.314 Y39.124 E0.02304
G1 X202.974 Y39.419 E0.02266
G1 X203.928 Y40.246 E0.03960
G1 X204.472 Y41.091 E0.03149
G1 X204.748 Y42.117 E0.03331
G1 X204.748 Y192.992 E4.73058
G1 X204.501 Y193.943 E0.03082
G1 X204.200 Y194.521 E0.02043
G1 X203.366 Y195.408 E0.03817
G1 X202.566 Y195.886 E0.02921
G1 X201.604 Y196.136 E0.03119
G1 X10.728 Y196.136 E5.98477
G1 X9.776 Y195.889 E0.03082
G1 X9.199 Y195.588 E0.02043
G1 X8.311 Y194.754 E0.03817
G1 X7.834 Y193.955 E0.02921
G1 X7.584 Y192.992 E0.03119
G1 X7.584 Y42.116 E4.73060
G1 X7.830 Y41.164 E0.03082
G1 X8.132 Y40.587 E0.02043
G1 X8.965 Y39.699 E0.03817
G1 X9.703 Y39.259 E0.02694
G1 X9.888 Y39.579 F9000.000
G1 F1200.000
G1 X10.753 Y39.349 E0.02807
G1 X201.575 Y39.352 E5.98310
G1 X202.179 Y39.477 E0.01933
G1 X202.794 Y39.751 E0.02110
G1 X203.658 Y40.511 E0.03609
G1 X204.138 Y41.267 E0.02809
G1 X204.371 Y42.141 E0.02835
G1 X204.371 Y192.967 E4.72903
G1 X204.143 Y193.824 E0.02783
G1 X203.879 Y194.320 E0.01761
G1 X203.111 Y195.130 E0.03499
G1 X202.444 Y195.529 E0.02438
G1 X201.578 Y195.759 E0.02807
G1 X10.753 Y195.759 E5.98320
G1 X9.895 Y195.531 E0.02783
G1 X9.399 Y195.267 E0.01761
G1 X8.590 Y194.499 E0.03499
G1 X8.191 Y193.832 E0.02438
G1 X7.961 Y192.967 E0.02807
G1 X7.961 Y42.141 E4.72903
G1 X8.189 Y41.283 E0.02783
G1 X8.452 Y40.787 E0.01761
G1 X9.221 Y39.978 E0.03499
G1 X9.837 Y39.610 E0.02250
G1 X10.013 Y39.936 F9000.000
G1 F1200.000
G1 X10.779 Y39.726 E0.02490
G1 X201.555 Y39.729 E5.98165
G1 X202.080 Y39.841 E0.01682
G1 X202.611 Y40.082 E0.01829
G1 X203.387 Y40.775 E0.03263
G1 X203.782 Y41.395 E0.02306
G1 X203.994 Y42.167 E0.02510
G1 X203.994 Y192.941 E4.72740
G1 X203.785 Y193.703 E0.02477
G1 X203.561 Y194.117 E0.01479
G1 X202.857 Y194.850 E0.03185
G1 X202.319 Y195.172 E0.01967
G1 X201.553 Y195.382 E0.02490
G1 X10.779 Y195.382 E5.98157
G1 X10.017 Y195.173 E0.02477
G1 X9.602 Y194.949 E0.01479
G1 X8.869 Y194.245 E0.03185
G1 X8.547 Y193.707 E0.01967
G1 X8.338 Y192.941 E0.02490
G1 X8.338 Y42.167 E4.72740
G1 X8.546 Y41.405 E0.02477
G1 X8.771 Y40.990 E0.01479
G1 X9.475 Y40.258 E0.03185
G1 X9.961 Y39.966 E0.01779
G1 X10.834 Y40.480 F9000.000
G1 F1200.000
G1 X201.511 Y40.484 E5.97856
G1 X201.871 Y40.567 E0.01157
G1 X202.237 Y40.739 E0.01268
G1 X202.842 Y41.297 E0.02580
G1 X203.074 Y41.659 E0.01347
G1 X203.240 Y42.222 E0.01841
G1 X203.240 Y192.886 E4.72396
G1 X203.074 Y193.448 E0.01838
G1 X202.929 Y193.703 E0.00921
G1 X202.386 Y194.261 E0.02442
G1 X202.059 Y194.463 E0.01204
G1 X201.498 Y194.628 E0.01834
G1 X10.834 Y194.628 E5.97813
G1 X10.272 Y194.462 E0.01838
G1 X10.016 Y194.317 E0.00921
G1 X9.458 Y193.774 E0.02442
G1 X9.257 Y193.447 E0.01204
G1 X9.092 Y192.886 E0.01834
G1 X9.092 Y42.222 E4.72396
G1 X9.257 Y41.660 E0.01838
G1 X9.403 Y41.404 E0.00921
G1 X9.946 Y40.846 E0.02442
G1 X10.273 Y40.645 E0.01204
G1 X10.776 Y40.497 E0.01646
G1 X10.863 Y40.857 F9000.000
G1 F1200.000
G1 X201.490 Y40.861 E5.97695
G1 X201.728 Y40.916 E0.00767
G1 X202.048 Y41.067 E0.01109
G1 X202.566 Y41.555 E0.02233
G1 X202.722 Y41.796 E0.00898
G1 X202.863 Y42.252 E0.01495
G1 X202.863 Y192.856 E4.72211
G1 X202.722 Y193.313 E0.01500
G1 X202.617 Y193.490 E0.00643
G1 X202.134 Y193.980 E0.02159
G1 X201.923 Y194.110 E0.00775
G1 X201.468 Y194.251 E0.01494
G1 X10.863 Y194.251 E5.97628
G1 X10.406 Y194.110 E0.01500
G1 X10.230 Y194.005 E0.00643
G1 X9.739 Y193.522 E0.02159
G1 X9.609 Y193.312 E0.00775
G1 X9.469 Y192.856 E0.01494
G1 X9.469 Y42.251 E4.72211
G1 X9.610 Y41.794 E0.01500
G1 X9.714 Y41.618 E0.00643
G1 X10.198 Y41.127 E0.02159
G1 X10.408 Y40.998 E0.00775
G1 X10.806 Y40.875 E0.01306
G1 X10.549 Y41.348 F9000.000
G1 F1200.000
G1 X10.895 Y41.234 E0.01144
G1 X201.468 Y41.238 E5.97527
G1 X201.585 Y41.265 E0.00377
G1 X201.858 Y41.394 E0.00947
G1 X202.289 Y41.811 E0.01880
G1 X202.372 Y41.939 E0.00479
G1 X202.486 Y42.283 E0.01136
G1 X202.486 Y192.825 E4.72012
G1 X202.372 Y193.171 E0.01144
G1 X202.310 Y193.271 E0.00369
G1 X201.883 Y193.698 E0.01893
G1 X201.783 Y193.760 E0.00369
G1 X201.436 Y193.874 E0.01144
G1 X10.895 Y193.874 E5.97429
G1 X10.549 Y193.760 E0.01144
G1 X10.449 Y193.698 E0.00369
G1 X10.022 Y193.271 E0.01893
G1 X9.960 Y193.171 E0.00369
G1 X9.846 Y192.825 E0.01144
G1 X9.846 Y42.283 E4.72012
G1 X9.960 Y41.937 E0.01144
G1 X10.022 Y41.837 E0.00369
G1 X10.498 Y41.379 E0.02069
G1 X10.703 Y41.693 F9000.000
G1 F1200.000
G1 X10.930 Y41.611 E0.00757
G1 X201.416 Y41.611 E5.97253
G1 X201.666 Y41.721 E0.00856
G1 X202.009 Y42.064 E0.01522
G1 X202.108 Y42.318 E0.00856
G1 X202.108 Y192.789 E4.71792
G1 X202.009 Y193.044 E0.00856
G1 X201.656 Y193.397 E0.01566
G1 X201.401 Y193.497 E0.00856
G1 X10.930 Y193.497 E5.97209
G1 X10.676 Y193.397 E0.00856
G1 X10.323 Y193.044 E0.01566
G1 X10.223 Y192.789 E0.00856
G1 X10.223 Y42.318 E4.71792
G1 X10.323 Y42.064 E0.00856
G1 X10.656 Y41.730 E0.01480
G1 X10.903 Y42.017 F9000.000
G1 F1200.000
G1 X10.972 Y41.988 E0.00235
G1 X201.359 Y41.988 E5.96946
G1 X201.429 Y42.017 E0.00235
G1 X201.703 Y42.291 E0.01215
G1 X201.731 Y42.360 E0.00235
G1 X201.731 Y192.748 E4.71529
G1 X201.703 Y192.817 E0.00235
G1 X201.429 Y193.091 E0.01215
G1 X201.359 Y193.119 E0.00235
G1 X10.972 Y193.119 E5.96946
G1 X10.903 Y193.091 E0.00235
G1 X10.629 Y192.817 E0.01215
G1 X10.600 Y192.748 E0.00235
G1 X10.600 Y42.360 E4.71529
G1 X10.629 Y42.291 E0.00235
G1 X10.860 Y42.059 E0.01027
G1 X11.088 Y42.365 F9000.000
G1 F1200.000
G1 X201.244 Y42.365 E5.96221
G1 X201.354 Y42.476 E0.00490
G1 X201.354 Y192.632 E4.70804
G1 X201.244 Y192.742 E0.00490
G1 X11.088 Y192.742 E5.96221
G1 X10.977 Y192.632 E0.00490
G1 X10.977 Y42.476 E4.70804
G1 X11.045 Y42.408 E0.00302
G1 X11.376 Y42.764 F9000.000
;TYPE:External perimeter
G1 F1200.000
G1 X200.956 Y42.764 E5.94415
G1 X200.956 Y192.344 E4.68998
G1 X11.376 Y192.344 E5.94415
G1 X11.376 Y42.824 E4.68809
G1 X11.766 Y42.852 F9000.000
G1 X11.753 Y43.141
;TYPE:Perimeter
G1 F1200.000
G1 X200.579 Y43.141 E5.92050
G1 X200.579 Y191.967 E4.66633
G1 X11.753 Y191.967 E5.92050
G1 X11.753 Y43.201 E4.66445
G1 E-3.50000 F3600.00000
G1 F7200.000
G1 X14.753 Y43.200 E-1.42500
G1 E-0.07500 F3600.00000
G1 X200.466 Y44.017 F9000.000
G1 E5.00000 F2400.00000
;TYPE:Solid infill
G1 F1200.000
G1 X199.872 Y43.424 E0.02632
G1 X199.339 Y43.424 E0.01674
G1 X200.296 Y44.381 E0.04247
G1 X200.296 Y44.915 E0.01674
G1 X198.805 Y43.424 E0.06615
G1 X198.271 Y43.424 E0.01674
G1 X200.296 Y45.448 E0.08983
G1 X200.296 Y45.982 E0.01674
G1 X197.738 Y43.424 E0.11352
G1 X197.204 Y43.424 E0.01674
G1 X200.296 Y46.516 E0.13720
G1 X200.296 Y47.049 E0.01674
G1 X196.670 Y43.424 E0.16088
G1 X196.137 Y43.424 E0.01674
G1 X200.296 Y47.583 E0.18456
G1 X200.296 Y48.117 E0.01674
G1 X195.603 Y43.424 E0.20824
G1 X195.069 Y43.424 E0.01674
G1 X200.296 Y48.650 E0.23192
G1 X200.296 Y49.184 E0.01674
G1 X194.536 Y43.424 E0.25560
G1 X194.002 Y43.424 E0.01674
G1 X200.296 Y49.718 E0.27928
G1 X200.296 Y50.251 E0.01674
G1 X193.468 Y43.424 E0.30296
G1 X192.935 Y43.424 E0.01674
G1 X200.296 Y50.785 E0.32664
G1 X200.296 Y51.319 E0.01674
G1 X192.401 Y43.424 E0.35032
G1 X191.867 Y43.424 E0.01674
G1 X200.296 Y51.852 E0.37400
G1 X200.296 Y52.386 E0.01674
G1 X191.334 Y43.424 E0.39768
G1 X190.800 Y43.424 E0.01674
G1 X200.296 Y52.919 E0.42137
G1 X200.296 Y53.453 E0.01674
G1 X190.266 Y43.424 E0.44505
G1 X189.733 Y43.424 E0.01674
G1 X200.296 Y53.987 E0.46873
G1 X200.296 Y54.520 E0.01674
G1 X189.199 Y43.424 E0.49241
G1 X188.666 Y43.424 E0.01674
G1 X200.296 Y55.054 E0.51609
G1 X200.296 Y55.588 E0.01674
G1 X188.132 Y43.424 E0.53977
G1 X187.598 Y43.424 E0.01674
G1 X200.296 Y56.121 E0.56345
G1 X200.296 Y56.655 E0.01674
G1 X187.065 Y43.424 E0.58713
G1 X186.531 Y43.424 E0.01674
G1 X200.296 Y57.189 E0.61081
G1 X200.296 Y57.722 E0.01674
G1 X185.997 Y43.424 E0.63449
G1 X185.464 Y43.424 E0.01674
G1 X200.296 Y58.256 E0.65817
G1 X200.296 Y58.790 E0.01674
G1 X184.930 Y43.424 E0.68185
G1 X184.396 Y43.424 E0.01674
G1 X200.296 Y59.323 E0.70554
G1 X200.296 Y59.857 E0.01674
G1 X183.863 Y43.424 E0.72922
G1 X183.329 Y43.424 E0.01674
G1 X200.296 Y60.391 E0.75290
G1 X200.296 Y60.924 E0.01674
G1 X182.795 Y43.424 E0.77658
G1 X182.262 Y43.424 E0.01674
G1 X200.296 Y61.458 E0.80026
G1 X200.296 Y61.992 E0.01674
G1 X181.728 Y43.424 E0.82394
G1 X181.194 Y43.424 E0.01674
G1 X200.296 Y62.525 E0.84762
G1 X200.296 Y63.059 E0.01674
G1 X180.661 Y43.424 E0.87130
G1 X180.127 Y43.424 E0.01674
G1 X200.296 Y63.593 E0.89498
G1 X200.296 Y64.126 E0.01674
G1 X179.593 Y43.424 E0.91866
G1 X179.060 Y43.424 E0.01674
G1 X200.296 Y64.660 E0.94234
G1 X200.296 Y65.194 E0.01674
G1 X178.526 Y43.424 E0.96602
G1 X177.992 Y43.424 E0.01674
G1 X200.296 Y65.727 E0.98971
G1 X200.296 Y66.261 E0.01674
G1 X177.459 Y43.424 E1.01339
G1 X176.925 Y43.424 E0.01674
G1 X200.296 Y66.795 E1.03707
G1 X200.296 Y67.328 E0.01674
G1 X176.391 Y43.424 E1.06075
G1 X175.858 Y43.424 E0.01674
G1 X200.296 Y67.862 E1.08443
G1 X200.296 Y68.396 E0.01674
G1 X175.324 Y43.424 E1.10811
G1 X174.790 Y43.424 E0.01674
G1 X200.296 Y68.929 E1.13179
G1 X200.296 Y69.463 E0.01674
G1 X174.257 Y43.424 E1.15547
G1 X173.723 Y43.424 E0.01674
G1 X200.296 Y69.997 E1.17915
G1 X200.296 Y70.530 E0.01674
G1 X173.189 Y43.424 E1.20283
G1 X172.656 Y43.424 E0.01674
G1 X200.296 Y71.064 E1.22651
G1 X200.296 Y71.598 E0.01674
G1 X172.122 Y43.424 E1.25019
G1 X171.588 Y43.424 E0.01674
G1 X200.296 Y72.131 E1.27387
G1 X200.296 Y72.665 E0.01674
G1 X171.055 Y43.424 E1.29756
G1 X170.521 Y43.424 E0.01674
G1 X200.296 Y73.199 E1.32124
G1 X200.296 Y73.732 E0.01674
G1 X169.987 Y43.424 E1.34492
G1 X169.454 Y43.424 E0.01674
G1 X200.296 Y74.266 E1.36860
G1 X200.296 Y74.800 E0.01674
G1 X168.920 Y43.424 E1.39228
G1 X168.386 Y43.424 E0.01674
G1 X200.296 Y75.333 E1.41596
G1 X200.296 Y75.867 E0.01674
G1 X167.853 Y43.424 E1.43964
G1 X167.319 Y43.424 E0.01674
G1 X200.296 Y76.401 E1.46332
G1 X200.296 Y76.934 E0.01674
G1 X166.785 Y43.424 E1.48700
G1 X166.252 Y43.424 E0.01674
G1 X200.296 Y77.468 E1.51068
G1 X200.296 Y78.002 E0.01674
G1 X165.718 Y43.424 E1.53436
G1 X165.184 Y43.424 E0.01674
G1 X200.296 Y78.535 E1.55804
G1 X200.296 Y79.069 E0.01674
G1 X164.651 Y43.424 E1.58173
G1 X164.117 Y43.424 E0.01674
G1 X200.296 Y79.603 E1.60541
G1 X200.296 Y80.136 E0.01674
G1 X163.583 Y43.424 E1.62909
G1 X163.050 Y43.424 E0.01674
G1 X200.296 Y80.670 E1.65277
G1 X200.296 Y81.204 E0.01674
G1 X162.516 Y43.424 E1.67645
G1 X161.982 Y43.424 E0.01674
G1 X200.296 Y81.737 E1.70013
G1 X200.296 Y82.271 E0.01674
G1 X161.449 Y43.424 E1.72381
G1 X160.915 Y43.424 E0.01674
G1 X200.296 Y82.805 E1.74749
G1 X200.296 Y83.338 E0.01674
G1 X160.381 Y43.424 E1.77117
G1 X159.848 Y43.424 E0.01674
G1 X200.296 Y83.872 E1.79485
G1 X200.296 Y84.406 E0.01674
G1 X159.314 Y43.424 E1.81853
G1 X158.780 Y43.424 E0.01674
G1 X200.296 Y84.939 E1.84221
G1 X200.296 Y85.473 E0.01674
G1 X158.247 Y43.424 E1.86589
G1 X157.713 Y43.424 E0.01674
G1 X200.296 Y86.007 E1.88958
G1 X200.296 Y86.540 E0.01674
G1 X157.179 Y43.424 E1.91326
G1 X156.646 Y43.424 E0.01674
G1 X200.296 Y87.074 E1.93694
G1 X200.296 Y87.608 E0.01674
G1 X156.112 Y43.424 E1.96062
G1 X155.578 Y43.424 E0.01674
G1 X200.296 Y88.141 E1.98430
G1 X200.296 Y88.675 E0.01674
G1 X155.045 Y43.424 E2.00798
G1 X154.511 Y43.424 E0.01674
G1 X200.296 Y89.209 E2.03166
G1 X200.296 Y89.742 E0.01674
G1 X153.977 Y43.424 E2.05534
G1 X153.444 Y43.424 E0.01674
G1 X200.296 Y90.276 E2.07902
G1 X200.296 Y90.809 E0.01674
G1 X152.910 Y43.424 E2.10270
G1 X152.376 Y43.424 E0.01674
G1 X200.296 Y91.343 E2.12638
G1 X200.296 Y91.877 E0.01674
G1 X151.843 Y43.424 E2.15006
G1 X151.309 Y43.424 E0.01674
G1 X200.296 Y92.410 E2.17375
G1 X200.296 Y92.944 E0.01674
G1 X150.776 Y43.424 E2.19743
G1 X150.242 Y43.424 E0.01674
