; generated by PrusaSlicer 2.3.0-alpha3+win64 on 2020-11-17 at 14:28:23 UTC

; 

; external perimeters extrusion width = 0.45mm
; perimeters extrusion width = 0.45mm
; infill extrusion width = 0.45mm
; solid infill extrusion width = 0.45mm
; top infill extrusion width = 0.45mm
; first layer extrusion width = 0.42mm

M201 X500 Y500 Z100 E5000 ; sets maximum accelerations, mm/sec^2
M203 X500 Y500 Z10 E60 ; sets maximum feedrates, mm/sec
M204 P500 R1000 T500 ; sets acceleration (P, T) and retract acceleration (R), mm/sec^2
M205 X8.00 Y8.00 Z0.40 E5.00 ; sets the jerk limits, mm/sec
M205 S0 T0 ; sets the minimum extruding and travel feed rate, mm/sec
M107
;TYPE:Custom
G90 ; use absolute coordinates
M83 ; extruder relative mode
M104 S205 ; set extruder temp
M140 S60 ; set bed temp
M190 S60 ; wait for bed temp
M109 S205 ; wait for extruder temp
G28 ; home all
G1 Z2 F240
G1 X2 Y10 F3000
G1 Z0.28 F240
G92 E0.0
G1 Y190 E15.0 F1500.0 ; intro line
G1 X2.3 F5000
G1 Y10 E15.0 F1200.0 ; intro line
G92 E0.0
G21 ; set units to millimeters
G90 ; use absolute coordinates
M83 ; use relative distances for extrusion
; Filament gcode
;Z:0.2
;HEIGHT:0.2
;BEFORE_LAYER_CHANGE
G92 E0
;0.2


G1 E-5.00000 F3600.00000
G1 Z0.200 F9000.000
;AFTER_LAYER_CHANGE
;0.2
G1 X19.707 Y38.259
G1 E5.00000 F2400.00000
;TYPE:Skirt
G1 F1200.000
G1 X20.495 Y38.123 E0.02508
G1 X210.504 Y38.123 E5.95759
G1 X211.406 Y38.302 E0.02884
G1 X212.175 Y38.813 E0.02896
G1 X212.690 Y39.576 E0.02884
G1 X212.877 Y40.476 E0.02884
G1 X212.877 Y190.515 E4.70437
G1 X212.816 Y191.036 E0.01645
G1 X212.640 Y191.535 E0.01657
G1 X212.361 Y191.979 E0.01645
G1 X211.989 Y192.353 E0.01657
G1 X211.293 Y192.741 E0.02496
G1 X210.505 Y192.877 E0.02508
G1 X20.496 Y192.877 E5.95759
G1 X19.971 Y192.818 E0.01657
G1 X19.472 Y192.643 E0.01657
G1 X19.021 Y192.361 E0.01668
G1 X18.647 Y191.989 E0.01657
G1 X18.259 Y191.293 E0.02496
G1 X18.123 Y190.509 E0.02496
G1 X18.123 Y40.492 E4.70366
G1 X18.183 Y39.967 E0.01657
G1 X18.358 Y39.469 E0.01657
G1 X18.639 Y39.021 E0.01657
G1 X19.011 Y38.647 E0.01657
G1 X19.655 Y38.288 E0.02308
G1 E-3.50000 F3600.00000
G1 F7200.000
G1 X20.495 Y38.123 E-0.40695
G1 X22.638 Y38.123 E-1.01805
G1 E-0.07500 F3600.00000
G1 X18.688 Y36.114 F9000.000
G1 E5.00000 F2400.00000
G1 F1200.000
G1 X19.990 Y35.787 E0.04211
G1 X210.986 Y35.790 E5.98854
G1 X211.935 Y35.974 E0.03029
G1 X212.843 Y36.365 E0.03101
G1 X214.062 Y37.388 E0.04990
G1 X214.853 Y38.606 E0.04551
G1 X215.213 Y39.989 E0.04481
G1 X215.213 Y191.010 E4.73516
G1 X214.915 Y192.233 E0.03948
G1 X214.503 Y193.056 E0.02886
G1 X213.433 Y194.217 E0.04952
G1 X212.312 Y194.886 E0.04091
G1 X211.010 Y195.213 E0.04211
G1 X19.990 Y195.213 E5.98928
G1 X18.767 Y194.915 E0.03948
G1 X17.944 Y194.503 E0.02886
G1 X16.783 Y193.433 E0.04952
G1 X16.114 Y192.312 E0.04091
G1 X15.787 Y191.010 E0.04211
G1 X15.787 Y39.990 E4.73511
G1 X16.085 Y38.767 E0.03948
G1 X16.497 Y37.944 E0.02886
G1 X17.567 Y36.783 E0.04952
G1 X18.636 Y36.145 E0.03903
G1 X18.809 Y36.472 F9000.000
G1 F1200.000
G1 X20.014 Y36.164 E0.03901
G1 X210.967 Y36.167 E5.98720
G1 X211.841 Y36.340 E0.02792
G1 X212.666 Y36.699 E0.02823
G1 X213.797 Y37.658 E0.04647
G1 X214.496 Y38.732 E0.04018
G1 X214.836 Y40.013 E0.04157
G1 X214.836 Y190.986 E4.73365
G1 X214.555 Y192.120 E0.03664
G1 X214.178 Y192.862 E0.02606
G1 X213.214 Y193.909 E0.04464
G1 X212.191 Y194.528 E0.03750
G1 X210.986 Y194.836 E0.03901
G1 X20.014 Y194.836 E5.98779
G1 X18.880 Y194.555 E0.03664
G1 X18.138 Y194.178 E0.02606
G1 X17.091 Y193.214 E0.04464
G1 X16.472 Y192.191 E0.03750
G1 X16.164 Y190.986 E0.03901
G1 X16.164 Y40.014 E4.73362
G1 X16.445 Y38.880 E0.03664
G1 X16.822 Y38.138 E0.02606
G1 X17.786 Y37.091 E0.04464
G1 X18.758 Y36.503 E0.03562
G1 X18.951 Y36.826 F9000.000
G1 F1200.000
G1 X20.038 Y36.541 E0.03524
G1 X210.948 Y36.544 E5.98587
G1 X211.746 Y36.705 E0.02550
G1 X212.488 Y37.033 E0.02545
G1 X213.530 Y37.926 E0.04302
G1 X214.163 Y38.910 E0.03669
G1 X214.459 Y40.038 E0.03655
G1 X214.459 Y190.962 E4.73214
G1 X214.195 Y192.006 E0.03376
G1 X213.855 Y192.665 E0.02325
G1 X212.957 Y193.632 E0.04138
G1 X212.022 Y194.190 E0.03415
G1 X210.962 Y194.459 E0.03428
G1 X20.038 Y194.459 E5.98631
G1 X18.994 Y194.195 E0.03376
G1 X18.335 Y193.855 E0.02325
G1 X17.368 Y192.957 E0.04138
G1 X16.810 Y192.022 E0.03415
G1 X16.541 Y190.962 E0.03428
G1 X16.541 Y40.038 E4.73214
G1 X16.805 Y38.994 E0.03376
G1 X17.145 Y38.335 E0.02325
G1 X18.043 Y37.368 E0.04138
G1 X18.899 Y36.857 E0.03126
G1 X19.089 Y37.174 F9000.000
G1 F1200.000
G1 X20.062 Y36.918 E0.03157
G1 X210.929 Y36.921 E5.98448
G1 X211.648 Y37.070 E0.02304
G1 X212.308 Y37.365 E0.02266
G1 X213.262 Y38.192 E0.03960
G1 X213.806 Y39.037 E0.03149
G1 X214.082 Y40.063 E0.03331
G1 X214.082 Y190.938 E4.73058
G1 X213.835 Y191.889 E0.03082
G1 X213.534 Y192.467 E0.02043
G1 X212.701 Y193.354 E0.03817
G1 X211.901 Y193.832 E0.02921
G1 X210.938 Y194.082 E0.03119
G1 X20.062 Y194.082 E5.98477
G1 X19.111 Y193.835 E0.03082
G1 X18.533 Y193.534 E0.02043
G1 X17.646 Y192.701 E0.03817
G1 X17.168 Y191.901 E0.02921
G1 X16.918 Y190.938 E0.03119
G1 X16.918 Y40.062 E4.73060
G1 X17.165 Y39.111 E0.03082
G1 X17.466 Y38.533 E0.02043
G1 X18.299 Y37.646 E0.03817
G1 X19.037 Y37.205 E0.02694
G1 X19.222 Y37.525 F9000.000
G1 F1200.000
G1 X20.087 Y37.295 E0.02807
G1 X210.910 Y37.298 E5.98310
G1 X211.513 Y37.423 E0.01933
G1 X212.128 Y37.697 E0.02110
G1 X212.992 Y38.457 E0.03609
G1 X213.472 Y39.214 E0.02809
G1 X213.705 Y40.087 E0.02835
G1 X213.705 Y190.913 E4.72903
G1 X213.477 Y191.771 E0.02783
G1 X213.213 Y192.267 E0.01761
G1 X212.445 Y193.076 E0.03499
G1 X211.778 Y193.475 E0.02438
G1 X210.913 Y193.705 E0.02807
G1 X20.087 Y193.705 E5.98320
G1 X19.229 Y193.477 E0.02783
G1 X18.733 Y193.213 E0.01761
G1 X17.924 Y192.445 E0.03499
G1 X17.525 Y191.778 E0.02438
G1 X17.295 Y190.913 E0.02807
G1 X17.295 Y40.087 E4.72903
G1 X17.523 Y39.229 E0.02783
G1 X17.787 Y38.733 E0.01761
G1 X18.555 Y37.924 E0.03499
G1 X19.171 Y37.556 E0.02250
G1 X19.347 Y37.882 F9000.000
G1 F1200.000
G1 X20.113 Y37.672 E0.02490
G1 X210.889 Y37.676 E5.98165
G1 X211.414 Y37.787 E0.01682
G1 X211.945 Y38.028 E0.01829
G1 X212.722 Y38.721 E0.03263
G1 X213.116 Y39.341 E0.02306
G1 X213.328 Y40.113 E0.02510
G1 X213.328 Y190.887 E4.72740
G1 X213.120 Y191.649 E0.02477
G1 X212.895 Y192.064 E0.01479
G1 X212.191 Y192.796 E0.03185
G1 X211.653 Y193.118 E0.01967
G1 X210.887 Y193.328 E0.02490
G1 X20.113 Y193.328 E5.98157
G1 X19.351 Y193.120 E0.02477
G1 X18.936 Y192.895 E0.01479
G1 X18.204 Y192.191 E0.03185
G1 X17.882 Y191.653 E0.01967
G1 X17.672 Y190.887 E0.02490
G1 X17.672 Y40.113 E4.72740
G1 X17.880 Y39.351 E0.02477
G1 X18.105 Y38.936 E0.01479
G1 X18.809 Y38.204 E0.03185
G1 X19.296 Y37.912 E0.01779
G1 X20.168 Y38.426 F9000.000
G1 F1200.000
G1 X210.846 Y38.430 E5.97856
G1 X211.205 Y38.513 E0.01157
G1 X211.571 Y38.685 E0.01268
G1 X212.176 Y39.243 E0.02580
G1 X212.408 Y39.605 E0.01347
G1 X212.574 Y40.168 E0.01841
G1 X212.574 Y190.832 E4.72396
G1 X212.409 Y191.394 E0.01838
G1 X212.263 Y191.649 E0.00921
G1 X211.720 Y192.208 E0.02442
G1 X211.393 Y192.409 E0.01204
G1 X210.832 Y192.574 E0.01834
G1 X20.168 Y192.574 E5.97813
G1 X19.606 Y192.409 E0.01838
G1 X19.351 Y192.263 E0.00921
G1 X18.792 Y191.720 E0.02442
G1 X18.591 Y191.393 E0.01204
G1 X18.426 Y190.832 E0.01834
G1 X18.426 Y40.168 E4.72396
G1 X18.591 Y39.606 E0.01838
G1 X18.737 Y39.351 E0.00921
G1 X19.280 Y38.792 E0.02442
G1 X19.607 Y38.591 E0.01204
G1 X20.111 Y38.443 E0.01646
G1 X20.198 Y38.803 F9000.000
G1 F1200.000
G1 X210.824 Y38.807 E5.97695
G1 X211.062 Y38.862 E0.00767
G1 X211.382 Y39.013 E0.01109
G1 X211.901 Y39.501 E0.02233
G1 X212.056 Y39.742 E0.00898
G1 X212.197 Y40.198 E0.01495
G1 X212.197 Y190.802 E4.72211
G1 X212.056 Y191.259 E0.01500
G1 X211.951 Y191.436 E0.00643
G1 X211.468 Y191.926 E0.02159
G1 X211.258 Y192.056 E0.00775
G1 X210.802 Y192.197 E0.01494
G1 X20.198 Y192.197 E5.97628
G1 X19.741 Y192.056 E0.01500
G1 X19.564 Y191.951 E0.00643
G1 X19.074 Y191.468 E0.02159
G1 X18.944 Y191.258 E0.00775
G1 X18.803 Y190.802 E0.01494
G1 X18.803 Y40.198 E4.72211
G1 X18.944 Y39.741 E0.01500
G1 X19.049 Y39.564 E0.00643
G1 X19.532 Y39.074 E0.02159
G1 X19.742 Y38.944 E0.00775
G1 X20.140 Y38.821 E0.01306
G1 X19.883 Y39.294 F9000.000
G1 F1200.000
G1 X20.229 Y39.180 E0.01144
G1 X210.802 Y39.184 E5.97527
G1 X210.919 Y39.211 E0.00377
G1 X211.192 Y39.340 E0.00947
G1 X211.623 Y39.757 E0.01880
G1 X211.707 Y39.885 E0.00479
G1 X211.820 Y40.229 E0.01136
G1 X211.820 Y190.771 E4.72012
G1 X211.706 Y191.117 E0.01144
G1 X211.644 Y191.217 E0.00369
G1 X211.217 Y191.644 E0.01893
G1 X211.117 Y191.706 E0.00369
G1 X210.771 Y191.820 E0.01144
G1 X20.229 Y191.820 E5.97429
G1 X19.883 Y191.706 E0.01144
G1 X19.783 Y191.644 E0.00369
G1 X19.356 Y191.217 E0.01893
G1 X19.294 Y191.117 E0.00369
G1 X19.180 Y190.771 E0.01144
G1 X19.180 Y40.229 E4.72012
G1 X19.294 Y39.883 E0.01144
G1 X19.356 Y39.783 E0.00369
G1 X19.832 Y39.326 E0.02069
G1 X20.037 Y39.639 F9000.000
G1 F1200.000
G1 X20.264 Y39.557 E0.00757
G1 X210.750 Y39.557 E5.97253
G1 X211.000 Y39.667 E0.00856
G1 X211.343 Y40.010 E0.01522
G1 X211.443 Y40.264 E0.00856
G1 X211.443 Y190.736 E4.71792
G1 X211.343 Y190.990 E0.00856
G1 X210.990 Y191.343 E0.01566
G1 X210.736 Y191.443 E0.00856
G1 X20.264 Y191.443 E5.97209
G1 X20.010 Y191.343 E0.00856
G1 X19.657 Y190.990 E0.01566
G1 X19.557 Y190.736 E0.00856
G1 X19.557 Y40.264 E4.71792
G1 X19.657 Y40.010 E0.00856
G1 X19.991 Y39.676 E0.01480
G1 X20.237 Y39.963 F9000.000
G1 F1200.000
G1 X20.306 Y39.934 E0.00235
G1 X210.694 Y39.934 E5.96946
G1 X210.763 Y39.963 E0.00235
G1 X211.037 Y40.237 E0.01215
G1 X211.066 Y40.306 E0.00235
G1 X211.066 Y190.694 E4.71529
G1 X211.037 Y190.763 E0.00235
G1 X210.763 Y191.037 E0.01215
G1 X210.694 Y191.066 E0.00235
G1 X20.306 Y191.066 E5.96946
G1 X20.237 Y191.037 E0.00235
G1 X19.963 Y190.763 E0.01215
G1 X19.934 Y190.694 E0.00235
G1 X19.934 Y40.306 E4.71529
G1 X19.963 Y40.237 E0.00235
G1 X20.195 Y40.006 E0.01027
G1 X20.422 Y40.311 F9000.000
G1 F1200.000
G1 X210.578 Y40.311 E5.96221
G1 X210.689 Y40.422 E0.00490
G1 X210.689 Y190.578 E4.70804
G1 X210.578 Y190.689 E0.00490
G1 X20.422 Y190.689 E5.96221
G1 X20.311 Y190.578 E0.00490
G1 X20.311 Y40.422 E4.70804
G1 X20.379 Y40.354 E0.00302
G1 X20.710 Y40.710 F9000.000
;TYPE:External perimeter
G1 F1200.000
G1 X210.290 Y40.710 E5.94415
G1 X210.290 Y190.290 E4.68998
G1 X20.710 Y190.290 E5.94415
G1 X20.710 Y40.770 E4.68809
G1 X21.100 Y40.798 F9000.000
G1 X21.087 Y41.087
;TYPE:Perimeter
G1 F1200.000
G1 X209.913 Y41.087 E5.92050
G1 X209.913 Y189.913 E4.66633
G1 X21.087 Y189.913 E5.92050
G1 X21.087 Y41.147 E4.66445
G1 E-3.50000 F3600.00000
G1 F7200.000
G1 X24.087 Y41.146 E-1.42500
G1 E-0.07500 F3600.00000
G1 X209.800 Y41.963 F9000.000
G1 E5.00000 F2400.00000
;TYPE:Solid infill
G1 F1200.000
G1 X209.207 Y41.370 E0.02632
G1 X208.673 Y41.370 E0.01674
G1 X209.630 Y42.327 E0.04247
G1 X209.630 Y42.861 E0.01674
G1 X208.139 Y41.370 E0.06615
G1 X207.606 Y41.370 E0.01674
G1 X209.630 Y43.394 E0.08983
G1 X209.630 Y43.928 E0.01674
G1 X207.072 Y41.370 E0.11352
G1 X206.538 Y41.370 E0.01674
G1 X209.630 Y44.462 E0.13720
G1 X209.630 Y44.995 E0.01674
G1 X206.005 Y41.370 E0.16088
G1 X205.471 Y41.370 E0.01674
G1 X209.630 Y45.529 E0.18456
G1 X209.630 Y46.063 E0.01674
G1 X204.937 Y41.370 E0.20824
G1 X204.404 Y41.370 E0.01674
G1 X209.630 Y46.596 E0.23192
G1 X209.630 Y47.130 E0.01674
G1 X203.870 Y41.370 E0.25560
G1 X203.336 Y41.370 E0.01674
G1 X209.630 Y47.664 E0.27928
G1 X209.630 Y48.197 E0.01674
G1 X202.803 Y41.370 E0.30296
G1 X202.269 Y41.370 E0.01674
G1 X209.630 Y48.731 E0.32664
G1 X209.630 Y49.265 E0.01674
G1 X201.735 Y41.370 E0.35032
G1 X201.202 Y41.370 E0.01674
G1 X209.630 Y49.798 E0.37400
G1 X209.630 Y50.332 E0.01674
G1 X200.668 Y41.370 E0.39768
G1 X200.134 Y41.370 E0.01674
G1 X209.630 Y50.866 E0.42137
G1 X209.630 Y51.399 E0.01674
G1 X199.601 Y41.370 E0.44505
G1 X199.067 Y41.370 E0.01674
G1 X209.630 Y51.933 E0.46873
G1 X209.630 Y52.467 E0.01674
G1 X198.533 Y41.370 E0.49241
G1 X198.000 Y41.370 E0.01674
G1 X209.630 Y53.000 E0.51609
G1 X209.630 Y53.534 E0.01674
G1 X197.466 Y41.370 E0.53977
G1 X196.932 Y41.370 E0.01674
G1 X209.630 Y54.068 E0.56345
G1 X209.630 Y54.601 E0.01674
G1 X196.399 Y41.370 E0.58713
G1 X195.865 Y41.370 E0.01674
G1 X209.630 Y55.135 E0.61081
G1 X209.630 Y55.669 E0.01674
G1 X195.331 Y41.370 E0.63449
G1 X194.798 Y41.370 E0.01674
G1 X209.630 Y56.202 E0.65817
G1 X209.630 Y56.736 E0.01674
G1 X194.264 Y41.370 E0.68185
G1 X193.730 Y41.370 E0.01674
G1 X209.630 Y57.270 E0.70554
G1 X209.630 Y57.803 E0.01674
G1 X193.197 Y41.370 E0.72922
G1 X192.663 Y41.370 E0.01674
G1 X209.630 Y58.337 E0.75290
G1 X209.630 Y58.871 E0.01674
G1 X192.129 Y41.370 E0.77658
G1 X191.596 Y41.370 E0.01674
G1 X209.630 Y59.404 E0.80026
G1 X209.630 Y59.938 E0.01674
G1 X191.062 Y41.370 E0.82394
G1 X190.528 Y41.370 E0.01674
G1 X209.630 Y60.472 E0.84762
G1 X209.630 Y61.005 E0.01674
G1 X189.995 Y41.370 E0.87130
G1 X189.461 Y41.370 E0.01674
G1 X209.630 Y61.539 E0.89498
G1 X209.630 Y62.073 E0.01674
G1 X188.927 Y41.370 E0.91866
G1 X188.394 Y41.370 E0.01674
G1 X209.630 Y62.606 E0.94234
G1 X209.630 Y63.140 E0.01674
G1 X187.860 Y41.370 E0.96602
G1 X187.326 Y41.370 E0.01674
G1 X209.630 Y63.674 E0.98971
G1 X209.630 Y64.207 E0.01674
G1 X186.793 Y41.370 E1.01339
G1 X186.259 Y41.370 E0.01674
G1 X209.630 Y64.741 E1.03707
G1 X209.630 Y65.274 E0.01674
G1 X185.726 Y41.370 E1.06075
G1 X185.192 Y41.370 E0.01674
G1 X209.630 Y65.808 E1.08443
G1 X209.630 Y66.342 E0.01674
G1 X184.658 Y41.370 E1.10811
G1 X184.125 Y41.370 E0.01674
G1 X209.630 Y66.875 E1.13179
G1 X209.630 Y67.409 E0.01674
G1 X183.591 Y41.370 E1.15547
G1 X183.057 Y41.370 E0.01674
G1 X209.630 Y67.943 E1.17915
G1 X209.630 Y68.476 E0.01674
G1 X182.524 Y41.370 E1.20283
G1 X181.990 Y41.370 E0.01674
G1 X209.630 Y69.010 E1.22651
G1 X209.630 Y69.544 E0.01674
G1 X181.456 Y41.370 E1.25019
G1 X180.923 Y41.370 E0.01674
G1 X209.630 Y70.077 E1.27387
G1 X209.630 Y70.611 E0.01674
G1 X180.389 Y41.370 E1.29756
G1 X179.855 Y41.370 E0.01674
G1 X209.630 Y71.145 E1.32124
G1 X209.630 Y71.678 E0.01674
G1 X179.322 Y41.370 E1.34492
G1 X178.788 Y41.370 E0.01674
G1 X209.630 Y72.212 E1.36860
G1 X209.630 Y72.746 E0.01674
G1 X178.254 Y41.370 E1.39228
G1 X177.721 Y41.370 E0.01674
G1 X209.630 Y73.279 E1.41596
G1 X209.630 Y73.813 E0.01674
G1 X177.187 Y41.370 E1.43964
G1 X176.653 Y41.370 E0.01674
G1 X209.630 Y74.347 E1.46332
G1 X209.630 Y74.880 E0.01674
G1 X176.120 Y41.370 E1.48700
G1 X175.586 Y41.370 E0.01674
G1 X209.630 Y75.414 E1.51068
G1 X209.630 Y75.948 E0.01674
G1 X175.052 Y41.370 E1.53436
G1 X174.519 Y41.370 E0.01674
G1 X209.630 Y76.481 E1.55804
G1 X209.630 Y77.015 E0.01674
G1 X173.985 Y41.370 E1.58173
G1 X173.451 Y41.370 E0.01674
G1 X209.630 Y77.549 E1.60541
G1 X209.630 Y78.082 E0.01674
G1 X172.918 Y41.370 E1.62909
G1 X172.384 Y41.370 E0.01674
G1 X209.630 Y78.616 E1.65277
G1 X209.630 Y79.150 E0.01674
G1 X171.850 Y41.370 E1.67645
G1 X171.317 Y41.370 E0.01674
G1 X209.630 Y79.683 E1.70013
G1 X209.630 Y80.217 E0.01674
G1 X170.783 Y41.370 E1.72381
G1 X170.249 Y41.370 E0.01674
G1 X209.630 Y80.751 E1.74749
G1 X209.630 Y81.284 E0.01674
G1 X169.716 Y41.370 E1.77117
G1 X169.182 Y41.370 E0.01674
G1 X209.630 Y81.818 E1.79485
G1 X209.630 Y82.352 E0.01674
G1 X168.648 Y41.370 E1.81853
G1 X168.115 Y41.370 E0.01674
G1 X209.630 Y82.885 E1.84221
G1 X209.630 Y83.419 E0.01674
G1 X167.581 Y41.370 E1.86589
G1 X167.047 Y41.370 E0.01674
G1 X209.630 Y83.953 E1.88958
G1 X209.630 Y84.486 E0.01674
G1 X166.514 Y41.370 E1.91326
G1 X165.980 Y41.370 E0.01674
G1 X209.630 Y85.020 E1.93694
G1 X209.630 Y85.554 E0.01674
G1 X165.446 Y41.370 E1.96062
G1 X164.913 Y41.370 E0.01674
G1 X209.630 Y86.087 E1.98430
G1 X209.630 Y86.621 E0.01674
G1 X164.379 Y41.370 E2.00798
G1 X163.845 Y41.370 E0.01674
G1 X209.630 Y87.155 E2.03166
G1 X209.630 Y87.688 E0.01674
G1 X163.312 Y41.370 E2.05534
G1 X162.778 Y41.370 E0.01674
G1 X209.630 Y88.222 E2.07902
G1 X209.630 Y88.756 E0.01674
G1 X162.244 Y41.370 E2.10270
G1 X161.711 Y41.370 E0.01674
G1 X209.630 Y89.289 E2.12638
G1 X209.630 Y89.823 E0.01674
G1 X161.177 Y41.370 E2.15006
G1 X160.643 Y41.370 E0.01674
G1 X209.630 Y90.357 E2.17375
