;FLAVOR:Marlin
;TIME:30531
;Filament used: 24.2557m
;Layer height: 0.24
;MINX:7.2
;MINY:27.2
;MINZ:0.2
;MAXX:212.8
;MAXY:192.8
;MAXZ:39.8
;Generated with Cura_SteamEngine 4.8.0
M140 S60
M105
M190 S60
M104 S200
M105
M109 S200
M82 ;absolute extrusion mode
; Ender 3 Custom Start G-code
G92 E0 ; Reset Extruder
G28 ; Home all axes
G1 Z2.0 F3000 ; Move Z Axis up little to prevent scratching of Heat Bed
G1 X0.1 Y20 Z0.3 F5000.0 ; Move to start position
G1 X0.1 Y200.0 Z0.3 F1500.0 E15 ; Draw the first line
G1 X0.4 Y200.0 Z0.3 F5000.0 ; Move to side a little
G1 X0.4 Y20 Z0.3 F1500.0 E30 ; Draw the second line
G92 E0 ; Reset Extruder
G1 Z2.0 F3000 ; Move Z Axis up little to prevent scratching of Heat Bed
G1 X5 Y20 Z0.3 F5000.0 ; Move over to prevent blob squish
G92 E0
G92 E0
G1 F1500 E-6.5
;LAYER_COUNT:166
;LAYER:0
M107
G0 F6000 X12.222 Y27.757 Z0.2
;TYPE:SKIRT
G1 F1500 E0
G1 F1200 X12.969 Y27.502 E0.02625
G1 X13.738 Y27.323 E0.05251
G1 X14.522 Y27.223 E0.0788
G1 X15.117 Y27.2 E0.09861
G1 X204.883 Y27.2 E6.41025
G1 X205.672 Y27.24 E6.43652
G1 X206.452 Y27.359 E6.46277
G1 X207.217 Y27.557 E6.48905
G1 X207.957 Y27.831 E6.5153
G1 X208.666 Y28.179 E6.54156
G1 X209.337 Y28.597 E6.56786
G1 X209.961 Y29.08 E6.5941
G1 X210.398 Y29.485 E6.61392
G1 X210.515 Y29.602 E6.61942
G1 X211.045 Y30.188 E6.6457
G1 X211.512 Y30.824 E6.67195
G1 X211.913 Y31.504 E6.6982
G1 X212.243 Y32.222 E6.72449
G1 X212.498 Y32.969 E6.75074
G1 X212.677 Y33.738 E6.777
G1 X212.777 Y34.522 E6.80329
G1 X212.8 Y35.117 E6.82309
G1 X212.8 Y184.883 E11.80433
G1 X212.76 Y185.672 E11.8306
G1 X212.641 Y186.452 E11.85685
G1 X212.443 Y187.217 E11.88313
G1 X212.169 Y187.957 E11.90938
G1 X211.821 Y188.666 E11.93564
G1 X211.403 Y189.337 E11.96194
G1 X210.92 Y189.961 E11.98818
G1 X210.515 Y190.398 E12.008
G1 X210.398 Y190.515 E12.0135
G1 X209.812 Y191.045 E12.03978
G1 X209.176 Y191.512 E12.06603
G1 X208.496 Y191.913 E12.09228
G1 X207.778 Y192.243 E12.11857
G1 X207.031 Y192.498 E12.14482
G1 X206.262 Y192.677 E12.17108
G1 X205.478 Y192.777 E12.19737
G1 X204.883 Y192.8 E12.21717
G1 X15.117 Y192.8 E18.52881
G1 X14.328 Y192.76 E18.55509
G1 X13.548 Y192.641 E18.58133
G1 X12.783 Y192.443 E18.60762
G1 X12.043 Y192.169 E18.63386
G1 X11.334 Y191.821 E18.66013
G1 X10.663 Y191.403 E18.68642
G1 X10.039 Y190.92 E18.71267
G1 X9.602 Y190.515 E18.73249
G1 X9.485 Y190.398 E18.73799
G1 X8.955 Y189.812 E18.76427
G1 X8.488 Y189.176 E18.79051
G1 X8.087 Y188.496 E18.81677
G1 X7.757 Y187.778 E18.84305
G1 X7.502 Y187.031 E18.8693
G1 X7.323 Y186.262 E18.89557
G1 X7.223 Y185.478 E18.92185
G1 X7.2 Y184.883 E18.94166
G1 X7.2 Y35.117 E23.92289
G1 X7.24 Y34.328 E23.94917
G1 X7.359 Y33.548 E23.97541
G1 X7.557 Y32.783 E24.0017
G1 X7.831 Y32.043 E24.02794
G1 X8.179 Y31.334 E24.05421
G1 X8.597 Y30.663 E24.0805
G1 X9.08 Y30.039 E24.10675
G1 X9.485 Y29.602 E24.12657
G1 X9.602 Y29.485 E24.13207
G1 X10.188 Y28.955 E24.15835
G1 X10.824 Y28.488 E24.18459
G1 X11.504 Y28.087 E24.21085
G1 X12.222 Y27.757 E24.23713
G0 F6000 X12.445 Y28.099
G1 F1200 X13.176 Y27.859 E24.26272
G1 X13.927 Y27.696 E24.28828
G1 X14.692 Y27.612 E24.31388
G1 X15.117 Y27.6 E24.32802
G1 X204.883 Y27.6 E30.63966
G1 X205.651 Y27.64 E30.66524
G1 X206.411 Y27.759 E30.69083
G1 X207.154 Y27.957 E30.7164
G1 X207.873 Y28.231 E30.74199
G1 X208.559 Y28.578 E30.76756
G1 X209.206 Y28.994 E30.79315
G1 X209.806 Y29.475 E30.81872
G1 X210.116 Y29.767 E30.83289
G1 X210.233 Y29.884 E30.83839
G1 X210.747 Y30.456 E30.86397
G1 X211.2 Y31.078 E30.88956
G1 X211.586 Y31.743 E30.91513
G1 X211.901 Y32.445 E30.94073
G1 X212.141 Y33.176 E30.96632
G1 X212.304 Y33.927 E30.99188
G1 X212.388 Y34.692 E31.01747
G1 X212.4 Y35.117 E31.03161
G1 X212.4 Y184.883 E36.01285
G1 X212.36 Y185.651 E36.03843
G1 X212.241 Y186.411 E36.06402
G1 X212.043 Y187.154 E36.08959
G1 X211.769 Y187.873 E36.11518
G1 X211.422 Y188.559 E36.14075
G1 X211.006 Y189.206 E36.16634
G1 X210.525 Y189.806 E36.19191
G1 X210.233 Y190.116 E36.20608
G1 X210.116 Y190.233 E36.21158
G1 X209.544 Y190.747 E36.23716
G1 X208.922 Y191.2 E36.26275
G1 X208.257 Y191.586 E36.28832
G1 X207.555 Y191.901 E36.31392
G1 X206.824 Y192.141 E36.33951
G1 X206.073 Y192.304 E36.36507
G1 X205.308 Y192.388 E36.39066
G1 X204.883 Y192.4 E36.4048
G1 X15.117 Y192.4 E42.71645
G1 X14.349 Y192.36 E42.74203
G1 X13.589 Y192.241 E42.76761
G1 X12.846 Y192.043 E42.79319
G1 X12.127 Y191.769 E42.81878
G1 X11.441 Y191.422 E42.84435
G1 X10.794 Y191.006 E42.86993
G1 X10.194 Y190.525 E42.89551
G1 X9.884 Y190.233 E42.90967
G1 X9.767 Y190.116 E42.91517
G1 X9.253 Y189.544 E42.94075
G1 X8.8 Y188.922 E42.96635
G1 X8.414 Y188.257 E42.99192
G1 X8.099 Y187.555 E43.01751
G1 X7.859 Y186.824 E43.0431
G1 X7.696 Y186.073 E43.06866
G1 X7.612 Y185.308 E43.09426
G1 X7.6 Y184.883 E43.1084
G1 X7.6 Y35.117 E48.08964
G1 X7.64 Y34.349 E48.11521
G1 X7.759 Y33.589 E48.1408
G1 X7.957 Y32.846 E48.16638
G1 X8.231 Y32.127 E48.19197
G1 X8.578 Y31.441 E48.21754
G1 X8.994 Y30.794 E48.24312
G1 X9.475 Y30.194 E48.2687
G1 X9.767 Y29.884 E48.28286
G1 X9.884 Y29.767 E48.28836
G1 X10.456 Y29.253 E48.31394
G1 X11.078 Y28.8 E48.33953
G1 X11.743 Y28.414 E48.36511
G1 X12.445 Y28.099 E48.3907
G0 F6000 X12.666 Y28.443
G1 F1200 X13.38 Y28.219 E48.41559
G1 X14.113 Y28.072 E48.44045
G1 X15.117 Y28 E48.47393
G1 X204.883 Y28 E54.78558
G1 X205.63 Y28.04 E54.81046
G1 X206.368 Y28.159 E54.83532
G1 X207.09 Y28.357 E54.86022
G1 X207.786 Y28.63 E54.88509
G1 X208.449 Y28.977 E54.90998
G1 X209.072 Y29.392 E54.93487
G1 X209.833 Y30.05 E54.96833
G1 X209.95 Y30.167 E54.97384
G1 X210.45 Y30.724 E54.99873
G1 X210.887 Y31.33 E55.02358
G1 X211.258 Y31.98 E55.04847
G1 X211.557 Y32.666 E55.07336
G1 X211.781 Y33.38 E55.09825
G1 X211.928 Y34.113 E55.12312
G1 X212 Y35.117 E55.1566
G1 X212 Y184.883 E60.13783
G1 X211.96 Y185.63 E60.16272
G1 X211.841 Y186.368 E60.18758
G1 X211.643 Y187.09 E60.21248
G1 X211.37 Y187.786 E60.23735
G1 X211.023 Y188.449 E60.26223
G1 X210.608 Y189.072 E60.28713
G1 X209.95 Y189.833 E60.32059
G1 X209.833 Y189.95 E60.3261
G1 X209.276 Y190.45 E60.35099
G1 X208.67 Y190.887 E60.37584
G1 X208.02 Y191.258 E60.40073
G1 X207.334 Y191.557 E60.42562
G1 X206.62 Y191.781 E60.45051
G1 X205.887 Y191.928 E60.47538
G1 X204.883 Y192 E60.50886
G1 X15.117 Y192 E66.8205
G1 X14.37 Y191.96 E66.84538
G1 X13.632 Y191.841 E66.87024
G1 X12.91 Y191.643 E66.89514
G1 X12.214 Y191.37 E66.92001
G1 X11.551 Y191.023 E66.9449
G1 X10.928 Y190.608 E66.9698
G1 X10.167 Y189.95 E67.00326
G1 X10.05 Y189.833 E67.00876
G1 X9.55 Y189.276 E67.03365
G1 X9.113 Y188.67 E67.0585
G1 X8.742 Y188.02 E67.0834
G1 X8.443 Y187.334 E67.10829
G1 X8.219 Y186.62 E67.13318
G1 X8.072 Y185.887 E67.15804
G1 X8 Y184.883 E67.19152
G1 X8 Y35.117 E72.17276
G1 X8.04 Y34.37 E72.19764
G1 X8.159 Y33.632 E72.2225
G1 X8.357 Y32.91 E72.2474
G1 X8.63 Y32.214 E72.27227
G1 X8.977 Y31.551 E72.29716
G1 X9.392 Y30.928 E72.32205
G1 X10.05 Y30.167 E72.35551
G1 X10.167 Y30.05 E72.36102
G1 X10.724 Y29.55 E72.38591
G1 X11.33 Y29.113 E72.41076
G1 X11.98 Y28.742 E72.43566
G1 X12.666 Y28.443 E72.46055
G0 F6000 X12.885 Y28.789
G1 F1200 X13.581 Y28.581 E72.48471
G1 X14.296 Y28.451 E72.50888
G1 X15.117 Y28.4 E72.53624
G1 X204.883 Y28.4 E78.84788
G1 X205.608 Y28.44 E78.87203
G1 X206.325 Y28.559 E78.8962
G1 X207.024 Y28.757 E78.92037
G1 X207.697 Y29.03 E78.94452
G1 X208.336 Y29.375 E78.96867
G1 X208.933 Y29.789 E78.99284
G1 X209.55 Y30.333 E79.0202
G1 X209.667 Y30.45 E79.0257
G1 X210.151 Y30.991 E79.04984
G1 X210.574 Y31.582 E79.07402
G1 X210.928 Y32.216 E79.09817
G1 X211.211 Y32.885 E79.12233
G1 X211.419 Y33.581 E79.14649
G1 X211.549 Y34.296 E79.17066
G1 X211.6 Y35.117 E79.19802
G1 X211.6 Y184.883 E84.17926
G1 X211.56 Y185.608 E84.20341
G1 X211.441 Y186.325 E84.22758
G1 X211.243 Y187.024 E84.25174
G1 X210.97 Y187.697 E84.2759
G1 X210.625 Y188.336 E84.30005
G1 X210.211 Y188.933 E84.32422
G1 X209.667 Y189.55 E84.35158
G1 X209.55 Y189.667 E84.35708
G1 X209.009 Y190.151 E84.38122
G1 X208.418 Y190.574 E84.40539
G1 X207.784 Y190.928 E84.42955
G1 X207.115 Y191.211 E84.45371
G1 X206.419 Y191.419 E84.47787
G1 X205.704 Y191.549 E84.50204
G1 X204.883 Y191.6 E84.5294
G1 X15.117 Y191.6 E90.84104
G1 X14.392 Y191.56 E90.86519
G1 X13.675 Y191.441 E90.88936
G1 X12.976 Y191.243 E90.91353
G1 X12.303 Y190.97 E90.93768
G1 X11.664 Y190.625 E90.96184
G1 X11.067 Y190.211 E90.986
G1 X10.45 Y189.667 E91.01336
G1 X10.333 Y189.55 E91.01886
G1 X9.849 Y189.009 E91.04301
G1 X9.426 Y188.418 E91.06718
G1 X9.072 Y187.784 E91.09133
G1 X8.789 Y187.115 E91.11549
G1 X8.581 Y186.419 E91.13965
G1 X8.451 Y185.704 E91.16382
G1 X8.4 Y184.883 E91.19118
G1 X8.4 Y35.117 E96.17242
G1 X8.44 Y34.392 E96.19657
G1 X8.559 Y33.675 E96.22074
G1 X8.757 Y32.976 E96.24491
G1 X9.03 Y32.303 E96.26906
G1 X9.375 Y31.664 E96.29321
G1 X9.789 Y31.067 E96.31738
G1 X10.333 Y30.45 E96.34474
G1 X10.45 Y30.333 E96.35024
G1 X10.991 Y29.849 E96.37438
G1 X11.582 Y29.426 E96.39856
G1 X12.216 Y29.072 E96.42271
G1 X12.885 Y28.789 E96.44687
G0 F6000 X13.102 Y29.136
G1 F1200 X13.78 Y28.946 E96.47029
G1 X14.475 Y28.833 E96.49371
G1 X15.117 Y28.8 E96.51509
G1 X204.883 Y28.8 E102.82673
G1 X205.586 Y28.84 E102.85015
G1 X206.28 Y28.959 E102.87357
G1 X206.955 Y29.157 E102.89697
G1 X207.604 Y29.429 E102.92037
G1 X208.218 Y29.774 E102.9438
G1 X208.789 Y30.185 E102.96719
G1 X209.267 Y30.616 E102.9886
G1 X209.384 Y30.733 E102.99411
G1 X209.853 Y31.258 E103.01752
G1 X210.259 Y31.833 E103.04093
G1 X210.597 Y32.451 E103.06436
G1 X210.864 Y33.102 E103.08776
G1 X211.054 Y33.78 E103.11118
G1 X211.167 Y34.475 E103.1346
G1 X211.2 Y35.117 E103.15598
G1 X211.2 Y184.883 E108.13722
G1 X211.16 Y185.586 E108.16064
G1 X211.041 Y186.28 E108.18406
G1 X210.843 Y186.955 E108.20745
G1 X210.571 Y187.604 E108.23086
G1 X210.226 Y188.218 E108.25428
G1 X209.815 Y188.789 E108.27768
G1 X209.384 Y189.267 E108.29909
G1 X209.267 Y189.384 E108.30459
G1 X208.742 Y189.853 E108.32801
G1 X208.167 Y190.259 E108.35142
G1 X207.549 Y190.597 E108.37485
G1 X206.898 Y190.864 E108.39825
G1 X206.22 Y191.054 E108.42167
G1 X205.525 Y191.167 E108.44509
G1 X204.883 Y191.2 E108.46647
G1 X15.117 Y191.2 E114.77811
G1 X14.414 Y191.16 E114.80153
G1 X13.72 Y191.041 E114.82495
G1 X13.045 Y190.843 E114.84835
G1 X12.396 Y190.571 E114.87175
G1 X11.782 Y190.226 E114.89518
G1 X11.211 Y189.815 E114.91858
G1 X10.733 Y189.384 E114.93999
G1 X10.616 Y189.267 E114.94549
G1 X10.147 Y188.742 E114.9689
G1 X9.741 Y188.167 E114.99231
G1 X9.403 Y187.549 E115.01574
G1 X9.136 Y186.898 E115.03915
G1 X8.946 Y186.22 E115.06256
G1 X8.833 Y185.525 E115.08598
G1 X8.8 Y184.883 E115.10736
G1 X8.8 Y35.117 E120.0886
G1 X8.84 Y34.414 E120.11202
G1 X8.959 Y33.72 E120.13544
G1 X9.157 Y33.045 E120.15884
G1 X9.429 Y32.396 E120.18224
G1 X9.774 Y31.782 E120.20567
G1 X10.185 Y31.211 E120.22907
G1 X10.616 Y30.733 E120.25047
G1 X10.733 Y30.616 E120.25598
G1 X11.258 Y30.147 E120.27939
G1 X11.833 Y29.741 E120.3028
G1 X12.451 Y29.403 E120.32623
G1 X13.102 Y29.136 E120.34963
G0 F6000 X12.683 Y29.735
G1 F1200 X13.317 Y29.486 E120.37229
G1 X13.976 Y29.313 E120.39495
G1 X14.65 Y29.219 E120.41758
G1 X15.117 Y29.2 E120.43313
G1 X204.883 Y29.2 E126.74477
G1 X205.563 Y29.24 E126.76743
G1 X206.233 Y29.359 E126.79006
G1 X206.885 Y29.556 E126.81272
G1 X207.509 Y29.828 E126.83536
G1 X208.097 Y30.172 E126.85801
G1 X208.641 Y30.582 E126.88067
G1 X208.984 Y30.899 E126.8962
G1 X209.101 Y31.016 E126.90171
G1 X209.554 Y31.525 E126.92437
G1 X209.943 Y32.083 E126.947
G1 X210.265 Y32.683 E126.96964
G1 X210.514 Y33.317 E126.9923
G1 X210.687 Y33.976 E127.01496
G1 X210.781 Y34.65 E127.03759
G1 X210.8 Y35.117 E127.05314
G1 X210.8 Y184.883 E132.03438
G1 X210.76 Y185.563 E132.05703
G1 X210.641 Y186.233 E132.07967
G1 X210.444 Y186.885 E132.10232
G1 X210.172 Y187.509 E132.12496
G1 X209.828 Y188.097 E132.14762
G1 X209.418 Y188.641 E132.17027
G1 X209.101 Y188.984 E132.18581
G1 X208.984 Y189.101 E132.19131
G1 X208.475 Y189.554 E132.21398
G1 X207.917 Y189.943 E132.2366
G1 X207.317 Y190.265 E132.25925
G1 X206.683 Y190.514 E132.2819
G1 X206.024 Y190.687 E132.30456
G1 X205.35 Y190.781 E132.3272
G1 X204.883 Y190.8 E132.34274
G1 X15.117 Y190.8 E138.65439
G1 X14.437 Y190.76 E138.67704
G1 X13.767 Y190.641 E138.69967
G1 X13.115 Y190.444 E138.72233
G1 X12.491 Y190.172 E138.74497
G1 X11.903 Y189.828 E138.76763
G1 X11.359 Y189.418 E138.79028
G1 X11.016 Y189.101 E138.80582
G1 X10.899 Y188.984 E138.81132
G1 X10.446 Y188.475 E138.83398
G1 X10.057 Y187.917 E138.85661
G1 X9.735 Y187.317 E138.87926
G1 X9.486 Y186.683 E138.90191
G1 X9.313 Y186.024 E138.92457
G1 X9.219 Y185.35 E138.94721
G1 X9.2 Y184.883 E138.96275
G1 X9.2 Y35.117 E143.94399
G1 X9.24 Y34.437 E143.96665
G1 X9.359 Y33.767 E143.98928
G1 X9.556 Y33.115 E144.01193
G1 X9.828 Y32.491 E144.03457
G1 X10.172 Y31.903 E144.05723
G1 X10.582 Y31.359 E144.07989
G1 X10.899 Y31.016 E144.09542
G1 X11.016 Y30.899 E144.10093
G1 X11.525 Y30.446 E144.12359
G1 X12.083 Y30.057 E144.14621
G1 X12.683 Y29.735 E144.16886
G0 F6000 X12.914 Y30.07
G1 F1200 X13.529 Y29.839 E144.19071
G1 X14.168 Y29.684 E144.21258
G1 X15.117 Y29.6 E144.24427
G1 X204.883 Y29.6 E150.55591
G1 X205.539 Y29.64 E150.57777
G1 X206.185 Y29.759 E150.59962
G1 X206.812 Y29.956 E150.62148
G1 X207.41 Y30.228 E150.64333
G1 X207.971 Y30.57 E150.66518
G1 X208.701 Y31.182 E150.69686
G1 X208.818 Y31.299 E150.70237
G1 X209.254 Y31.791 E150.72423
G1 X209.626 Y32.332 E150.74607
G1 X209.93 Y32.914 E150.76791
G1 X210.161 Y33.529 E150.78976
G1 X210.316 Y34.168 E150.81163
G1 X210.4 Y35.117 E150.84331
G1 X210.4 Y184.883 E155.82455
G1 X210.36 Y185.539 E155.84641
G1 X210.241 Y186.185 E155.86826
G1 X210.044 Y186.812 E155.89012
G1 X209.772 Y187.41 E155.91197
G1 X209.43 Y187.971 E155.93382
G1 X208.818 Y188.701 E155.9655
G1 X208.701 Y188.818 E155.97101
G1 X208.209 Y189.254 E155.99287
G1 X207.668 Y189.626 E156.01471
G1 X207.086 Y189.93 E156.03655
G1 X206.471 Y190.161 E156.0584
G1 X205.832 Y190.316 E156.08027
G1 X204.883 Y190.4 E156.11196
G1 X15.117 Y190.4 E162.4236
G1 X14.461 Y190.36 E162.44546
G1 X13.815 Y190.241 E162.46731
G1 X13.188 Y190.044 E162.48916
G1 X12.59 Y189.772 E162.51102
G1 X12.029 Y189.43 E162.53287
G1 X11.299 Y188.818 E162.56455
G1 X11.182 Y188.701 E162.57005
G1 X10.746 Y188.209 E162.59192
G1 X10.374 Y187.668 E162.61376
G1 X10.07 Y187.086 E162.6356
G1 X9.839 Y186.471 E162.65745
G1 X9.684 Y185.832 E162.67932
G1 X9.6 Y184.883 E162.711
G1 X9.6 Y35.117 E167.69224
G1 X9.64 Y34.461 E167.7141
G1 X9.759 Y33.815 E167.73595
G1 X9.956 Y33.188 E167.75781
G1 X10.228 Y32.59 E167.77966
G1 X10.57 Y32.029 E167.80151
G1 X11.182 Y31.299 E167.83319
G1 X11.299 Y31.182 E167.8387
G1 X11.791 Y30.746 E167.86056
G1 X12.332 Y30.374 E167.8824
G1 X12.914 Y30.07 E167.90424
G0 F6000 X13.143 Y30.406
G1 F1200 X13.738 Y30.194 E167.92525
G1 X14.356 Y30.058 E167.94629
G1 X15.117 Y30 E167.97168
G1 X204.883 Y30 E174.28332
G1 X205.514 Y30.04 E174.30435
G1 X206.135 Y30.159 E174.32538
G1 X206.735 Y30.356 E174.34638
G1 X207.307 Y30.627 E174.36744
G1 X207.839 Y30.967 E174.38843
G1 X208.419 Y31.464 E174.41384
G1 X208.536 Y31.581 E174.41934
G1 X208.953 Y32.056 E174.44037
G1 X209.308 Y32.579 E174.46139
G1 X209.594 Y33.143 E174.48242
G1 X209.806 Y33.738 E174.50343
G1 X209.942 Y34.356 E174.52448
G1 X210 Y35.117 E174.54986
G1 X210 Y184.883 E179.5311
G1 X209.96 Y185.514 E179.55213
G1 X209.841 Y186.135 E179.57316
G1 X209.644 Y186.735 E179.59416
G1 X209.373 Y187.307 E179.61521
G1 X209.033 Y187.839 E179.63621
G1 X208.536 Y188.419 E179.66162
G1 X208.419 Y188.536 E179.66712
G1 X207.944 Y188.953 E179.68814
G1 X207.421 Y189.308 E179.70917
G1 X206.857 Y189.594 E179.7302
G1 X206.262 Y189.806 E179.75121
G1 X205.644 Y189.942 E179.77226
G1 X204.883 Y190 E179.79764
G1 X15.117 Y190 E186.10928
G1 X14.486 Y189.96 E186.13031
G1 X13.865 Y189.841 E186.15134
G1 X13.265 Y189.644 E186.17235
G1 X12.693 Y189.373 E186.1934
G1 X12.161 Y189.033 E186.2144
G1 X11.581 Y188.536 E186.2398
G1 X11.464 Y188.419 E186.24531
G1 X11.047 Y187.944 E186.26633
G1 X10.692 Y187.421 E186.28735
G1 X10.406 Y186.857 E186.30839
G1 X10.194 Y186.262 E186.32939
G1 X10.058 Y185.644 E186.35044
G1 X10 Y184.883 E186.37582
G1 X10 Y35.117 E191.35706
G1 X10.04 Y34.486 E191.37809
G1 X10.159 Y33.865 E191.39912
