;FLAVOR:Marlin
;TIME:41993
;Filament used: 31.4643m
;Layer height: 0.24
;MINX:7.2
;MINY:27.2
;MINZ:0.2
;MAXX:212.8
;MAXY:192.8
;MAXZ:39.8
;Generated with Cura_SteamEngine 4.8.0
M140 S60
M105
M190 S60
M104 S200
M105
M109 S200
M82 ;absolute extrusion mode
; Ender 3 Custom Start G-code
G92 E0 ; Reset Extruder
G28 ; Home all axes
G1 Z2.0 F3000 ; Move Z Axis up little to prevent scratching of Heat Bed
G1 X0.1 Y20 Z0.3 F5000.0 ; Move to start position
G1 X0.1 Y200.0 Z0.3 F1500.0 E15 ; Draw the first line
G1 X0.4 Y200.0 Z0.3 F5000.0 ; Move to side a little
G1 X0.4 Y20 Z0.3 F1500.0 E30 ; Draw the second line
G92 E0 ; Reset Extruder
G1 Z2.0 F3000 ; Move Z Axis up little to prevent scratching of Heat Bed
G1 X5 Y20 Z0.3 F5000.0 ; Move over to prevent blob squish
G92 E0
G92 E0
G1 F1500 E-6.5
;LAYER_COUNT:166
;LAYER:0
M107
G0 F6000 X12.286 Y27.687 Z0.2
;TYPE:SKIRT
G1 F1500 E0
G1 F1200 X13.039 Y27.45 E0.02626
G1 X13.813 Y27.291 E0.05254
G1 X14.598 Y27.21 E0.07878
G1 X15 Y27.2 E0.09216
G1 X205 Y27.2 E6.41159
G1 X205.789 Y27.24 E6.43786
G1 X206.569 Y27.359 E6.4641
G1 X207.334 Y27.557 E6.49039
G1 X208.074 Y27.831 E6.51663
G1 X208.783 Y28.179 E6.5429
G1 X209.454 Y28.597 E6.56919
G1 X210.078 Y29.08 E6.59544
G1 X210.651 Y29.623 E6.6217
G1 X211.166 Y30.222 E6.64797
G1 X211.617 Y30.87 E6.67423
G1 X212.001 Y31.561 E6.70052
G1 X212.313 Y32.286 E6.72677
G1 X212.55 Y33.039 E6.75303
G1 X212.709 Y33.813 E6.77931
G1 X212.79 Y34.598 E6.80556
G1 X212.8 Y35 E6.81893
G1 X212.8 Y185 E11.80795
G1 X212.76 Y185.789 E11.83423
G1 X212.641 Y186.569 E11.86047
G1 X212.443 Y187.334 E11.88675
G1 X212.169 Y188.074 E11.913
G1 X211.821 Y188.783 E11.93927
G1 X211.403 Y189.454 E11.96556
G1 X210.92 Y190.078 E11.99181
G1 X210.377 Y190.651 E12.01806
G1 X209.778 Y191.166 E12.04434
G1 X209.13 Y191.617 E12.0706
G1 X208.439 Y192.001 E12.09689
G1 X207.714 Y192.313 E12.12314
G1 X206.961 Y192.55 E12.1494
G1 X206.187 Y192.709 E12.17568
G1 X205.402 Y192.79 E12.20193
G1 X205 Y192.8 E12.2153
G1 X15 Y192.8 E18.53473
G1 X14.211 Y192.76 E18.561
G1 X13.431 Y192.641 E18.58725
G1 X12.666 Y192.443 E18.61353
G1 X11.926 Y192.169 E18.63977
G1 X11.217 Y191.821 E18.66604
G1 X10.546 Y191.403 E18.69234
G1 X9.922 Y190.92 E18.71858
G1 X9.349 Y190.377 E18.74484
G1 X8.834 Y189.778 E18.77111
G1 X8.383 Y189.13 E18.79737
G1 X7.999 Y188.439 E18.82366
G1 X7.687 Y187.714 E18.84992
G1 X7.45 Y186.961 E18.87617
G1 X7.291 Y186.187 E18.90245
G1 X7.21 Y185.402 E18.9287
G1 X7.2 Y185 E18.94208
G1 X7.2 Y183 E19.0086
G1 X7.24 Y182.211 E19.03487
G1 X7.359 Y181.431 E19.06111
G1 X7.557 Y180.666 E19.0874
G1 X7.831 Y179.926 E19.11364
G1 X8.179 Y179.217 E19.13991
G1 X8.597 Y178.546 E19.1662
G1 X9.08 Y177.922 E19.19245
G1 X9.623 Y177.349 E19.21871
G1 X10.222 Y176.834 E19.24498
G1 X10.87 Y176.383 E19.27124
G1 X11.561 Y175.999 E19.29753
G1 X12.286 Y175.687 E19.32378
G1 X13.039 Y175.45 E19.35004
G1 X13.813 Y175.291 E19.37632
G1 X14.598 Y175.21 E19.40257
G1 X15 Y175.2 E19.41594
G1 X65.7 Y175.2 E21.10223
G1 X65.7 Y146.8 E22.04682
G1 X15 Y146.8 E23.73311
G1 X14.211 Y146.76 E23.75938
G1 X13.431 Y146.641 E23.78563
G1 X12.666 Y146.443 E23.81191
G1 X11.926 Y146.169 E23.83816
G1 X11.217 Y145.821 E23.86442
G1 X10.546 Y145.403 E23.89072
G1 X9.922 Y144.92 E23.91696
G1 X9.349 Y144.377 E23.94322
G1 X8.834 Y143.778 E23.96949
G1 X8.383 Y143.13 E23.99575
G1 X7.999 Y142.439 E24.02205
G1 X7.687 Y141.714 E24.0483
G1 X7.45 Y140.961 E24.07455
G1 X7.291 Y140.187 E24.10083
G1 X7.21 Y139.402 E24.12708
G1 X7.2 Y139 E24.14046
G1 X7.2 Y137 E24.20698
G1 X7.24 Y136.211 E24.23325
G1 X7.359 Y135.431 E24.2595
G1 X7.557 Y134.666 E24.28578
G1 X7.831 Y133.926 E24.31202
G1 X8.179 Y133.217 E24.33829
G1 X8.597 Y132.546 E24.36459
G1 X9.08 Y131.922 E24.39083
G1 X9.623 Y131.349 E24.41709
G1 X10.222 Y130.834 E24.44336
G1 X10.87 Y130.383 E24.46962
G1 X11.561 Y129.999 E24.49591
G1 X12.286 Y129.687 E24.52217
G1 X13.039 Y129.45 E24.54842
G1 X13.813 Y129.291 E24.5747
G1 X14.598 Y129.21 E24.60095
G1 X15 Y129.2 E24.61433
G1 X195.2 Y129.2 E30.6078
G1 X195.2 Y107.3 E31.3362
G1 X15 Y107.3 E37.32967
G1 X14.211 Y107.26 E37.35595
G1 X13.431 Y107.141 E37.38219
G1 X12.666 Y106.943 E37.40848
G1 X11.926 Y106.669 E37.43472
G1 X11.217 Y106.321 E37.46099
G1 X10.546 Y105.903 E37.48728
G1 X9.922 Y105.42 E37.51353
G1 X9.349 Y104.877 E37.53979
G1 X8.834 Y104.278 E37.56606
G1 X8.383 Y103.63 E37.59232
G1 X7.999 Y102.939 E37.61861
G1 X7.687 Y102.214 E37.64486
G1 X7.45 Y101.461 E37.67112
G1 X7.291 Y100.687 E37.6974
G1 X7.21 Y99.902 E37.72365
G1 X7.2 Y99.5 E37.73702
G1 X7.2 Y97.5 E37.80354
G1 X7.24 Y96.711 E37.82982
G1 X7.359 Y95.931 E37.85606
G1 X7.557 Y95.166 E37.88234
G1 X7.831 Y94.426 E37.90859
G1 X8.179 Y93.717 E37.93486
G1 X8.597 Y93.046 E37.96115
G1 X9.08 Y92.422 E37.9874
G1 X9.623 Y91.849 E38.01365
G1 X10.222 Y91.334 E38.03993
G1 X10.87 Y90.883 E38.06619
G1 X11.561 Y90.499 E38.09248
G1 X12.286 Y90.187 E38.11873
G1 X13.039 Y89.95 E38.14499
G1 X13.813 Y89.791 E38.17127
G1 X14.598 Y89.71 E38.19752
G1 X15 Y89.7 E38.21089
G1 X195.2 Y89.7 E44.20437
G1 X195.2 Y44.8 E45.69775
G1 X15 Y44.8 E51.69122
G1 X14.211 Y44.76 E51.7175
G1 X13.431 Y44.641 E51.74374
G1 X12.666 Y44.443 E51.77003
G1 X11.926 Y44.169 E51.79627
G1 X11.217 Y43.821 E51.82254
G1 X10.546 Y43.403 E51.84883
G1 X9.922 Y42.92 E51.87508
G1 X9.349 Y42.377 E51.90133
G1 X8.834 Y41.778 E51.92761
G1 X8.383 Y41.13 E51.95387
G1 X7.999 Y40.439 E51.98016
G1 X7.687 Y39.714 E52.00641
G1 X7.45 Y38.961 E52.03267
G1 X7.291 Y38.187 E52.05895
G1 X7.21 Y37.402 E52.0852
G1 X7.2 Y37 E52.09857
G1 X7.2 Y35 E52.16509
G1 X7.24 Y34.211 E52.19137
G1 X7.359 Y33.431 E52.21761
G1 X7.557 Y32.666 E52.24389
G1 X7.831 Y31.926 E52.27014
G1 X8.179 Y31.217 E52.29641
G1 X8.597 Y30.546 E52.3227
G1 X9.08 Y29.922 E52.34895
G1 X9.623 Y29.349 E52.3752
G1 X10.222 Y28.834 E52.40148
G1 X10.87 Y28.383 E52.42774
G1 X11.561 Y27.999 E52.45403
G1 X12.286 Y27.687 E52.48028
G0 F6000 X12.651 Y27.983
G1 F1200 X13.393 Y27.777 E52.50589
G1 X14.151 Y27.649 E52.53146
G1 X15 Y27.6 E52.55975
G1 X205 Y27.6 E58.87917
G1 X205.768 Y27.64 E58.90475
G1 X206.528 Y27.759 E58.93034
G1 X207.271 Y27.957 E58.95591
G1 X207.99 Y28.231 E58.9815
G1 X208.676 Y28.578 E59.00707
G1 X209.323 Y28.994 E59.03266
G1 X209.923 Y29.475 E59.05823
G1 X210.47 Y30.016 E59.08382
G1 X210.958 Y30.611 E59.10942
G1 X211.381 Y31.253 E59.13499
G1 X211.736 Y31.936 E59.16059
G1 X212.017 Y32.651 E59.18614
G1 X212.223 Y33.393 E59.21175
G1 X212.351 Y34.151 E59.23732
G1 X212.4 Y35 E59.26561
G1 X212.4 Y185 E64.25463
G1 X212.36 Y185.768 E64.2802
G1 X212.241 Y186.528 E64.30579
G1 X212.043 Y187.271 E64.33136
G1 X211.769 Y187.99 E64.35696
G1 X211.422 Y188.676 E64.38253
G1 X211.006 Y189.323 E64.40811
G1 X210.525 Y189.923 E64.43369
G1 X209.984 Y190.47 E64.45927
G1 X209.389 Y190.958 E64.48487
G1 X208.747 Y191.381 E64.51044
G1 X208.064 Y191.736 E64.53604
G1 X207.349 Y192.017 E64.56159
G1 X206.607 Y192.223 E64.58721
G1 X205.849 Y192.351 E64.61277
G1 X205 Y192.4 E64.64106
G1 X15 Y192.4 E70.96049
G1 X14.232 Y192.36 E70.98606
G1 X13.472 Y192.241 E71.01165
G1 X12.729 Y192.043 E71.03722
G1 X12.01 Y191.769 E71.06282
G1 X11.324 Y191.422 E71.08838
G1 X10.677 Y191.006 E71.11397
G1 X10.077 Y190.525 E71.13955
G1 X9.53 Y189.984 E71.16513
G1 X9.042 Y189.389 E71.19073
G1 X8.619 Y188.747 E71.2163
G1 X8.264 Y188.064 E71.2419
G1 X7.983 Y187.349 E71.26745
G1 X7.777 Y186.607 E71.29307
G1 X7.649 Y185.849 E71.31863
G1 X7.6 Y185 E71.34692
G1 X7.6 Y183 E71.41344
G1 X7.64 Y182.232 E71.43902
G1 X7.759 Y181.472 E71.4646
G1 X7.957 Y180.729 E71.49018
G1 X8.231 Y180.01 E71.51577
G1 X8.578 Y179.324 E71.54134
G1 X8.994 Y178.677 E71.56692
G1 X9.475 Y178.077 E71.5925
G1 X10.016 Y177.53 E71.61809
G1 X10.611 Y177.042 E71.64368
G1 X11.253 Y176.619 E71.66925
G1 X11.936 Y176.264 E71.69486
G1 X12.651 Y175.983 E71.72041
G1 X13.393 Y175.777 E71.74602
G1 X14.151 Y175.649 E71.77159
G1 X15 Y175.6 E71.79987
G1 X66.1 Y175.6 E73.49947
G1 X66.1 Y146.4 E74.47066
G1 X15 Y146.4 E76.17025
G1 X14.232 Y146.36 E76.19583
G1 X13.472 Y146.241 E76.22142
G1 X12.729 Y146.043 E76.24699
G1 X12.01 Y145.769 E76.27259
G1 X11.324 Y145.422 E76.29815
G1 X10.677 Y145.006 E76.32374
G1 X10.077 Y144.525 E76.34932
G1 X9.53 Y143.984 E76.3749
G1 X9.042 Y143.389 E76.4005
G1 X8.619 Y142.747 E76.42607
G1 X8.264 Y142.064 E76.45167
G1 X7.983 Y141.349 E76.47722
G1 X7.777 Y140.607 E76.50284
G1 X7.649 Y139.849 E76.5284
G1 X7.6 Y139 E76.55669
G1 X7.6 Y137 E76.62321
G1 X7.64 Y136.232 E76.64879
G1 X7.759 Y135.472 E76.67437
G1 X7.957 Y134.729 E76.69995
G1 X8.231 Y134.01 E76.72554
G1 X8.578 Y133.324 E76.75111
G1 X8.994 Y132.677 E76.77669
G1 X9.475 Y132.077 E76.80227
G1 X10.016 Y131.53 E76.82786
G1 X10.611 Y131.042 E76.85345
G1 X11.253 Y130.619 E76.87902
G1 X11.936 Y130.264 E76.90463
G1 X12.651 Y129.983 E76.93018
G1 X13.393 Y129.777 E76.95579
G1 X14.151 Y129.649 E76.98136
G1 X15 Y129.6 E77.00964
G1 X195.6 Y129.6 E83.01642
G1 X195.6 Y106.9 E83.77143
G1 X15 Y106.9 E89.77821
G1 X14.232 Y106.86 E89.80379
G1 X13.472 Y106.741 E89.82937
G1 X12.729 Y106.543 E89.85495
G1 X12.01 Y106.269 E89.88054
G1 X11.324 Y105.922 E89.90611
G1 X10.677 Y105.506 E89.93169
G1 X10.077 Y105.025 E89.95727
G1 X9.53 Y104.484 E89.98286
G1 X9.042 Y103.889 E90.00845
G1 X8.619 Y103.247 E90.03402
G1 X8.264 Y102.564 E90.05962
G1 X7.983 Y101.849 E90.08518
G1 X7.777 Y101.107 E90.11079
G1 X7.649 Y100.349 E90.13636
G1 X7.6 Y99.5 E90.16464
G1 X7.6 Y97.5 E90.23116
G1 X7.64 Y96.732 E90.25674
G1 X7.759 Y95.972 E90.28233
G1 X7.957 Y95.229 E90.3079
G1 X8.231 Y94.51 E90.33349
G1 X8.578 Y93.824 E90.35906
G1 X8.994 Y93.177 E90.38465
G1 X9.475 Y92.577 E90.41022
G1 X10.016 Y92.03 E90.43581
G1 X10.611 Y91.542 E90.46141
G1 X11.253 Y91.119 E90.48698
G1 X11.936 Y90.764 E90.51258
G1 X12.651 Y90.483 E90.53813
G1 X13.393 Y90.277 E90.56374
G1 X14.151 Y90.149 E90.58931
G1 X15 Y90.1 E90.6176
G1 X195.6 Y90.1 E96.62438
G1 X195.6 Y44.4 E98.14436
G1 X15 Y44.4 E104.15114
G1 X14.232 Y44.36 E104.17672
G1 X13.472 Y44.241 E104.20231
G1 X12.729 Y44.043 E104.22788
G1 X12.01 Y43.769 E104.25348
G1 X11.324 Y43.422 E104.27904
G1 X10.677 Y43.006 E104.30463
G1 X10.077 Y42.525 E104.33021
G1 X9.53 Y41.984 E104.35579
G1 X9.042 Y41.389 E104.38139
G1 X8.619 Y40.747 E104.40696
G1 X8.264 Y40.064 E104.43256
G1 X7.983 Y39.349 E104.45811
G1 X7.777 Y38.607 E104.48373
G1 X7.649 Y37.849 E104.50929
G1 X7.6 Y37 E104.53758
G1 X7.6 Y35 E104.6041
G1 X7.64 Y34.232 E104.62968
G1 X7.759 Y33.472 E104.65526
G1 X7.957 Y32.729 E104.68084
G1 X8.231 Y32.01 E104.70643
G1 X8.578 Y31.324 E104.732
G1 X8.994 Y30.677 E104.75758
G1 X9.475 Y30.077 E104.78316
G1 X10.016 Y29.53 E104.80875
G1 X10.611 Y29.042 E104.83434
G1 X11.253 Y28.619 E104.85991
G1 X11.936 Y28.264 E104.88552
G1 X12.651 Y27.983 E104.91107
G0 F6000 X12.308 Y28.538
G1 F1200 X13.013 Y28.288 E104.93595
G1 X13.741 Y28.114 E104.96084
G1 X14.483 Y28.019 E104.98572
G1 X15 Y28 E105.00293
G1 X205 Y28 E111.32235
G1 X205.747 Y28.04 E111.34724
G1 X206.485 Y28.159 E111.3721
G1 X207.207 Y28.357 E111.397
G1 X207.903 Y28.63 E111.42187
G1 X208.566 Y28.977 E111.44675
G1 X209.189 Y29.392 E111.47165
G1 X209.763 Y29.871 E111.49652
G1 X210.284 Y30.408 E111.5214
G1 X210.743 Y30.998 E111.54627
G1 X211.138 Y31.634 E111.57117
G1 X211.462 Y32.308 E111.59604
G1 X211.712 Y33.013 E111.62092
G1 X211.886 Y33.741 E111.64581
G1 X211.981 Y34.483 E111.67069
G1 X212 Y35 E111.6879
G1 X212 Y185 E116.67692
G1 X211.96 Y185.747 E116.7018
G1 X211.841 Y186.485 E116.72667
G1 X211.643 Y187.207 E116.75157
G1 X211.37 Y187.903 E116.77643
G1 X211.023 Y188.566 E116.80132
G1 X210.608 Y189.189 E116.82622
G1 X210.129 Y189.763 E116.85108
G1 X209.592 Y190.284 E116.87597
G1 X209.002 Y190.743 E116.90083
G1 X208.366 Y191.138 E116.92573
G1 X207.692 Y191.462 E116.95061
G1 X206.987 Y191.712 E116.97549
G1 X206.259 Y191.886 E117.00038
G1 X205.517 Y191.981 E117.02526
G1 X205 Y192 E117.04247
G1 X15 Y192 E123.36189
G1 X14.253 Y191.96 E123.38677
G1 X13.515 Y191.841 E123.41164
G1 X12.793 Y191.643 E123.43654
G1 X12.097 Y191.37 E123.4614
G1 X11.434 Y191.023 E123.48629
G1 X10.811 Y190.608 E123.51119
G1 X10.237 Y190.129 E123.53606
G1 X9.716 Y189.592 E123.56094
G1 X9.257 Y189.002 E123.5858
G1 X8.862 Y188.366 E123.61071
G1 X8.538 Y187.692 E123.63558
G1 X8.288 Y186.987 E123.66046
G1 X8.114 Y186.259 E123.68535
G1 X8.019 Y185.517 E123.71023
G1 X8 Y185 E123.72744
G1 X8 Y183 E123.79396
G1 X8.04 Y182.253 E123.81884
G1 X8.159 Y181.515 E123.8437
G1 X8.357 Y180.793 E123.86861
G1 X8.63 Y180.097 E123.89347
G1 X8.977 Y179.434 E123.91836
G1 X9.392 Y178.811 E123.94326
G1 X9.871 Y178.237 E123.96812
G1 X10.408 Y177.716 E123.99301
G1 X10.998 Y177.257 E124.01787
G1 X11.634 Y176.862 E124.04277
G1 X12.308 Y176.538 E124.06765
G1 X13.013 Y176.288 E124.09252
G1 X13.741 Y176.114 E124.11742
G1 X14.483 Y176.019 E124.1423
G1 X15 Y176 E124.15951
G1 X66.5 Y176 E125.8724
G1 X66.5 Y146 E126.87021
G1 X15 Y146 E128.58311
G1 X14.253 Y145.96 E128.60799
G1 X13.515 Y145.841 E128.63285
G1 X12.793 Y145.643 E128.65775
G1 X12.097 Y145.37 E128.68262
G1 X11.434 Y145.023 E128.70751
G1 X10.811 Y144.608 E128.7324
G1 X10.237 Y144.129 E128.75727
G1 X9.716 Y143.592 E128.78215
G1 X9.257 Y143.002 E128.80702
G1 X8.862 Y142.366 E128.83192
G1 X8.538 Y141.692 E128.85679
G1 X8.288 Y140.987 E128.88167
G1 X8.114 Y140.259 E128.90656
G1 X8.019 Y139.517 E128.93145
G1 X8 Y139 E128.94865
G1 X8 Y137 E129.01517
G1 X8.04 Y136.253 E129.04005
G1 X8.159 Y135.515 E129.06492
G1 X8.357 Y134.793 E129.08982
G1 X8.63 Y134.097 E129.11468
G1 X8.977 Y133.434 E129.13957
G1 X9.392 Y132.811 E129.16447
G1 X9.871 Y132.237 E129.18934
G1 X10.408 Y131.716 E129.21422
G1 X10.998 Y131.257 E129.23908
G1 X11.634 Y130.862 E129.26398
G1 X12.308 Y130.538 E129.28886
G1 X13.013 Y130.288 E129.31374
G1 X13.741 Y130.114 E129.33863
G1 X14.483 Y130.019 E129.36351
G1 X15 Y130 E129.38072
G1 X196 Y130 E135.4008
G1 X196 Y106.5 E136.18242
G1 X15 Y106.5 E142.2025
G1 X14.253 Y106.46 E142.22738
G1 X13.515 Y106.341 E142.25225
G1 X12.793 Y106.143 E142.27715
G1 X12.097 Y105.87 E142.30201
G1 X11.434 Y105.523 E142.3269
G1 X10.811 Y105.108 E142.3518
G1 X10.237 Y104.629 E142.37666
G1 X9.716 Y104.092 E142.40155
G1 X9.257 Y103.502 E142.42641
G1 X8.862 Y102.866 E142.45131
G1 X8.538 Y102.192 E142.47619
G1 X8.288 Y101.487 E142.50107
G1 X8.114 Y100.759 E142.52596
G1 X8.019 Y100.017 E142.55084
G1 X8 Y99.5 E142.56805
G1 X8 Y97.5 E142.63457
G1 X8.04 Y96.753 E142.65945
G1 X8.159 Y96.015 E142.68431
G1 X8.357 Y95.293 E142.70921
G1 X8.63 Y94.597 E142.73408
G1 X8.977 Y93.934 E142.75897
G1 X9.392 Y93.311 E142.78387
G1 X9.871 Y92.737 E142.80873
G1 X10.408 Y92.216 E142.83362
G1 X10.998 Y91.757 E142.85848
G1 X11.634 Y91.362 E142.88338
G1 X12.308 Y91.038 E142.90825
G1 X13.013 Y90.788 E142.93313
G1 X13.741 Y90.614 E142.95803
G1 X14.483 Y90.519 E142.98291
G1 X15 Y90.5 E143.00012
G1 X196 Y90.5 E149.0202
G1 X196 Y44 E150.5668
G1 X15 Y44 E156.58688
G1 X14.253 Y43.96 E156.61176
G1 X13.515 Y43.841 E156.63662
G1 X12.793 Y43.643 E156.66152
G1 X12.097 Y43.37 E156.68639
G1 X11.434 Y43.023 E156.71128
G1 X10.811 Y42.608 E156.73618
G1 X10.237 Y42.129 E156.76104
G1 X9.716 Y41.592 E156.78593
G1 X9.257 Y41.002 E156.81079
G1 X8.862 Y40.366 E156.83569
G1 X8.538 Y39.692 E156.86056
G1 X8.288 Y38.987 E156.88544
G1 X8.114 Y38.259 E156.91034
G1 X8.019 Y37.517 E156.93522
G1 X8 Y37 E156.95243
G1 X8 Y35 E157.01895
G1 X8.04 Y34.253 E157.04383
G1 X8.159 Y33.515 E157.06869
G1 X8.357 Y32.793 E157.09359
G1 X8.63 Y32.097 E157.11846
G1 X8.977 Y31.434 E157.14335
G1 X9.392 Y30.811 E157.16824
G1 X9.871 Y30.237 E157.19311
G1 X10.408 Y29.716 E157.218
G1 X10.998 Y29.257 E157.24286
G1 X11.634 Y28.862 E157.26776
G1 X12.308 Y28.538 E157.29263
G0 F6000 X12.678 Y28.822
G1 F1200 X13.371 Y28.604 E157.31679
G1 X14.083 Y28.464 E157.34093
G1 X15 Y28.4 E157.3715
G1 X205 Y28.4 E163.69093
G1 X205.725 Y28.44 E163.71508
G1 X206.442 Y28.559 E163.73925
G1 X207.141 Y28.757 E163.76342
G1 X207.814 Y29.03 E163.78757
G1 X208.453 Y29.375 E163.81173
G1 X209.05 Y29.789 E163.83589
G1 X209.598 Y30.265 E163.86003
G1 X210.091 Y30.799 E163.8842
G1 X210.521 Y31.384 E163.90835
G1 X210.885 Y32.013 E163.93252
G1 X211.178 Y32.678 E163.95669
G1 X211.396 Y33.371 E163.98086
G1 X211.536 Y34.083 E164.00499
G1 X211.6 Y35 E164.03556
