; generated by PrusaSlicer 2.3.0-alpha3+win64 on 2020-11-18 at 14:14:32 UTC

; 

; external perimeters extrusion width = 0.45mm
; perimeters extrusion width = 0.45mm
; infill extrusion width = 0.45mm
; solid infill extrusion width = 0.45mm
; top infill extrusion width = 0.45mm
; first layer extrusion width = 0.42mm

M201 X500 Y500 Z100 E5000 ; sets maximum accelerations, mm/sec^2
M203 X500 Y500 Z10 E60 ; sets maximum feedrates, mm/sec
M204 P500 R1000 T500 ; sets acceleration (P, T) and retract acceleration (R), mm/sec^2
M205 X8.00 Y8.00 Z0.40 E5.00 ; sets the jerk limits, mm/sec
M205 S0 T0 ; sets the minimum extruding and travel feed rate, mm/sec
M107
;TYPE:Custom
G90 ; use absolute coordinates
M83 ; extruder relative mode
M104 S200 ; set extruder temp
M140 S60 ; set bed temp
M190 S60 ; wait for bed temp
M109 S200 ; wait for extruder temp
G28 ; home all
G1 Z2 F240
G1 X2 Y10 F3000
G1 Z0.28 F240
G92 E0.0
G1 Y190 E15.0 F1500.0 ; intro line
G1 X2.3 F5000
G1 Y10 E15.0 F1200.0 ; intro line
G92 E0.0
G21 ; set units to millimeters
G90 ; use absolute coordinates
M83 ; use relative distances for extrusion
; Filament gcode
;Z:0.2
;HEIGHT:0.2
;BEFORE_LAYER_CHANGE
G92 E0
;0.2


G1 E-5.00000 F3600.00000
G1 Z0.200 F9000.000
;AFTER_LAYER_CHANGE
;0.2
G1 X19.707 Y38.259
G1 E5.00000 F2400.00000
;TYPE:Skirt
G1 F1200.000
G1 X20.495 Y38.123 E0.02508
G1 X210.504 Y38.123 E5.95759
G1 X211.406 Y38.302 E0.02884
G1 X212.175 Y38.813 E0.02896
G1 X212.690 Y39.576 E0.02884
G1 X212.877 Y40.476 E0.02884
G1 X212.877 Y190.515 E4.70437
G1 X212.816 Y191.036 E0.01645
G1 X212.640 Y191.535 E0.01657
G1 X212.361 Y191.979 E0.01645
G1 X211.989 Y192.353 E0.01657
G1 X211.293 Y192.741 E0.02496
G1 X210.505 Y192.877 E0.02508
G1 X20.496 Y192.877 E5.95759
G1 X19.971 Y192.818 E0.01657
G1 X19.472 Y192.643 E0.01657
G1 X19.021 Y192.361 E0.01668
G1 X18.647 Y191.989 E0.01657
G1 X18.259 Y191.293 E0.02496
G1 X18.123 Y190.509 E0.02496
G1 X18.123 Y40.492 E4.70366
G1 X18.183 Y39.967 E0.01657
G1 X18.358 Y39.469 E0.01657
G1 X18.639 Y39.021 E0.01657
G1 X19.011 Y38.647 E0.01657
G1 X19.655 Y38.288 E0.02308
G1 E-3.50000 F3600.00000
G1 F7200.000
G1 X20.495 Y38.123 E-0.40695
G1 X22.638 Y38.123 E-1.01805
G1 E-0.07500 F3600.00000
G1 X77.303 Y186.803 F9000.000
G1 E5.00000 F2400.00000
G1 F1200.000
G1 X77.303 Y146.197 E1.27318
G1 X20.198 Y146.197 E1.79050
G1 X19.742 Y146.056 E0.01496
G1 X19.502 Y145.902 E0.00892
G1 X19.096 Y145.496 E0.01800
G1 X18.988 Y145.346 E0.00579
G1 X18.803 Y144.801 E0.01806
G1 X18.803 Y142.215 E0.08109
G1 X18.847 Y141.983 E0.00740
G1 X19.086 Y141.514 E0.01650
G1 X19.513 Y141.087 E0.01892
G1 X20.030 Y140.833 E0.01806
G1 X20.212 Y140.803 E0.00579
G1 X206.803 Y140.803 E5.85043
G1 X206.803 Y106.697 E1.06938
G1 X20.198 Y106.697 E5.85088
G1 X19.742 Y106.556 E0.01496
G1 X19.502 Y106.402 E0.00892
G1 X19.096 Y105.996 E0.01800
G1 X18.988 Y105.846 E0.00579
G1 X18.803 Y105.301 E0.01806
G1 X18.803 Y102.715 E0.08109
G1 X18.847 Y102.483 E0.00740
G1 X19.086 Y102.014 E0.01650
G1 X19.502 Y101.598 E0.01845
G1 X19.742 Y101.444 E0.00892
G1 X20.198 Y101.303 E0.01496
G1 X206.803 Y101.303 E5.85088
G1 X206.803 Y44.197 E1.79053
G1 X20.198 Y44.197 E5.85088
G1 X19.742 Y44.056 E0.01496
G1 X19.502 Y43.902 E0.00892
G1 X19.096 Y43.496 E0.01800
G1 X18.988 Y43.346 E0.00579
G1 X18.803 Y42.801 E0.01807
G1 X18.825 Y40.072 E0.08557
G1 X18.945 Y39.738 E0.01113
G1 X19.048 Y39.564 E0.00633
G1 X19.532 Y39.074 E0.02160
G1 X19.742 Y38.944 E0.00775
G1 X20.198 Y38.803 E0.01494
G1 X210.824 Y38.807 E5.97695
G1 X211.062 Y38.862 E0.00767
G1 X211.382 Y39.013 E0.01109
G1 X211.901 Y39.501 E0.02233
G1 X212.056 Y39.742 E0.00898
G1 X212.197 Y40.198 E0.01495
G1 X212.197 Y190.802 E4.72211
G1 X212.056 Y191.259 E0.01500
G1 X211.951 Y191.436 E0.00643
G1 X211.468 Y191.926 E0.02159
G1 X211.258 Y192.056 E0.00775
G1 X210.802 Y192.197 E0.01494
G1 X20.198 Y192.197 E5.97628
G1 X19.741 Y192.056 E0.01500
G1 X19.564 Y191.951 E0.00643
G1 X19.074 Y191.468 E0.02159
G1 X18.944 Y191.258 E0.00775
G1 X18.803 Y190.802 E0.01495
G1 X18.825 Y188.072 E0.08561
G1 X18.945 Y187.738 E0.01113
G1 X19.048 Y187.564 E0.00633
G1 X19.502 Y187.098 E0.02040
G1 X19.742 Y186.944 E0.00894
G1 X20.198 Y186.803 E0.01495
G1 X77.243 Y186.803 E1.78862
G1 X77.680 Y187.180 F9000.000
G1 F1200.000
G1 X77.680 Y145.820 E1.29683
G1 X20.229 Y145.820 E1.80133
G1 X19.885 Y145.707 E0.01136
G1 X19.756 Y145.622 E0.00484
G1 X19.375 Y145.242 E0.01686
G1 X19.312 Y145.152 E0.00345
G1 X19.180 Y144.769 E0.01270
G1 X19.180 Y142.229 E0.07963
G1 X19.199 Y142.121 E0.00345
G1 X19.376 Y141.757 E0.01270
G1 X19.757 Y141.376 E0.01688
G1 X20.121 Y141.199 E0.01270
G1 X20.229 Y141.180 E0.00345
G1 X207.180 Y141.180 E5.86171
G1 X207.180 Y106.320 E1.09302
G1 X20.229 Y106.320 E5.86171
G1 X19.885 Y106.207 E0.01136
G1 X19.756 Y106.122 E0.00484
G1 X19.375 Y105.742 E0.01686
G1 X19.312 Y105.652 E0.00345
G1 X19.180 Y105.269 E0.01270
G1 X19.180 Y102.729 E0.07963
G1 X19.199 Y102.621 E0.00345
G1 X19.376 Y102.257 E0.01270
G1 X19.756 Y101.878 E0.01682
G1 X19.885 Y101.793 E0.00484
G1 X20.229 Y101.680 E0.01136
G1 X207.180 Y101.680 E5.86171
G1 X207.180 Y43.820 E1.81417
G1 X20.229 Y43.820 E5.86171
G1 X19.885 Y43.707 E0.01136
G1 X19.756 Y43.622 E0.00484
G1 X19.375 Y43.242 E0.01686
G1 X19.312 Y43.152 E0.00345
G1 X19.180 Y42.770 E0.01268
G1 X19.191 Y40.168 E0.08157
G1 X19.293 Y39.885 E0.00943
G1 X19.356 Y39.783 E0.00377
G1 X19.783 Y39.356 E0.01893
G1 X19.883 Y39.294 E0.00369
G1 X20.229 Y39.180 E0.01144
G1 X210.802 Y39.184 E5.97527
G1 X210.919 Y39.211 E0.00377
G1 X211.192 Y39.340 E0.00947
G1 X211.623 Y39.757 E0.01880
G1 X211.707 Y39.885 E0.00479
G1 X211.820 Y40.229 E0.01136
G1 X211.820 Y190.771 E4.72012
G1 X211.706 Y191.117 E0.01144
G1 X211.644 Y191.217 E0.00369
G1 X211.217 Y191.644 E0.01893
G1 X211.117 Y191.706 E0.00369
G1 X210.771 Y191.820 E0.01144
G1 X20.229 Y191.820 E5.97429
G1 X19.883 Y191.706 E0.01144
G1 X19.783 Y191.644 E0.00369
G1 X19.356 Y191.217 E0.01893
G1 X19.294 Y191.117 E0.00369
G1 X19.180 Y190.771 E0.01142
G1 X19.191 Y188.168 E0.08161
G1 X19.293 Y187.885 E0.00943
G1 X19.356 Y187.782 E0.00379
G1 X19.756 Y187.377 E0.01785
G1 X19.885 Y187.293 E0.00482
G1 X20.229 Y187.180 E0.01136
G1 X77.620 Y187.180 E1.79945
G1 X78.057 Y187.557 F9000.000
G1 F1200.000
G1 X78.057 Y145.443 E1.32047
G1 X20.264 Y145.443 E1.81206
G1 X20.010 Y145.343 E0.00856
G1 X19.657 Y144.990 E0.01566
G1 X19.557 Y144.736 E0.00856
G1 X19.557 Y142.250 E0.07793
G1 X19.667 Y142.000 E0.00856
G1 X20.000 Y141.667 E0.01477
G1 X20.250 Y141.557 E0.00856
G1 X207.557 Y141.557 E5.87288
G1 X207.557 Y105.943 E1.11667
G1 X20.264 Y105.943 E5.87244
G1 X20.010 Y105.843 E0.00856
G1 X19.657 Y105.490 E0.01566
G1 X19.557 Y105.236 E0.00856
G1 X19.557 Y102.750 E0.07793
G1 X19.667 Y102.500 E0.00856
G1 X20.010 Y102.157 E0.01522
G1 X20.264 Y102.057 E0.00856
G1 X207.557 Y102.057 E5.87244
G1 X207.557 Y43.443 E1.83782
G1 X20.264 Y43.443 E5.87244
G1 X20.010 Y43.343 E0.00856
G1 X19.657 Y42.990 E0.01566
G1 X19.557 Y42.736 E0.00856
G1 X19.557 Y40.264 E0.07748
G1 X19.657 Y40.010 E0.00856
G1 X20.010 Y39.657 E0.01566
G1 X20.264 Y39.557 E0.00856
G1 X210.750 Y39.557 E5.97253
G1 X211.000 Y39.667 E0.00856
G1 X211.343 Y40.010 E0.01522
G1 X211.443 Y40.264 E0.00856
G1 X211.443 Y190.736 E4.71792
G1 X211.343 Y190.990 E0.00856
G1 X210.990 Y191.343 E0.01566
G1 X210.736 Y191.443 E0.00856
G1 X20.264 Y191.443 E5.97209
G1 X20.010 Y191.343 E0.00856
G1 X19.657 Y190.990 E0.01566
G1 X19.557 Y190.736 E0.00856
G1 X19.557 Y188.264 E0.07748
G1 X19.657 Y188.010 E0.00856
G1 X20.010 Y187.657 E0.01566
G1 X20.264 Y187.557 E0.00856
G1 X77.997 Y187.557 E1.81017
G1 X78.434 Y187.934 F9000.000
G1 F1200.000
G1 X78.434 Y145.066 E1.34412
G1 X20.306 Y145.066 E1.82256
G1 X20.237 Y145.037 E0.00235
G1 X19.963 Y144.763 E0.01215
G1 X19.934 Y144.694 E0.00235
G1 X19.934 Y142.306 E0.07485
G1 X19.963 Y142.237 E0.00235
G1 X20.237 Y141.963 E0.01215
G1 X20.306 Y141.934 E0.00235
G1 X207.934 Y141.934 E5.88295
G1 X207.934 Y105.566 E1.14032
G1 X20.306 Y105.566 E5.88295
G1 X20.237 Y105.537 E0.00235
G1 X19.963 Y105.263 E0.01215
G1 X19.934 Y105.194 E0.00235
G1 X19.934 Y102.806 E0.07485
G1 X19.963 Y102.737 E0.00235
G1 X20.237 Y102.463 E0.01215
G1 X20.306 Y102.434 E0.00235
G1 X207.934 Y102.434 E5.88295
G1 X207.934 Y43.066 E1.86147
G1 X20.306 Y43.066 E5.88295
G1 X20.237 Y43.037 E0.00235
G1 X19.963 Y42.763 E0.01215
G1 X19.934 Y42.694 E0.00235
G1 X19.934 Y40.306 E0.07485
G1 X19.963 Y40.237 E0.00235
G1 X20.237 Y39.963 E0.01215
G1 X20.306 Y39.934 E0.00235
G1 X210.694 Y39.934 E5.96946
G1 X210.763 Y39.963 E0.00235
G1 X211.037 Y40.237 E0.01215
G1 X211.066 Y40.306 E0.00235
G1 X211.066 Y190.694 E4.71529
G1 X211.037 Y190.763 E0.00235
G1 X210.763 Y191.037 E0.01215
G1 X210.694 Y191.066 E0.00235
G1 X20.306 Y191.066 E5.96946
G1 X20.237 Y191.037 E0.00235
G1 X19.963 Y190.763 E0.01215
G1 X19.934 Y190.694 E0.00235
G1 X19.934 Y188.306 E0.07485
G1 X19.963 Y188.237 E0.00235
G1 X20.237 Y187.963 E0.01215
G1 X20.306 Y187.934 E0.00235
G1 X78.374 Y187.934 E1.82068
G1 X78.811 Y188.311 F9000.000
G1 F1200.000
G1 X78.811 Y144.689 E1.36777
G1 X20.422 Y144.689 E1.83076
G1 X20.311 Y144.578 E0.00490
G1 X20.311 Y142.422 E0.06761
G1 X20.422 Y142.311 E0.00490
G1 X208.311 Y142.311 E5.89115
G1 X208.311 Y105.189 E1.16396
G1 X20.422 Y105.189 E5.89115
G1 X20.311 Y105.078 E0.00490
G1 X20.311 Y102.922 E0.06761
G1 X20.422 Y102.811 E0.00490
G1 X208.311 Y102.811 E5.89115
G1 X208.311 Y42.689 E1.88511
G1 X20.422 Y42.689 E5.89115
G1 X20.311 Y42.578 E0.00490
G1 X20.311 Y40.422 E0.06761
G1 X20.422 Y40.311 E0.00490
G1 X210.578 Y40.311 E5.96221
G1 X210.689 Y40.422 E0.00490
G1 X210.689 Y190.578 E4.70804
G1 X210.578 Y190.689 E0.00490
G1 X20.422 Y190.689 E5.96221
G1 X20.311 Y190.578 E0.00490
G1 X20.311 Y188.422 E0.06761
G1 X20.422 Y188.311 E0.00490
G1 X78.751 Y188.311 E1.82888
G1 X79.210 Y188.710 F9000.000
;TYPE:External perimeter
G1 F1200.000
G1 X79.210 Y144.290 E1.39276
G1 X20.710 Y144.290 E1.83423
G1 X20.710 Y142.710 E0.04954
G1 X208.710 Y142.710 E5.89461
G1 X208.710 Y104.790 E1.18895
G1 X20.710 Y104.790 E5.89461
G1 X20.710 Y103.210 E0.04954
G1 X208.710 Y103.210 E5.89461
G1 X208.710 Y42.290 E1.91010
G1 X20.710 Y42.290 E5.89461
G1 X20.710 Y40.710 E0.04954
G1 X210.290 Y40.710 E5.94415
G1 X210.290 Y190.290 E4.68998
G1 X20.710 Y190.290 E5.94415
G1 X20.710 Y188.710 E0.04954
G1 X79.150 Y188.710 E1.83235
G1 X79.610 Y188.706 F9000.000
G1 X79.587 Y189.087
;TYPE:Perimeter
G1 F1200.000
G1 X79.587 Y143.913 E1.41640
G1 X21.087 Y143.913 E1.83423
G1 X21.087 Y143.087 E0.02589
G1 X209.087 Y143.087 E5.89461
G1 X209.087 Y104.413 E1.21260
G1 X21.087 Y104.413 E5.89461
G1 X21.087 Y103.587 E0.02589
G1 X209.087 Y103.587 E5.89461
G1 X209.087 Y41.913 E1.93375
G1 X21.087 Y41.913 E5.89461
G1 X21.087 Y41.087 E0.02589
G1 X209.913 Y41.087 E5.92050
G1 X209.913 Y189.913 E4.66633
G1 X21.087 Y189.913 E5.92050
G1 X21.087 Y189.087 E0.02589
G1 X79.527 Y189.087 E1.83235
G1 X80.790 Y188.710 F9000.000
;TYPE:External perimeter
G1 F1200.000
G1 X80.790 Y144.290 E1.39276
G1 X208.710 Y144.290 E4.01084
G1 X208.710 Y188.710 E1.39276
G1 X80.850 Y188.710 E4.00896
G1 X80.392 Y188.754 F9000.000
G1 E-3.50000 F3600.00000
G1 F7200.000
G1 X80.846 Y185.710 E-1.42500
G1 E-0.07500 F3600.00000
G1 X80.413 Y143.913 F9000.000
G1 E5.00000 F2400.00000
;TYPE:Perimeter
G1 F1200.000
G1 X209.087 Y143.913 E4.03449
G1 X209.087 Y189.087 E1.41640
G1 X80.413 Y189.087 E4.03449
G1 X80.413 Y143.973 E1.41452
G1 X80.300 Y144.606 F9000.000
;TYPE:Solid infill
G1 F1200.000
G1 X79.870 Y144.176 E0.01908
G1 X79.870 Y144.710 E0.01674
G1 X80.130 Y144.970 E0.01155
G1 X80.130 Y145.504 E0.01674
G1 X79.870 Y145.243 E0.01155
G1 X79.870 Y145.777 E0.01674
G1 X80.130 Y146.037 E0.01155
G1 X80.130 Y146.571 E0.01674
G1 X79.870 Y146.311 E0.01155
G1 X79.870 Y146.844 E0.01674
G1 X80.130 Y147.105 E0.01155
G1 X80.130 Y147.638 E0.01674
G1 X79.870 Y147.378 E0.01155
G1 X79.870 Y147.912 E0.01674
G1 X80.130 Y148.172 E0.01155
G1 X80.130 Y148.706 E0.01674
G1 X79.870 Y148.445 E0.01155
G1 X79.870 Y148.979 E0.01674
G1 X80.130 Y149.239 E0.01155
G1 X80.130 Y149.773 E0.01674
G1 X79.870 Y149.513 E0.01155
G1 X79.870 Y150.046 E0.01674
G1 X80.130 Y150.307 E0.01155
G1 X80.130 Y150.840 E0.01674
G1 X79.870 Y150.580 E0.01155
G1 X79.870 Y151.114 E0.01674
G1 X80.130 Y151.374 E0.01155
G1 X80.130 Y151.908 E0.01674
G1 X79.870 Y151.647 E0.01155
G1 X79.870 Y152.181 E0.01674
G1 X80.130 Y152.441 E0.01155
G1 X80.130 Y152.975 E0.01674
G1 X79.870 Y152.715 E0.01155
G1 X79.870 Y153.248 E0.01674
G1 X80.130 Y153.509 E0.01155
G1 X80.130 Y154.042 E0.01674
G1 X79.870 Y153.782 E0.01155
G1 X79.870 Y154.316 E0.01674
G1 X80.130 Y154.576 E0.01155
G1 X80.130 Y155.110 E0.01674
G1 X79.870 Y154.849 E0.01155
G1 X79.870 Y155.383 E0.01674
G1 X80.130 Y155.643 E0.01155
G1 X80.130 Y156.177 E0.01674
G1 X79.870 Y155.917 E0.01155
G1 X79.870 Y156.450 E0.01674
G1 X80.130 Y156.711 E0.01155
G1 X80.130 Y157.244 E0.01674
G1 X79.870 Y156.984 E0.01155
G1 X79.870 Y157.518 E0.01674
G1 X80.130 Y157.778 E0.01155
G1 X80.130 Y158.312 E0.01674
G1 X79.870 Y158.051 E0.01155
G1 X79.870 Y158.585 E0.01674
G1 X80.130 Y158.845 E0.01155
G1 X80.130 Y159.379 E0.01674
G1 X79.870 Y159.119 E0.01155
G1 X79.870 Y159.652 E0.01674
G1 X80.130 Y159.913 E0.01155
G1 X80.130 Y160.446 E0.01674
G1 X79.870 Y160.186 E0.01155
G1 X79.870 Y160.720 E0.01674
G1 X80.130 Y160.980 E0.01155
G1 X80.130 Y161.514 E0.01674
G1 X79.870 Y161.253 E0.01155
G1 X79.870 Y161.787 E0.01674
G1 X80.130 Y162.047 E0.01155
G1 X80.130 Y162.581 E0.01674
G1 X79.870 Y162.321 E0.01155
G1 X79.870 Y162.854 E0.01674
G1 X80.130 Y163.114 E0.01155
G1 X80.130 Y163.648 E0.01674
G1 X79.870 Y163.388 E0.01155
G1 X79.870 Y163.922 E0.01674
G1 X80.130 Y164.182 E0.01155
G1 X80.130 Y164.715 E0.01674
G1 X79.870 Y164.455 E0.01155
G1 X79.870 Y164.989 E0.01674
G1 X80.130 Y165.249 E0.01155
G1 X80.130 Y165.783 E0.01674
G1 X79.870 Y165.523 E0.01155
G1 X79.870 Y166.056 E0.01674
G1 X80.130 Y166.316 E0.01155
G1 X80.130 Y166.850 E0.01674
G1 X79.870 Y166.590 E0.01155
G1 X79.870 Y167.124 E0.01674
G1 X80.130 Y167.384 E0.01155
G1 X80.130 Y167.917 E0.01674
G1 X79.870 Y167.657 E0.01155
G1 X79.870 Y168.191 E0.01674
G1 X80.130 Y168.451 E0.01155
G1 X80.130 Y168.985 E0.01674
G1 X79.870 Y168.725 E0.01155
G1 X79.870 Y169.258 E0.01674
G1 X80.130 Y169.518 E0.01155
G1 X80.130 Y170.052 E0.01674
G1 X79.870 Y169.792 E0.01155
G1 X79.870 Y170.326 E0.01674
G1 X80.130 Y170.586 E0.01155
G1 X80.130 Y171.119 E0.01674
G1 X79.870 Y170.859 E0.01155
G1 X79.870 Y171.393 E0.01674
G1 X80.130 Y171.653 E0.01155
G1 X80.130 Y172.187 E0.01674
G1 X79.870 Y171.926 E0.01155
G1 X79.870 Y172.460 E0.01674
G1 X80.130 Y172.720 E0.01155
G1 X80.130 Y173.254 E0.01674
G1 X79.870 Y172.994 E0.01155
G1 X79.870 Y173.527 E0.01674
G1 X80.130 Y173.788 E0.01155
G1 X80.130 Y174.321 E0.01674
G1 X79.870 Y174.061 E0.01155
G1 X79.870 Y174.595 E0.01674
G1 X80.130 Y174.855 E0.01155
G1 X80.130 Y175.389 E0.01674
G1 X79.870 Y175.128 E0.01155
G1 X79.870 Y175.662 E0.01674
G1 X80.130 Y175.922 E0.01155
G1 X80.130 Y176.456 E0.01674
G1 X79.870 Y176.196 E0.01155
G1 X79.870 Y176.729 E0.01674
G1 X80.130 Y176.990 E0.01155
G1 X80.130 Y177.523 E0.01674
G1 X79.870 Y177.263 E0.01155
G1 X79.870 Y177.797 E0.01674
G1 X80.130 Y178.057 E0.01155
G1 X80.130 Y178.591 E0.01674
G1 X79.870 Y178.330 E0.01155
G1 X79.870 Y178.864 E0.01674
G1 X80.130 Y179.124 E0.01155
G1 X80.130 Y179.658 E0.01674
G1 X79.870 Y179.398 E0.01155
G1 X79.870 Y179.931 E0.01674
G1 X80.130 Y180.192 E0.01155
G1 X80.130 Y180.725 E0.01674
G1 X79.870 Y180.465 E0.01155
G1 X79.870 Y180.999 E0.01674
G1 X80.130 Y181.259 E0.01155
G1 X80.130 Y181.793 E0.01674
G1 X79.870 Y181.532 E0.01155
G1 X79.870 Y182.066 E0.01674
G1 X80.130 Y182.326 E0.01155
G1 X80.130 Y182.860 E0.01674
G1 X79.870 Y182.600 E0.01155
G1 X79.870 Y183.133 E0.01674
G1 X80.130 Y183.394 E0.01155
G1 X80.130 Y183.927 E0.01674
G1 X79.870 Y183.667 E0.01155
G1 X79.870 Y184.201 E0.01674
G1 X80.130 Y184.461 E0.01155
G1 X80.130 Y184.995 E0.01674
G1 X79.870 Y184.734 E0.01155
G1 X79.870 Y185.268 E0.01674
G1 X80.130 Y185.528 E0.01155
G1 X80.130 Y186.062 E0.01674
G1 X79.870 Y185.802 E0.01155
G1 X79.870 Y186.335 E0.01674
G1 X80.130 Y186.596 E0.01155
G1 X80.130 Y187.129 E0.01674
G1 X79.870 Y186.869 E0.01155
