;FLAVOR:Marlin
;TIME:16439
;Filament used: 12.2494m
;Layer height: 0.24
;MINX:7.2
;MINY:58.45
;MINZ:0.2
;MAXX:212.8
;MAXY:161.55
;MAXZ:39.8
;Generated with Cura_SteamEngine 4.8.0
M140 S60
M105
M190 S60
M104 S200
M105
M109 S200
M82 ;absolute extrusion mode
; Ender 3 Custom Start G-code
G92 E0 ; Reset Extruder
G28 ; Home all axes
G1 Z2.0 F3000 ; Move Z Axis up little to prevent scratching of Heat Bed
G1 X0.1 Y20 Z0.3 F5000.0 ; Move to start position
G1 X0.1 Y200.0 Z0.3 F1500.0 E15 ; Draw the first line
G1 X0.4 Y200.0 Z0.3 F5000.0 ; Move to side a little
G1 X0.4 Y20 Z0.3 F1500.0 E30 ; Draw the second line
G92 E0 ; Reset Extruder
G1 Z2.0 F3000 ; Move Z Axis up little to prevent scratching of Heat Bed
G1 X5 Y20 Z0.3 F5000.0 ; Move over to prevent blob squish
G92 E0
G92 E0
G1 F1500 E-6.5
;LAYER_COUNT:166
;LAYER:0
M107
G0 F6000 X13.738 Y58.573 Z0.2
;TYPE:SKIRT
G1 F1500 E0
G1 F1200 X14.522 Y58.473 E0.02629
G1 X15.117 Y58.45 E0.04609
G1 X204.883 Y58.45 E6.35773
G1 X205.672 Y58.49 E6.38401
G1 X206.452 Y58.609 E6.41025
G1 X207.217 Y58.807 E6.43654
G1 X207.957 Y59.081 E6.46278
G1 X208.666 Y59.429 E6.48905
G1 X209.337 Y59.847 E6.51534
G1 X209.961 Y60.33 E6.54159
G1 X210.398 Y60.735 E6.56141
G1 X210.515 Y60.852 E6.56691
G1 X211.045 Y61.438 E6.59319
G1 X211.512 Y62.074 E6.61943
G1 X211.913 Y62.754 E6.64569
G1 X212.243 Y63.472 E6.67197
G1 X212.498 Y64.219 E6.69822
G1 X212.677 Y64.988 E6.72449
G1 X212.777 Y65.772 E6.75077
G1 X212.8 Y66.367 E6.77058
G1 X212.8 Y153.633 E9.67306
G1 X212.76 Y154.422 E9.69933
G1 X212.641 Y155.202 E9.72558
G1 X212.443 Y155.967 E9.75186
G1 X212.169 Y156.707 E9.7781
G1 X211.821 Y157.416 E9.80437
G1 X211.403 Y158.087 E9.83067
G1 X210.92 Y158.711 E9.85691
G1 X210.515 Y159.148 E9.87673
G1 X210.398 Y159.265 E9.88223
G1 X209.812 Y159.795 E9.90851
G1 X209.176 Y160.262 E9.93475
G1 X208.496 Y160.663 E9.96101
G1 X207.778 Y160.993 E9.98729
G1 X207.031 Y161.248 E10.01355
G1 X206.262 Y161.427 E10.03981
G1 X205.478 Y161.527 E10.06609
G1 X204.883 Y161.55 E10.0859
G1 X15.117 Y161.55 E16.39754
G1 X14.328 Y161.51 E16.42382
G1 X13.548 Y161.391 E16.45006
G1 X12.783 Y161.193 E16.47634
G1 X12.043 Y160.919 E16.50259
G1 X11.334 Y160.571 E16.52886
G1 X10.663 Y160.153 E16.55515
G1 X10.039 Y159.67 E16.5814
G1 X9.602 Y159.265 E16.60121
G1 X9.485 Y159.148 E16.60672
G1 X8.955 Y158.562 E16.633
G1 X8.488 Y157.926 E16.65924
G1 X8.087 Y157.246 E16.6855
G1 X7.757 Y156.528 E16.71178
G1 X7.502 Y155.781 E16.73803
G1 X7.323 Y155.012 E16.76429
G1 X7.223 Y154.228 E16.79058
G1 X7.2 Y153.633 E16.81038
G1 X7.2 Y152.867 E16.83586
G1 X7.24 Y152.078 E16.86214
G1 X7.359 Y151.298 E16.88838
G1 X7.557 Y150.533 E16.91466
G1 X7.831 Y149.793 E16.94091
G1 X8.179 Y149.084 E16.96718
G1 X8.597 Y148.413 E16.99347
G1 X9.08 Y147.789 E17.01972
G1 X9.485 Y147.352 E17.03953
G1 X9.602 Y147.235 E17.04504
G1 X10.188 Y146.705 E17.07132
G1 X10.824 Y146.238 E17.09756
G1 X11.504 Y145.837 E17.12382
G1 X12.222 Y145.507 E17.1501
G1 X12.969 Y145.252 E17.17635
G1 X13.738 Y145.073 E17.20261
G1 X14.522 Y144.973 E17.2289
G1 X15.117 Y144.95 E17.2487
G1 X196.2 Y144.95 E23.27155
G1 X196.2 Y115.05 E24.26603
G1 X15.117 Y115.05 E30.28887
G1 X14.328 Y115.01 E30.31515
G1 X13.548 Y114.891 E30.34139
G1 X12.783 Y114.693 E30.36767
G1 X12.043 Y114.419 E30.39392
G1 X11.334 Y114.071 E30.42019
G1 X10.663 Y113.653 E30.44648
G1 X10.039 Y113.17 E30.47273
G1 X9.602 Y112.765 E30.49254
G1 X9.485 Y112.648 E30.49805
G1 X8.955 Y112.062 E30.52433
G1 X8.488 Y111.426 E30.55057
G1 X8.087 Y110.746 E30.57683
G1 X7.757 Y110.028 E30.60311
G1 X7.502 Y109.281 E30.62936
G1 X7.323 Y108.512 E30.65562
G1 X7.223 Y107.728 E30.68191
G1 X7.2 Y107.133 E30.70172
G1 X7.2 Y106.367 E30.72719
G1 X7.24 Y105.578 E30.75347
G1 X7.359 Y104.798 E30.77971
G1 X7.557 Y104.033 E30.80599
G1 X7.831 Y103.293 E30.83224
G1 X8.179 Y102.584 E30.85851
G1 X8.597 Y101.913 E30.8848
G1 X9.08 Y101.289 E30.91105
G1 X9.485 Y100.852 E30.93086
G1 X9.602 Y100.735 E30.93637
G1 X10.188 Y100.205 E30.96265
G1 X10.824 Y99.738 E30.98889
G1 X11.504 Y99.337 E31.01515
G1 X12.222 Y99.007 E31.04143
G1 X12.969 Y98.752 E31.06768
G1 X13.738 Y98.573 E31.09394
G1 X14.522 Y98.473 E31.12023
G1 X15.117 Y98.45 E31.14004
G1 X196.2 Y98.45 E37.16288
G1 X196.2 Y75.05 E37.94117
G1 X15.117 Y75.05 E43.96401
G1 X14.328 Y75.01 E43.99029
G1 X13.548 Y74.891 E44.01653
G1 X12.783 Y74.693 E44.04281
G1 X12.043 Y74.419 E44.06906
G1 X11.334 Y74.071 E44.09533
G1 X10.663 Y73.653 E44.12162
G1 X10.039 Y73.17 E44.14787
G1 X9.602 Y72.765 E44.16768
G1 X9.485 Y72.648 E44.17319
G1 X8.955 Y72.062 E44.19947
G1 X8.488 Y71.426 E44.22571
G1 X8.087 Y70.746 E44.25197
G1 X7.757 Y70.028 E44.27825
G1 X7.502 Y69.281 E44.3045
G1 X7.323 Y68.512 E44.33076
G1 X7.223 Y67.728 E44.35705
G1 X7.2 Y67.133 E44.37686
G1 X7.2 Y66.367 E44.40233
G1 X7.24 Y65.578 E44.42861
G1 X7.359 Y64.798 E44.45485
G1 X7.557 Y64.033 E44.48113
G1 X7.831 Y63.293 E44.50738
G1 X8.179 Y62.584 E44.53365
G1 X8.597 Y61.913 E44.55994
G1 X9.08 Y61.289 E44.58619
G1 X9.485 Y60.852 E44.606
G1 X9.602 Y60.735 E44.61151
G1 X10.188 Y60.205 E44.63779
G1 X10.824 Y59.738 E44.66403
G1 X11.504 Y59.337 E44.69029
G1 X12.222 Y59.007 E44.71657
G1 X12.969 Y58.752 E44.74282
G1 X13.738 Y58.573 E44.76908
G0 F6000 X13.927 Y58.946
G1 F1200 X14.692 Y58.862 E44.79468
G1 X15.117 Y58.85 E44.80882
G1 X204.883 Y58.85 E51.12046
G1 X205.651 Y58.89 E51.14604
G1 X206.411 Y59.009 E51.17163
G1 X207.154 Y59.207 E51.1972
G1 X207.873 Y59.481 E51.2228
G1 X208.559 Y59.828 E51.24836
G1 X209.206 Y60.244 E51.27395
G1 X209.806 Y60.725 E51.29953
G1 X210.116 Y61.017 E51.31369
G1 X210.233 Y61.134 E51.31919
G1 X210.747 Y61.706 E51.34477
G1 X211.2 Y62.328 E51.37036
G1 X211.586 Y62.993 E51.39594
G1 X211.901 Y63.695 E51.42153
G1 X212.141 Y64.426 E51.44712
G1 X212.304 Y65.177 E51.47268
G1 X212.388 Y65.942 E51.49828
G1 X212.4 Y66.367 E51.51242
G1 X212.4 Y153.633 E54.4149
G1 X212.36 Y154.401 E54.44047
G1 X212.241 Y155.161 E54.46606
G1 X212.043 Y155.904 E54.49163
G1 X211.769 Y156.623 E54.51723
G1 X211.422 Y157.309 E54.5428
G1 X211.006 Y157.956 E54.56838
G1 X210.525 Y158.556 E54.59396
G1 X210.233 Y158.866 E54.60812
G1 X210.116 Y158.983 E54.61362
G1 X209.544 Y159.497 E54.6392
G1 X208.922 Y159.95 E54.66479
G1 X208.257 Y160.336 E54.69037
G1 X207.555 Y160.651 E54.71596
G1 X206.824 Y160.891 E54.74155
G1 X206.073 Y161.054 E54.76711
G1 X205.308 Y161.138 E54.79271
G1 X204.883 Y161.15 E54.80685
G1 X15.117 Y161.15 E61.11849
G1 X14.349 Y161.11 E61.14407
G1 X13.589 Y160.991 E61.16965
G1 X12.846 Y160.793 E61.19523
G1 X12.127 Y160.519 E61.22082
G1 X11.441 Y160.172 E61.24639
G1 X10.794 Y159.756 E61.27197
G1 X10.194 Y159.275 E61.29755
G1 X9.884 Y158.983 E61.31172
G1 X9.767 Y158.866 E61.31722
G1 X9.253 Y158.294 E61.3428
G1 X8.8 Y157.672 E61.36839
G1 X8.414 Y157.007 E61.39396
G1 X8.099 Y156.305 E61.41955
G1 X7.859 Y155.574 E61.44514
G1 X7.696 Y154.823 E61.4707
G1 X7.612 Y154.058 E61.4963
G1 X7.6 Y153.633 E61.51044
G1 X7.6 Y152.867 E61.53592
G1 X7.64 Y152.099 E61.5615
G1 X7.759 Y151.339 E61.58708
G1 X7.957 Y150.596 E61.61266
G1 X8.231 Y149.877 E61.63825
G1 X8.578 Y149.191 E61.66382
G1 X8.994 Y148.544 E61.6894
G1 X9.475 Y147.944 E61.71498
G1 X9.767 Y147.634 E61.72915
G1 X9.884 Y147.517 E61.73465
G1 X10.456 Y147.003 E61.76023
G1 X11.078 Y146.55 E61.78582
G1 X11.743 Y146.164 E61.81139
G1 X12.445 Y145.849 E61.83698
G1 X13.176 Y145.609 E61.86257
G1 X13.927 Y145.446 E61.88813
G1 X14.692 Y145.362 E61.91373
G1 X15.117 Y145.35 E61.92787
G1 X196.6 Y145.35 E67.96402
G1 X196.6 Y114.65 E68.98511
G1 X15.117 Y114.65 E75.02126
G1 X14.349 Y114.61 E75.04684
G1 X13.589 Y114.491 E75.07242
G1 X12.846 Y114.293 E75.098
G1 X12.127 Y114.019 E75.12359
G1 X11.441 Y113.672 E75.14916
G1 X10.794 Y113.256 E75.17474
G1 X10.194 Y112.775 E75.20032
G1 X9.884 Y112.483 E75.21448
G1 X9.767 Y112.366 E75.21998
G1 X9.253 Y111.794 E75.24556
G1 X8.8 Y111.172 E75.27116
G1 X8.414 Y110.507 E75.29673
G1 X8.099 Y109.805 E75.32232
G1 X7.859 Y109.074 E75.34791
G1 X7.696 Y108.323 E75.37347
G1 X7.612 Y107.558 E75.39907
G1 X7.6 Y107.133 E75.41321
G1 X7.6 Y106.367 E75.43869
G1 X7.64 Y105.599 E75.46426
G1 X7.759 Y104.839 E75.48985
G1 X7.957 Y104.096 E75.51542
G1 X8.231 Y103.377 E75.54102
G1 X8.578 Y102.691 E75.56659
G1 X8.994 Y102.044 E75.59217
G1 X9.475 Y101.444 E75.61775
G1 X9.767 Y101.134 E75.63191
G1 X9.884 Y101.017 E75.63741
G1 X10.456 Y100.503 E75.66299
G1 X11.078 Y100.05 E75.68858
G1 X11.743 Y99.664 E75.71416
G1 X12.445 Y99.349 E75.73975
G1 X13.176 Y99.109 E75.76534
G1 X13.927 Y98.946 E75.7909
G1 X14.692 Y98.862 E75.8165
G1 X15.117 Y98.85 E75.83064
G1 X196.6 Y98.85 E81.86679
G1 X196.6 Y74.65 E82.67168
G1 X15.117 Y74.65 E88.70783
G1 X14.349 Y74.61 E88.73341
G1 X13.589 Y74.491 E88.759
G1 X12.846 Y74.293 E88.78457
G1 X12.127 Y74.019 E88.81016
G1 X11.441 Y73.672 E88.83573
G1 X10.794 Y73.256 E88.86132
G1 X10.194 Y72.775 E88.88689
G1 X9.884 Y72.483 E88.90106
G1 X9.767 Y72.366 E88.90656
G1 X9.253 Y71.794 E88.93214
G1 X8.8 Y71.172 E88.95773
G1 X8.414 Y70.507 E88.9833
G1 X8.099 Y69.805 E89.0089
G1 X7.859 Y69.074 E89.03449
G1 X7.696 Y68.323 E89.06005
G1 X7.612 Y67.558 E89.08564
G1 X7.6 Y67.133 E89.09978
G1 X7.6 Y66.367 E89.12526
G1 X7.64 Y65.599 E89.15084
G1 X7.759 Y64.839 E89.17643
G1 X7.957 Y64.096 E89.202
G1 X8.231 Y63.377 E89.22759
G1 X8.578 Y62.691 E89.25316
G1 X8.994 Y62.044 E89.27874
G1 X9.475 Y61.444 E89.30432
G1 X9.767 Y61.134 E89.31849
G1 X9.884 Y61.017 E89.32399
G1 X10.456 Y60.503 E89.34957
G1 X11.078 Y60.05 E89.37516
G1 X11.743 Y59.664 E89.40073
G1 X12.445 Y59.349 E89.42633
G1 X13.176 Y59.109 E89.45192
G1 X13.927 Y58.946 E89.47748
G0 F6000 X14.113 Y59.322
G1 F1200 X15.117 Y59.25 E89.51095
G1 X204.883 Y59.25 E95.8226
G1 X205.63 Y59.29 E95.84748
G1 X206.368 Y59.409 E95.87234
G1 X207.09 Y59.607 E95.89724
G1 X207.786 Y59.88 E95.92211
G1 X208.449 Y60.227 E95.947
G1 X209.072 Y60.642 E95.97189
G1 X209.833 Y61.3 E96.00535
G1 X209.95 Y61.417 E96.01086
G1 X210.45 Y61.974 E96.03575
G1 X210.887 Y62.58 E96.0606
G1 X211.258 Y63.23 E96.0855
G1 X211.557 Y63.916 E96.11038
G1 X211.781 Y64.63 E96.13527
G1 X211.928 Y65.363 E96.16014
G1 X212 Y66.367 E96.19362
G1 X212 Y153.633 E99.0961
G1 X211.96 Y154.38 E99.12098
G1 X211.841 Y155.118 E99.14584
G1 X211.643 Y155.84 E99.17074
G1 X211.37 Y156.536 E99.19561
G1 X211.023 Y157.199 E99.2205
G1 X210.608 Y157.822 E99.24539
G1 X209.95 Y158.583 E99.27885
G1 X209.833 Y158.7 E99.28436
G1 X209.276 Y159.2 E99.30925
G1 X208.67 Y159.637 E99.3341
G1 X208.02 Y160.008 E99.359
G1 X207.334 Y160.307 E99.38388
G1 X206.62 Y160.531 E99.40877
G1 X205.887 Y160.678 E99.43364
G1 X204.883 Y160.75 E99.46712
G1 X15.117 Y160.75 E105.77876
G1 X14.37 Y160.71 E105.80364
G1 X13.632 Y160.591 E105.8285
G1 X12.91 Y160.393 E105.85341
G1 X12.214 Y160.12 E105.87827
G1 X11.551 Y159.773 E105.90316
G1 X10.928 Y159.358 E105.92806
G1 X10.167 Y158.7 E105.96152
G1 X10.05 Y158.583 E105.96702
G1 X9.55 Y158.026 E105.99192
G1 X9.113 Y157.42 E106.01677
G1 X8.742 Y156.77 E106.04166
G1 X8.443 Y156.084 E106.06655
G1 X8.219 Y155.37 E106.09144
G1 X8.072 Y154.637 E106.1163
G1 X8 Y153.633 E106.14978
G1 X8 Y152.867 E106.17526
G1 X8.04 Y152.12 E106.20014
G1 X8.159 Y151.382 E106.225
G1 X8.357 Y150.66 E106.2499
G1 X8.63 Y149.964 E106.27477
G1 X8.977 Y149.301 E106.29966
G1 X9.392 Y148.678 E106.32456
G1 X10.05 Y147.917 E106.35802
G1 X10.167 Y147.8 E106.36352
G1 X10.724 Y147.3 E106.38842
G1 X11.33 Y146.863 E106.41326
G1 X11.98 Y146.492 E106.43816
G1 X12.666 Y146.193 E106.46305
G1 X13.38 Y145.969 E106.48794
G1 X14.113 Y145.822 E106.5128
G1 X15.117 Y145.75 E106.54628
G1 X197 Y145.75 E112.59573
G1 X197 Y114.25 E113.64343
G1 X15.117 Y114.25 E119.69288
G1 X14.37 Y114.21 E119.71776
G1 X13.632 Y114.091 E119.74262
G1 X12.91 Y113.893 E119.76753
G1 X12.214 Y113.62 E119.79239
G1 X11.551 Y113.273 E119.81728
G1 X10.928 Y112.858 E119.84218
G1 X10.167 Y112.2 E119.87564
G1 X10.05 Y112.083 E119.88114
G1 X9.55 Y111.526 E119.90604
G1 X9.113 Y110.92 E119.93089
G1 X8.742 Y110.27 E119.95578
G1 X8.443 Y109.584 E119.98067
G1 X8.219 Y108.87 E120.00556
G1 X8.072 Y108.137 E120.03042
G1 X8 Y107.133 E120.0639
G1 X8 Y106.367 E120.08938
G1 X8.04 Y105.62 E120.11426
G1 X8.159 Y104.882 E120.13912
G1 X8.357 Y104.16 E120.16402
G1 X8.63 Y103.464 E120.18889
G1 X8.977 Y102.801 E120.21378
G1 X9.392 Y102.178 E120.23868
G1 X10.05 Y101.417 E120.27214
G1 X10.167 Y101.3 E120.27764
G1 X10.724 Y100.8 E120.30254
G1 X11.33 Y100.363 E120.32738
G1 X11.98 Y99.992 E120.35228
G1 X12.666 Y99.693 E120.37717
G1 X13.38 Y99.469 E120.40206
G1 X14.113 Y99.322 E120.42692
G1 X15.117 Y99.25 E120.4604
G1 X197 Y99.25 E126.50985
G1 X197 Y74.25 E127.34136
G1 X15.117 Y74.25 E133.39081
G1 X14.37 Y74.21 E133.41569
G1 X13.632 Y74.091 E133.44055
G1 X12.91 Y73.893 E133.46545
G1 X12.214 Y73.62 E133.49032
G1 X11.551 Y73.273 E133.51521
G1 X10.928 Y72.858 E133.54011
G1 X10.167 Y72.2 E133.57357
G1 X10.05 Y72.083 E133.57907
G1 X9.55 Y71.526 E133.60397
G1 X9.113 Y70.92 E133.62882
G1 X8.742 Y70.27 E133.65371
G1 X8.443 Y69.584 E133.6786
G1 X8.219 Y68.87 E133.70349
G1 X8.072 Y68.137 E133.72835
G1 X8 Y67.133 E133.76183
G1 X8 Y66.367 E133.78731
G1 X8.04 Y65.62 E133.81219
G1 X8.159 Y64.882 E133.83705
G1 X8.357 Y64.16 E133.86195
G1 X8.63 Y63.464 E133.88682
G1 X8.977 Y62.801 E133.91171
G1 X9.392 Y62.178 E133.93661
G1 X10.05 Y61.417 E133.97007
G1 X10.167 Y61.3 E133.97557
G1 X10.724 Y60.8 E134.00046
G1 X11.33 Y60.363 E134.02531
G1 X11.98 Y59.992 E134.05021
G1 X12.666 Y59.693 E134.0751
G1 X13.38 Y59.469 E134.09999
G1 X14.113 Y59.322 E134.12485
G0 F6000 X14.296 Y59.701
G1 F1200 X15.117 Y59.65 E134.15221
G1 X204.883 Y59.65 E140.46385
G1 X205.608 Y59.69 E140.488
G1 X206.325 Y59.809 E140.51218
G1 X207.024 Y60.007 E140.53634
G1 X207.697 Y60.28 E140.5605
G1 X208.336 Y60.625 E140.58465
G1 X208.933 Y61.039 E140.60881
G1 X209.55 Y61.583 E140.63617
G1 X209.667 Y61.7 E140.64167
G1 X210.151 Y62.241 E140.66582
G1 X210.574 Y62.832 E140.68999
G1 X210.928 Y63.466 E140.71414
G1 X211.211 Y64.135 E140.7383
G1 X211.419 Y64.831 E140.76246
G1 X211.549 Y65.546 E140.78663
G1 X211.6 Y66.367 E140.81399
G1 X211.6 Y153.633 E143.71647
G1 X211.56 Y154.358 E143.74062
G1 X211.441 Y155.075 E143.7648
G1 X211.243 Y155.774 E143.78896
G1 X210.97 Y156.447 E143.81311
G1 X210.625 Y157.086 E143.83727
G1 X210.211 Y157.683 E143.86143
G1 X209.667 Y158.3 E143.88879
G1 X209.55 Y158.417 E143.89429
G1 X209.009 Y158.901 E143.91844
G1 X208.418 Y159.324 E143.94261
G1 X207.784 Y159.678 E143.96676
G1 X207.115 Y159.961 E143.99092
G1 X206.419 Y160.169 E144.01508
G1 X205.704 Y160.299 E144.03925
G1 X204.883 Y160.35 E144.06661
G1 X15.117 Y160.35 E150.37826
G1 X14.392 Y160.31 E150.40241
G1 X13.675 Y160.191 E150.42658
G1 X12.976 Y159.993 E150.45074
G1 X12.303 Y159.72 E150.4749
G1 X11.664 Y159.375 E150.49905
G1 X11.067 Y158.961 E150.52321
G1 X10.45 Y158.417 E150.55057
G1 X10.333 Y158.3 E150.55608
G1 X9.849 Y157.759 E150.58022
G1 X9.426 Y157.168 E150.60439
G1 X9.072 Y156.534 E150.62854
G1 X8.789 Y155.865 E150.6527
G1 X8.581 Y155.169 E150.67687
G1 X8.451 Y154.454 E150.70104
G1 X8.4 Y153.633 E150.7284
G1 X8.4 Y152.867 E150.75387
G1 X8.44 Y152.142 E150.77802
G1 X8.559 Y151.425 E150.8022
G1 X8.757 Y150.726 E150.82636
G1 X9.03 Y150.053 E150.85052
G1 X9.375 Y149.414 E150.87467
G1 X9.789 Y148.817 E150.89883
G1 X10.333 Y148.2 E150.92619
G1 X10.45 Y148.083 E150.93169
G1 X10.991 Y147.599 E150.95584
G1 X11.582 Y147.176 E150.98001
G1 X12.216 Y146.822 E151.00416
G1 X12.885 Y146.539 E151.02832
G1 X13.581 Y146.331 E151.05248
G1 X14.296 Y146.201 E151.07665
G1 X15.117 Y146.15 E151.10401
G1 X197.4 Y146.15 E157.16677
G1 X197.4 Y113.85 E158.24107
G1 X15.117 Y113.85 E164.30383
G1 X14.392 Y113.81 E164.32798
G1 X13.675 Y113.691 E164.35215
G1 X12.976 Y113.493 E164.37632
G1 X12.303 Y113.22 E164.40047
G1 X11.664 Y112.875 E164.42463
G1 X11.067 Y112.461 E164.44879
G1 X10.45 Y111.917 E164.47615
G1 X10.333 Y111.8 E164.48165
G1 X9.849 Y111.259 E164.5058
G1 X9.426 Y110.668 E164.52997
G1 X9.072 Y110.034 E164.55412
G1 X8.789 Y109.365 E164.57828
G1 X8.581 Y108.669 E164.60244
G1 X8.451 Y107.954 E164.62661
G1 X8.4 Y107.133 E164.65397
G1 X8.4 Y106.367 E164.67945
G1 X8.44 Y105.642 E164.7036
G1 X8.559 Y104.925 E164.72777
G1 X8.757 Y104.226 E164.75194
G1 X9.03 Y103.553 E164.77609
