; generated by PrusaSlicer 2.3.0-alpha3+win64 on 2020-11-18 at 06:58:44 UTC

; 

; external perimeters extrusion width = 0.45mm
; perimeters extrusion width = 0.45mm
; infill extrusion width = 0.45mm
; solid infill extrusion width = 0.45mm
; top infill extrusion width = 0.45mm
; first layer extrusion width = 0.42mm

M201 X500 Y500 Z100 E5000 ; sets maximum accelerations, mm/sec^2
M203 X500 Y500 Z10 E60 ; sets maximum feedrates, mm/sec
M204 P500 R1000 T500 ; sets acceleration (P, T) and retract acceleration (R), mm/sec^2
M205 X8.00 Y8.00 Z0.40 E5.00 ; sets the jerk limits, mm/sec
M205 S0 T0 ; sets the minimum extruding and travel feed rate, mm/sec
M107
;TYPE:Custom
G90 ; use absolute coordinates
M83 ; extruder relative mode
M104 S205 ; set extruder temp
M140 S60 ; set bed temp
M190 S60 ; wait for bed temp
M109 S205 ; wait for extruder temp
G28 ; home all
G1 Z2 F240
G1 X2 Y10 F3000
G1 Z0.28 F240
G92 E0.0
G1 Y190 E15.0 F1500.0 ; intro line
G1 X2.3 F5000
G1 Y10 E15.0 F1200.0 ; intro line
G92 E0.0
G21 ; set units to millimeters
G90 ; use absolute coordinates
M83 ; use relative distances for extrusion
; Filament gcode
;Z:0.2
;HEIGHT:0.2
;BEFORE_LAYER_CHANGE
G92 E0
;0.2


G1 E-5.00000 F3600.00000
G1 Z0.200 F9000.000
;AFTER_LAYER_CHANGE
;0.2
G1 X18.933 Y69.963
G1 E5.00000 F2400.00000
;TYPE:Skirt
G1 F1200.000
G1 X19.485 Y69.600 E0.02071
G1 X19.978 Y69.431 E0.01633
G1 X20.495 Y69.373 E0.01633
G1 X210.504 Y69.373 E5.95759
G1 X211.406 Y69.552 E0.02884
G1 X212.175 Y70.063 E0.02896
G1 X212.690 Y70.826 E0.02884
G1 X212.877 Y71.726 E0.02884
G1 X212.877 Y159.284 E2.74533
G1 X212.776 Y159.937 E0.02071
G1 X212.499 Y160.537 E0.02071
G1 X212.067 Y161.037 E0.02071
G1 X211.515 Y161.400 E0.02071
G1 X211.022 Y161.569 E0.01633
G1 X210.505 Y161.627 E0.01633
G1 X20.485 Y161.627 E5.95795
G1 X19.824 Y161.529 E0.02095
G1 X19.220 Y161.253 E0.02083
G1 X18.715 Y160.820 E0.02083
G1 X18.350 Y160.265 E0.02083
G1 X18.181 Y159.772 E0.01633
G1 X18.123 Y159.255 E0.01633
G1 X18.123 Y71.720 E2.74461
G1 X18.223 Y71.067 E0.02071
G1 X18.499 Y70.466 E0.02071
G1 X18.894 Y70.008 E0.01895
G1 E-3.50000 F3600.00000
G1 F7200.000
G1 X19.485 Y69.600 E-0.34128
G1 X19.978 Y69.431 E-0.24737
G1 X20.495 Y69.373 E-0.24737
G1 X21.735 Y69.373 E-0.58897
G1 E-0.07500 F3600.00000
G1 X17.935 Y76.678 F9000.000
G1 E5.00000 F2400.00000
G1 F1200.000
G1 X17.489 Y76.405 E0.01637
G1 X16.885 Y75.801 E0.02678
G1 X16.429 Y75.210 E0.02342
G1 X15.806 Y73.417 E0.05950
G1 X15.787 Y71.309 E0.06610
G1 X16.097 Y69.979 E0.04283
G1 X16.799 Y68.786 E0.04341
G1 X17.502 Y68.086 E0.03110
G1 X18.303 Y67.538 E0.03043
G1 X19.975 Y67.037 E0.05474
G1 X210.986 Y67.040 E5.98902
G1 X211.935 Y67.224 E0.03029
G1 X212.843 Y67.615 E0.03101
G1 X214.062 Y68.638 E0.04990
G1 X214.853 Y69.856 E0.04551
G1 X215.213 Y71.239 E0.04481
G1 X215.213 Y159.760 E2.77552
G1 X214.915 Y160.983 E0.03947
G1 X214.506 Y161.799 E0.02863
G1 X213.580 Y162.840 E0.04370
G1 X212.702 Y163.459 E0.03368
G1 X211.024 Y163.963 E0.05493
G1 X19.990 Y163.963 E5.98973
G1 X18.767 Y163.665 E0.03947
G1 X17.951 Y163.256 E0.02863
G1 X16.910 Y162.330 E0.04370
G1 X16.291 Y161.452 E0.03368
G1 X15.787 Y159.774 E0.05493
G1 X15.787 Y157.794 E0.06209
G1 X16.133 Y156.389 E0.04539
G1 X16.789 Y155.301 E0.03981
G1 X17.718 Y154.416 E0.04024
G1 X17.934 Y154.295 E0.00778
G1 X18.311 Y154.082 F9000.000
G1 F1200.000
G1 X18.732 Y153.845 E0.01514
G1 X19.990 Y153.537 E0.04061
G1 X204.787 Y153.537 E5.79416
G1 X204.787 Y117.463 E1.13104
G1 X19.990 Y117.463 E5.79416
G1 X18.673 Y117.132 E0.04257
G1 X18.312 Y116.910 E0.01331
G1 X17.934 Y116.678 F9000.000
G1 F1200.000
G1 X17.489 Y116.405 E0.01637
G1 X16.885 Y115.801 E0.02678
G1 X16.429 Y115.210 E0.02341
G1 X15.785 Y113.283 E0.06373
G1 X15.827 Y110.959 E0.07285
G1 X16.084 Y110.006 E0.03096
G1 X16.565 Y109.100 E0.03216
G1 X17.449 Y108.133 E0.04107
G1 X17.934 Y107.796 E0.01854
G1 X18.312 Y107.534 F9000.000
G1 F1200.000
G1 X19.979 Y107.037 E0.05455
G1 X204.787 Y107.037 E5.79452
G1 X204.787 Y77.463 E0.92724
G1 X19.990 Y77.463 E5.79416
G1 X18.673 Y77.132 E0.04257
G1 X18.312 Y76.910 E0.01331
G1 X18.312 Y76.475 F9000.000
G1 F1200.000
G1 X18.795 Y76.774 E0.01782
G1 X20.014 Y77.086 E0.03946
G1 X205.164 Y77.086 E5.80523
G1 X205.164 Y107.414 E0.95089
G1 X20.006 Y107.414 E5.80549
G1 X18.502 Y107.860 E0.04918
G1 X18.312 Y107.991 E0.00726
G1 X17.934 Y108.251 F9000.000
G1 F1200.000
G1 X17.711 Y108.404 E0.00850
G1 X16.886 Y109.300 E0.03820
G1 X16.442 Y110.125 E0.02937
G1 X16.198 Y111.035 E0.02953
G1 X16.163 Y113.256 E0.06967
G1 X16.748 Y115.006 E0.05783
G1 X17.161 Y115.544 E0.02127
G1 X17.741 Y116.123 E0.02571
G1 X17.934 Y116.243 E0.00714
G1 X18.312 Y116.475 F9000.000
G1 F1200.000
G1 X18.795 Y116.774 E0.01782
G1 X20.014 Y117.086 E0.03946
G1 X205.164 Y117.086 E5.80523
G1 X205.164 Y153.914 E1.15469
G1 X20.014 Y153.914 E5.80525
G1 X18.849 Y154.204 E0.03762
G1 X18.311 Y154.512 E0.01942
G1 X17.934 Y154.727 F9000.000
G1 F1200.000
G1 X17.098 Y155.518 E0.03608
G1 X16.471 Y156.559 E0.03811
G1 X16.164 Y157.816 E0.04060
G1 X16.164 Y159.747 E0.06052
G1 X16.617 Y161.261 E0.04957
G1 X17.178 Y162.064 E0.03072
G1 X18.144 Y162.932 E0.04070
G1 X18.880 Y163.305 E0.02586
G1 X20.014 Y163.586 E0.03664
G1 X210.997 Y163.586 E5.98814
G1 X212.511 Y163.133 E0.04957
G1 X213.314 Y162.572 E0.03072
G1 X214.182 Y161.606 E0.04070
G1 X214.555 Y160.870 E0.02586
G1 X214.836 Y159.736 E0.03664
G1 X214.836 Y71.263 E2.77400
G1 X214.496 Y69.982 E0.04157
G1 X213.797 Y68.908 E0.04018
G1 X212.666 Y67.949 E0.04647
G1 X211.841 Y67.590 E0.02823
G1 X210.967 Y67.417 E0.02792
G1 X20.002 Y67.414 E5.98757
G1 X18.492 Y67.865 E0.04944
G1 X17.730 Y68.387 E0.02895
G1 X17.083 Y69.034 E0.02869
G1 X16.437 Y70.144 E0.04025
G1 X16.164 Y71.330 E0.03816
G1 X16.173 Y73.325 E0.06258
G1 X16.747 Y75.005 E0.05566
G1 X17.161 Y75.544 E0.02128
G1 X17.741 Y76.123 E0.02571
G1 X17.935 Y76.243 E0.00714
G1 X18.312 Y76.036 F9000.000
G1 F1200.000
G1 X18.967 Y76.437 E0.02409
G1 X20.038 Y76.709 E0.03463
G1 X205.541 Y76.709 E5.81632
G1 X205.541 Y107.791 E0.97453
G1 X20.033 Y107.791 E5.81646
G1 X18.690 Y108.188 E0.04392
G1 X18.312 Y108.446 E0.01436
G1 X17.934 Y108.718 F9000.000
G1 F1200.000
G1 X17.206 Y109.501 E0.03352
G1 X16.785 Y110.284 E0.02788
G1 X16.568 Y111.108 E0.02671
G1 X16.540 Y113.229 E0.06653
G1 X17.066 Y114.802 E0.05198
G1 X17.437 Y115.286 E0.01912
G1 X17.934 Y115.784 E0.02208
G1 X18.312 Y116.036 F9000.000
G1 F1200.000
G1 X18.967 Y116.437 E0.02409
G1 X20.038 Y116.709 E0.03463
G1 X205.541 Y116.709 E5.81632
G1 X205.541 Y154.291 E1.17834
G1 X20.038 Y154.291 E5.81632
G1 X18.969 Y154.563 E0.03458
G1 X18.311 Y154.944 E0.02382
G1 X17.934 Y155.239 F9000.000
G1 F1200.000
G1 X17.378 Y155.772 E0.02415
G1 X16.809 Y156.727 E0.03485
G1 X16.541 Y157.839 E0.03587
G1 X16.541 Y159.719 E0.05897
G1 X16.944 Y161.072 E0.04425
G1 X17.448 Y161.800 E0.02777
G1 X18.339 Y162.608 E0.03772
G1 X18.994 Y162.945 E0.02308
G1 X20.038 Y163.209 E0.03376
G1 X210.969 Y163.209 E5.98653
G1 X212.322 Y162.806 E0.04425
G1 X213.050 Y162.302 E0.02777
G1 X213.858 Y161.411 E0.03772
G1 X214.195 Y160.756 E0.02308
G1 X214.459 Y159.712 E0.03376
G1 X214.459 Y71.288 E2.77250
G1 X214.163 Y70.160 E0.03655
G1 X213.530 Y69.176 E0.03669
G1 X212.488 Y68.283 E0.04302
G1 X211.746 Y67.955 E0.02545
G1 X210.948 Y67.794 E0.02550
G1 X20.030 Y67.791 E5.98612
G1 X18.679 Y68.194 E0.04418
G1 X17.984 Y68.667 E0.02638
G1 X17.367 Y69.283 E0.02733
G1 X16.778 Y70.307 E0.03703
G1 X16.541 Y71.351 E0.03357
G1 X16.541 Y73.235 E0.05909
G1 X17.066 Y74.802 E0.05179
G1 X17.437 Y75.286 E0.01912
G1 X17.935 Y75.784 E0.02208
G1 X18.312 Y75.601 F9000.000
G1 F1200.000
G1 X19.090 Y76.079 E0.02864
G1 X20.062 Y76.332 E0.03149
G1 X205.918 Y76.332 E5.82737
G1 X205.918 Y108.168 E0.99818
G1 X20.060 Y108.168 E5.82744
G1 X18.876 Y108.517 E0.03870
G1 X18.312 Y108.898 E0.02135
G1 X17.934 Y109.268 F9000.000
G1 F1200.000
G1 X17.525 Y109.703 E0.01873
G1 X17.144 Y110.402 E0.02497
G1 X16.939 Y111.181 E0.02524
G1 X16.918 Y113.202 E0.06336
G1 X17.385 Y114.598 E0.04618
G1 X17.712 Y115.028 E0.01695
G1 X17.934 Y115.251 E0.00985
G1 X18.312 Y115.601 F9000.000
G1 F1200.000
G1 X19.090 Y116.079 E0.02865
G1 X20.062 Y116.332 E0.03149
G1 X205.918 Y116.332 E5.82737
G1 X205.918 Y154.668 E1.20198
G1 X20.062 Y154.668 E5.82737
G1 X19.090 Y154.921 E0.03149
G1 X18.311 Y155.393 E0.02856
G1 X17.934 Y155.758 F9000.000
G1 F1200.000
G1 X17.660 Y156.024 E0.01199
G1 X17.149 Y156.893 E0.03159
G1 X16.918 Y157.860 E0.03119
G1 X16.918 Y159.692 E0.05743
G1 X17.272 Y160.884 E0.03898
G1 X17.719 Y161.538 E0.02484
G1 X18.537 Y162.286 E0.03474
G1 X19.111 Y162.585 E0.02030
G1 X20.062 Y162.832 E0.03082
G1 X210.942 Y162.832 E5.98491
G1 X212.134 Y162.478 E0.03898
G1 X212.788 Y162.031 E0.02484
G1 X213.536 Y161.213 E0.03474
G1 X213.835 Y160.639 E0.02030
G1 X214.082 Y159.688 E0.03082
G1 X214.082 Y71.313 E2.77094
G1 X213.806 Y70.287 E0.03331
G1 X213.262 Y69.442 E0.03149
G1 X212.308 Y68.615 E0.03960
G1 X211.648 Y68.320 E0.02266
G1 X210.929 Y68.171 E0.02304
G1 X20.057 Y68.168 E5.98464
G1 X18.866 Y68.522 E0.03896
G1 X18.237 Y68.947 E0.02378
G1 X17.652 Y69.532 E0.02594
G1 X17.120 Y70.468 E0.03377
G1 X16.918 Y71.371 E0.02903
G1 X16.918 Y73.205 E0.05749
G1 X17.385 Y74.598 E0.04607
G1 X17.712 Y75.028 E0.01695
G1 X17.935 Y75.251 E0.00985
G1 X18.312 Y75.094 F9000.000
G1 F1200.000
G1 X18.494 Y75.277 E0.00808
G1 X19.215 Y75.723 E0.02658
G1 X20.087 Y75.955 E0.02831
G1 X206.295 Y75.955 E5.83841
G1 X206.295 Y108.545 E1.02183
G1 X20.087 Y108.545 E5.83841
G1 X19.061 Y108.847 E0.03354
G1 X18.490 Y109.227 E0.02152
G1 X18.312 Y109.415 E0.00810
G1 X17.934 Y109.811 F9000.000
G1 F1200.000
G1 X17.844 Y109.906 E0.00410
G1 X17.487 Y110.562 E0.02343
G1 X17.310 Y111.251 E0.02232
G1 X17.295 Y113.173 E0.06025
G1 X17.704 Y114.395 E0.04042
G1 X17.934 Y114.700 E0.01197
G1 X18.312 Y115.094 F9000.000
G1 F1200.000
G1 X18.494 Y115.277 E0.00808
G1 X19.215 Y115.723 E0.02658
G1 X20.087 Y115.955 E0.02831
G1 X206.295 Y115.955 E5.83841
G1 X206.295 Y155.045 E1.22563
G1 X20.087 Y155.045 E5.83841
G1 X19.214 Y155.278 E0.02833
G1 X18.561 Y155.670 E0.02390
G1 X18.311 Y155.914 E0.01094
G1 X17.934 Y156.289 F9000.000
G1 F1200.000
G1 X17.489 Y157.057 E0.02784
G1 X17.295 Y157.882 E0.02658
G1 X17.295 Y159.665 E0.05591
G1 X17.601 Y160.697 E0.03376
G1 X17.992 Y161.276 E0.02191
G1 X18.736 Y161.965 E0.03178
G1 X19.229 Y162.227 E0.01752
G1 X20.087 Y162.455 E0.02783
G1 X210.915 Y162.455 E5.98327
G1 X211.947 Y162.149 E0.03376
G1 X212.526 Y161.758 E0.02191
G1 X213.215 Y161.014 E0.03178
G1 X213.477 Y160.521 E0.01752
G1 X213.705 Y159.663 E0.02783
G1 X213.705 Y71.337 E2.76938
G1 X213.472 Y70.464 E0.02835
G1 X212.992 Y69.707 E0.02809
G1 X212.128 Y68.947 E0.03609
G1 X211.513 Y68.673 E0.02110
G1 X210.910 Y68.548 E0.01933
G1 X20.084 Y68.545 E5.98319
G1 X19.052 Y68.852 E0.03378
G1 X18.491 Y69.227 E0.02115
G1 X17.938 Y69.779 E0.02451
G1 X17.463 Y70.627 E0.03046
G1 X17.295 Y71.391 E0.02454
G1 X17.295 Y73.174 E0.05591
G1 X17.704 Y74.395 E0.04038
G1 X17.935 Y74.700 E0.01197
G1 X18.312 Y74.561 F9000.000
G1 F1200.000
G1 X18.745 Y74.995 E0.01924
G1 X19.342 Y75.367 E0.02203
G1 X20.113 Y75.578 E0.02508
G1 X206.672 Y75.578 E5.84942
G1 X206.672 Y108.922 E1.04547
G1 X20.114 Y108.922 E5.84939
G1 X19.244 Y109.178 E0.02843
G1 X18.746 Y109.505 E0.01870
G1 X18.312 Y109.955 E0.01960
G1 X17.934 Y110.528 F9000.000
G1 F1200.000
G1 X17.830 Y110.720 E0.00687
G1 X17.681 Y111.319 E0.01935
G1 X17.672 Y113.144 E0.05720
G1 X17.934 Y113.926 E0.02588
G1 X18.312 Y114.561 F9000.000
G1 F1200.000
G1 X18.745 Y114.995 E0.01924
G1 X19.342 Y115.367 E0.02203
G1 X20.113 Y115.578 E0.02508
G1 X206.672 Y115.578 E5.84942
G1 X206.672 Y155.422 E1.24927
G1 X20.113 Y155.422 E5.84942
G1 X19.341 Y155.634 E0.02510
G1 X18.778 Y155.979 E0.02073
G1 X18.311 Y156.440 E0.02055
G1 X17.934 Y157.037 F9000.000
G1 F1200.000
G1 X17.831 Y157.219 E0.00657
G1 X17.672 Y157.903 E0.02203
G1 X17.672 Y159.638 E0.05439
G1 X17.931 Y160.512 E0.02860
G1 X18.267 Y161.017 E0.01900
G1 X18.938 Y161.646 E0.02883
G1 X19.351 Y161.870 E0.01474
G1 X20.113 Y162.078 E0.02477
G1 X210.888 Y162.078 E5.98161
G1 X211.762 Y161.819 E0.02860
G1 X212.267 Y161.483 E0.01900
G1 X212.896 Y160.812 E0.02883
G1 X213.120 Y160.399 E0.01474
G1 X213.328 Y159.637 E0.02477
G1 X213.328 Y71.363 E2.76776
G1 X213.116 Y70.591 E0.02510
G1 X212.722 Y69.971 E0.02306
G1 X211.945 Y69.278 E0.03263
G1 X211.414 Y69.037 E0.01829
G1 X210.889 Y68.926 E0.01682
G1 X20.113 Y68.922 E5.98165
G1 X19.190 Y69.204 E0.03026
G1 X18.745 Y69.505 E0.01685
G1 X18.224 Y70.027 E0.02312
G1 X17.807 Y70.784 E0.02710
G1 X17.672 Y71.411 E0.02011
G1 X17.672 Y73.144 E0.05433
G1 X17.935 Y73.926 E0.02589
G1 X18.312 Y73.894 F9000.000
G1 F1200.000
G1 X18.345 Y73.993 E0.00326
G1 X18.541 Y74.258 E0.01034
G1 X18.997 Y74.714 E0.02022
G1 X19.471 Y75.012 E0.01755
G1 X20.140 Y75.201 E0.02179
G1 X207.049 Y75.201 E5.86040
G1 X207.049 Y109.299 E1.06912
G1 X20.141 Y109.299 E5.86037
G1 X19.425 Y109.509 E0.02339
G1 X18.999 Y109.785 E0.01591
G1 X18.481 Y110.313 E0.02319
G1 X18.312 Y110.624 E0.01111
G1 E-3.50000 F3600.00000
G1 F7200.000
G1 X18.481 Y110.313 E-0.16826
G1 X18.999 Y109.785 E-0.35139
G1 X19.425 Y109.509 E-0.24110
G1 X20.141 Y109.299 E-0.35434
G1 X20.793 Y109.299 E-0.30991
G1 E-0.07500 F3600.00000
G1 X18.312 Y113.894 F9000.000
G1 E5.00000 F2400.00000
G1 F1200.000
G1 X18.345 Y113.993 E0.00327
G1 X18.541 Y114.258 E0.01034
G1 X18.997 Y114.714 E0.02022
G1 X19.471 Y115.012 E0.01755
G1 X20.140 Y115.201 E0.02179
G1 X207.049 Y115.201 E5.86040
G1 X207.049 Y155.799 E1.27292
G1 X20.140 Y155.799 E5.86040
G1 X19.471 Y155.988 E0.02179
G1 X18.997 Y156.286 E0.01755
G1 X18.512 Y156.771 E0.02151
G1 X18.311 Y157.131 E0.01292
G1 E-3.50000 F3600.00000
G1 F7200.000
G1 X18.512 Y156.771 E-0.19567
G1 X18.997 Y156.286 E-0.32584
G1 X19.471 Y155.988 E-0.26592
G1 X20.140 Y155.799 E-0.33012
G1 X20.787 Y155.799 E-0.30745
G1 E-0.07500 F3600.00000
G1 X207.426 Y156.176 F9000.000
G1 E5.00000 F2400.00000
G1 F1200.000
G1 X207.426 Y114.824 E1.29657
G1 X20.168 Y114.824 E5.87134
G1 X19.604 Y114.658 E0.01842
G1 X19.250 Y114.433 E0.01318
G1 X18.819 Y114.002 E0.01911
G1 X18.666 Y113.794 E0.00808
G1 X18.426 Y113.082 E0.02354
G1 X18.426 Y111.444 E0.05136
G1 X18.518 Y111.034 E0.01318
G1 X18.799 Y110.518 E0.01842
G1 X19.250 Y110.067 E0.01999
G1 X19.604 Y109.842 E0.01318
G1 X20.168 Y109.676 E0.01842
G1 X207.426 Y109.676 E5.87134
G1 X207.426 Y74.824 E1.09276
G1 X20.168 Y74.824 E5.87134
G1 X19.604 Y74.658 E0.01842
G1 X19.250 Y74.433 E0.01318
G1 X18.819 Y74.002 E0.01911
G1 X18.666 Y73.794 E0.00808
G1 X18.426 Y73.082 E0.02354
G1 X18.426 Y71.448 E0.05124
G1 X18.499 Y71.088 E0.01152
G1 X18.798 Y70.519 E0.02014
G1 X19.251 Y70.066 E0.02009
G1 X19.560 Y69.863 E0.01161
G1 X20.169 Y69.676 E0.01997
G1 X210.846 Y69.680 E5.97853
G1 X211.205 Y69.763 E0.01157
G1 X211.571 Y69.935 E0.01268
G1 X212.176 Y70.493 E0.02580
G1 X212.408 Y70.855 E0.01347
G1 X212.574 Y71.418 E0.01841
G1 X212.574 Y159.582 E2.76432
G1 X212.409 Y160.144 E0.01838
G1 X212.263 Y160.399 E0.00919
G1 X211.752 Y160.931 E0.02316
G1 X211.440 Y161.137 E0.01172
G1 X210.831 Y161.324 E0.01997
G1 X20.168 Y161.324 E5.97810
G1 X19.606 Y161.159 E0.01838
G1 X19.351 Y161.013 E0.00919
G1 X18.819 Y160.502 E0.02316
G1 X18.613 Y160.190 E0.01172
G1 X18.426 Y159.581 E0.01997
G1 X18.426 Y157.944 E0.05131
G1 X18.518 Y157.534 E0.01318
G1 X18.799 Y157.018 E0.01842
G1 X19.250 Y156.567 E0.01999
G1 X19.604 Y156.342 E0.01318
G1 X20.168 Y156.176 E0.01842
G1 X207.366 Y156.176 E5.86946
G1 X207.803 Y156.553 F9000.000
G1 F1200.000
G1 X207.803 Y114.447 E1.32021
G1 X20.198 Y114.447 E5.88224
G1 X19.742 Y114.306 E0.01496
G1 X19.502 Y114.152 E0.00892
G1 X19.096 Y113.746 E0.01800
G1 X18.988 Y113.596 E0.00579
G1 X18.803 Y113.051 E0.01806
G1 X18.803 Y111.464 E0.04977
G1 X18.864 Y111.186 E0.00892
G1 X19.086 Y110.764 E0.01496
G1 X19.502 Y110.348 E0.01845
G1 X19.742 Y110.194 E0.00892
G1 X20.198 Y110.053 E0.01496
G1 X207.803 Y110.053 E5.88224
G1 X207.803 Y74.447 E1.11641
G1 X20.198 Y74.447 E5.88224
G1 X19.742 Y74.306 E0.01496
G1 X19.502 Y74.152 E0.00892
G1 X19.096 Y73.746 E0.01800
G1 X18.988 Y73.596 E0.00579
G1 X18.803 Y73.051 E0.01806
G1 X18.803 Y71.465 E0.04974
G1 X18.847 Y71.233 E0.00740
