; generated by PrusaSlicer 2.3.0+win64 on 2021-03-15 at 05:01:32 UTC

; 

; external perimeters extrusion width = 0.45mm
; perimeters extrusion width = 0.45mm
; infill extrusion width = 0.45mm
; solid infill extrusion width = 0.45mm
; top infill extrusion width = 0.40mm
; first layer extrusion width = 0.42mm

M201 X500 Y500 Z100 E5000 ; sets maximum accelerations, mm/sec^2
M203 X500 Y500 Z10 E60 ; sets maximum feedrates, mm/sec
M204 P500 R1000 T500 ; sets acceleration (P, T) and retract acceleration (R), mm/sec^2
M205 X8.00 Y8.00 Z0.40 E5.00 ; sets the jerk limits, mm/sec
M205 S0 T0 ; sets the minimum extruding and travel feed rate, mm/sec
M107
;TYPE:Custom
G90 ; use absolute coordinates
M83 ; extruder relative mode
M104 S120 ; set temporary nozzle temp to prevent oozing during homing and auto bed leveling
M140 S60 ; set final bed temp
G4 S10 ; allow partial nozzle warmup
G28 ; home all axis
G1 Z50 F240
G1 X2 Y10 F3000
M104 S210 ; set final nozzle temp
M190 S60 ; wait for bed temp to stabilize
M109 S210 ; wait for nozzle temp to stabilize
G1 Z0.28 F240
G92 E0
G1 Y140 E10 F1500 ; prime the nozzle
G1 X2.3 F5000
G92 E0
G1 Y10 E10 F1200 ; prime the nozzle
G92 E0
G21 ; set units to millimeters
G90 ; use absolute coordinates
M83 ; use relative distances for extrusion
; Filament gcode
;LAYER_CHANGE
;Z:0.2
;HEIGHT:0.2
;BEFORE_LAYER_CHANGE
G92 E0
;0.2


G1 E-5.00000 F3600.000
G1 Z0.200 F9000.000
;AFTER_LAYER_CHANGE
;0.2
G1 X83.263 Y47.197
G1 E5.00000 F2400.000
;TYPE:Skirt
;WIDTH:0.42
G1 F1200.000
G1 X83.599 Y46.572 E0.02225
G1 X84.105 Y46.075 E0.02225
G1 X84.736 Y45.749 E0.02225
G1 X85.434 Y45.624 E0.02225
G1 X140.504 Y45.623 E1.72667
G1 X141.356 Y45.783 E0.02720
G1 X142.095 Y46.237 E0.02720
G1 X142.621 Y46.927 E0.02720
G1 X142.865 Y47.759 E0.02720
G1 X147.873 Y117.857 E2.20347
G1 X147.877 Y166.017 E1.51000
G1 X147.737 Y166.812 E0.02532
G1 X147.185 Y167.934 E0.03921
G1 X146.833 Y168.406 E0.01846
G1 X145.698 Y169.511 E0.04966
G1 X144.557 Y170.134 E0.04076
G1 X112.736 Y184.242 E1.09139
G1 X110.234 Y185.264 E0.08474
G1 X109.522 Y185.377 E0.02260
G1 X91.179 Y185.377 E0.57513
G1 X90.380 Y185.237 E0.02543
G1 X87.603 Y183.803 E0.09800
G1 X84.858 Y181.090 E0.12102
G1 X84.511 Y180.609 E0.01858
G1 X83.352 Y178.335 E0.08002
G1 X83.126 Y177.440 E0.02896
G1 X83.123 Y47.996 E4.05861
G1 X83.252 Y47.256 E0.02355
G1 E-3.50000 F3600.000
;WIPE_START
G1 F7200.000
G1 X83.599 Y46.572 E-0.36422
G1 X84.105 Y46.075 E-0.33707
G1 X84.736 Y45.749 E-0.33707
G1 X85.434 Y45.624 E-0.33707
G1 X85.539 Y45.624 E-0.04956
;WIPE_END
G1 E-0.07500 F3600.000
G1 X118.803 Y117.699 F9000.000
G1 E5.00000 F2400.000
G1 F1200.000
G1 X118.964 Y117.200 E0.01642
G1 X119.097 Y117.004 E0.00744
G1 X119.564 Y116.549 E0.02045
G1 X119.741 Y116.444 E0.00643
G1 X120.198 Y116.303 E0.01500
G1 X145.824 Y116.307 E0.80350
G1 X146.062 Y116.362 E0.00767
G1 X146.382 Y116.513 E0.01109
G1 X146.901 Y117.001 E0.02233
G1 X147.056 Y117.242 E0.00898
G1 X147.197 Y117.698 E0.01495
G1 X147.197 Y166.121 E1.51827
G1 X147.054 Y166.698 E0.01866
G1 X146.398 Y167.880 E0.04239
G1 X145.380 Y168.898 E0.04512
G1 X144.198 Y169.554 E0.04239
G1 X143.621 Y169.697 E0.01866
G1 X120.199 Y169.697 E0.73437
G1 X119.700 Y169.536 E0.01642
G1 X119.504 Y169.403 E0.00744
G1 X119.049 Y168.936 E0.02045
G1 X118.944 Y168.759 E0.00643
G1 X118.803 Y168.302 E0.01500
G1 X118.803 Y117.759 E1.58476
G1 X119.293 Y117.385 F9000.000
G1 F1200.000
G1 X119.377 Y117.256 E0.00482
G1 X119.782 Y116.856 E0.01785
G1 X119.883 Y116.794 E0.00371
G1 X120.229 Y116.680 E0.01144
G1 X145.802 Y116.684 E0.80181
G1 X145.919 Y116.711 E0.00377
G1 X146.192 Y116.840 E0.00947
G1 X146.623 Y117.257 E0.01880
G1 X146.707 Y117.385 E0.00479
G1 X146.820 Y117.729 E0.01136
G1 X146.820 Y166.098 E1.51656
G1 X146.711 Y166.539 E0.01425
G1 X146.112 Y167.633 E0.03910
G1 X145.133 Y168.612 E0.04341
G1 X144.039 Y169.211 E0.03910
G1 X143.598 Y169.320 E0.01425
G1 X120.229 Y169.320 E0.73271
G1 X119.885 Y169.207 E0.01136
G1 X119.756 Y169.123 E0.00482
G1 X119.356 Y168.718 E0.01785
G1 X119.294 Y168.617 E0.00371
G1 X119.180 Y168.271 E0.01144
G1 X119.180 Y117.729 E1.58469
G1 X119.275 Y117.442 E0.00948
G1 X119.639 Y117.537 F9000.000
G1 F1200.000
G1 X120.010 Y117.157 E0.01666
G1 X120.264 Y117.057 E0.00856
G1 X145.750 Y117.057 E0.79908
G1 X146.000 Y117.167 E0.00856
G1 X146.361 Y117.537 E0.01622
G1 X146.443 Y117.764 E0.00757
G1 X146.443 Y166.076 E1.51476
G1 X146.368 Y166.382 E0.00989
G1 X145.825 Y167.386 E0.03578
G1 X144.886 Y168.325 E0.04166
G1 X143.882 Y168.868 E0.03578
G1 X143.576 Y168.943 E0.00989
G1 X120.264 Y168.943 E0.73090
G1 X120.010 Y168.843 E0.00856
G1 X119.639 Y168.463 E0.01666
G1 X119.557 Y168.236 E0.00757
G1 X119.557 Y117.764 E1.58249
G1 X119.619 Y117.594 E0.00569
G1 X119.963 Y117.737 F9000.000
G1 F1200.000
G1 X120.237 Y117.463 E0.01215
G1 X120.306 Y117.434 E0.00235
G1 X145.694 Y117.434 E0.79600
G1 X145.763 Y117.463 E0.00235
G1 X146.037 Y117.737 E0.01215
G1 X146.066 Y117.806 E0.00235
G1 X146.066 Y166.053 E1.51275
G1 X146.024 Y166.227 E0.00559
G1 X145.538 Y167.140 E0.03242
G1 X144.640 Y168.038 E0.03986
G1 X143.727 Y168.524 E0.03242
G1 X143.553 Y168.566 E0.00559
G1 X120.306 Y168.566 E0.72889
G1 X120.237 Y168.537 E0.00235
G1 X119.963 Y168.263 E0.01215
G1 X119.934 Y168.194 E0.00235
G1 X119.940 Y117.792 E1.58030
G1 X120.311 Y117.922 F9000.000
G1 F1200.000
G1 X120.422 Y117.811 E0.00490
G1 X145.578 Y117.811 E0.78875
G1 X145.689 Y117.922 E0.00490
G1 X145.689 Y166.031 E1.50843
G1 X145.251 Y166.894 E0.03033
G1 X144.394 Y167.751 E0.03800
G1 X143.574 Y168.178 E0.02900
G1 X120.422 Y168.189 E0.72591
G1 X120.311 Y168.078 E0.00490
G1 X120.311 Y117.982 E1.57073
G1 E-3.50000 F3600.000
;WIPE_START
G1 F7200.000
G1 X120.422 Y117.811 E-0.09647
G1 X123.219 Y117.811 E-1.32853
;WIPE_END
G1 E-0.07500 F3600.000
G1 X117.197 Y99.697 F9000.000
G1 E5.00000 F2400.000
G1 F1200.000
G1 X117.197 Y178.295 E2.46438
G1 X117.024 Y178.913 E0.02013
G1 X115.504 Y181.237 E0.08705
G1 X112.759 Y183.455 E0.11066
G1 X110.080 Y184.600 E0.09134
G1 X109.773 Y184.678 E0.00994
G1 X91.080 Y184.697 E0.58611
G1 X90.655 Y184.614 E0.01356
G1 X87.914 Y183.186 E0.09692
G1 X85.315 Y180.586 E0.11527
G1 X83.944 Y178.002 E0.09173
G1 X83.831 Y177.636 E0.01200
G1 X83.803 Y154.717 E0.71861
G1 X83.864 Y154.437 E0.00899
G1 X84.053 Y154.063 E0.01314
G1 X84.535 Y153.574 E0.02152
G1 X84.705 Y153.464 E0.00634
G1 X85.199 Y153.306 E0.01627
G1 X89.925 Y153.328 E0.14820
G1 X90.258 Y153.447 E0.01108
G1 X90.494 Y153.601 E0.00882
G1 X90.910 Y154.016 E0.01842
G1 X91.164 Y154.533 E0.01806
G1 X91.194 Y154.715 E0.00579
G1 X91.194 Y175.306 E0.64562
G1 X109.806 Y175.306 E0.58358
G1 X109.806 Y91.695 E2.62158
G1 X87.827 Y91.682 E0.68914
G1 X87.331 Y91.540 E0.01619
G1 X86.898 Y91.260 E0.01616
G1 X84.321 Y88.682 E0.11429
G1 X83.959 Y88.084 E0.02193
G1 X83.803 Y87.481 E0.01953
G1 X83.807 Y47.674 E1.24809
G1 X83.850 Y47.475 E0.00641
G1 X84.088 Y47.012 E0.01630
G1 X84.532 Y46.573 E0.01961
G1 X84.739 Y46.444 E0.00764
G1 X85.072 Y46.325 E0.01106
G1 X89.821 Y46.307 E0.14891
G1 X90.059 Y46.362 E0.00767
G1 X90.379 Y46.513 E0.01109
G1 X90.898 Y47.001 E0.02233
G1 X91.054 Y47.243 E0.00904
G1 X91.184 Y47.640 E0.01309
G1 X91.194 Y83.305 E1.11825
G1 X109.806 Y83.305 E0.58357
G1 X109.806 Y47.698 E1.11645
G1 X109.947 Y47.242 E0.01494
G1 X110.077 Y47.032 E0.00775
G1 X110.567 Y46.549 E0.02159
G1 X110.744 Y46.444 E0.00643
G1 X111.201 Y46.303 E0.01500
G1 X140.860 Y46.313 E0.92994
G1 X141.258 Y46.443 E0.01314
G1 X141.469 Y46.575 E0.00778
G1 X141.902 Y47.002 E0.01909
G1 X142.034 Y47.197 E0.00738
G1 X142.197 Y47.698 E0.01650
G1 X142.197 Y96.121 E1.51827
G1 X142.054 Y96.698 E0.01866
G1 X141.398 Y97.880 E0.04239
G1 X140.380 Y98.898 E0.04512
G1 X139.199 Y99.554 E0.04235
G1 X138.666 Y99.691 E0.01725
G1 X117.257 Y99.697 E0.67128
G1 X116.820 Y99.320 F9000.000
G1 F1200.000
G1 X116.820 Y178.267 E2.47533
G1 X116.670 Y178.780 E0.01675
G1 X115.244 Y180.962 E0.08173
G1 X112.542 Y183.145 E0.10890
G1 X109.947 Y184.247 E0.08839
G1 X109.705 Y184.306 E0.00782
G1 X91.096 Y184.320 E0.58349
G1 X90.803 Y184.266 E0.00934
G1 X88.160 Y182.898 E0.09330
G1 X85.601 Y180.340 E0.11345
G1 X84.287 Y177.843 E0.08848
G1 X84.200 Y177.555 E0.00944
G1 X84.180 Y154.736 E0.71547
G1 X84.212 Y154.585 E0.00484
G1 X84.375 Y154.262 E0.01134
G1 X84.782 Y153.859 E0.01795
G1 X84.883 Y153.797 E0.00371
G1 X85.229 Y153.683 E0.01143
G1 X89.829 Y153.694 E0.14422
G1 X90.110 Y153.795 E0.00936
G1 X90.241 Y153.881 E0.00492
G1 X90.621 Y154.260 E0.01682
G1 X90.798 Y154.624 E0.01270
G1 X90.817 Y154.732 E0.00345
G1 X90.817 Y175.683 E0.65690
G1 X110.183 Y175.683 E0.60722
G1 X110.183 Y91.318 E2.64522
G1 X87.900 Y91.312 E0.69868
G1 X87.507 Y91.205 E0.01276
G1 X87.150 Y90.978 E0.01328
G1 X84.605 Y88.432 E0.11286
G1 X84.297 Y87.915 E0.01887
G1 X84.180 Y87.457 E0.01481
G1 X84.184 Y47.698 E1.24662
G1 X84.211 Y47.584 E0.00369
G1 X84.375 Y47.259 E0.01142
G1 X84.782 Y46.856 E0.01795
G1 X84.885 Y46.793 E0.00379
G1 X85.168 Y46.691 E0.00943
G1 X89.799 Y46.684 E0.14520
G1 X89.916 Y46.711 E0.00376
G1 X90.189 Y46.840 E0.00947
G1 X90.620 Y47.257 E0.01880
G1 X90.704 Y47.385 E0.00479
G1 X90.817 Y47.729 E0.01136
G1 X90.817 Y83.682 E1.12728
G1 X110.183 Y83.682 E0.60722
G1 X110.183 Y47.729 E1.12728
G1 X110.297 Y47.383 E0.01144
G1 X110.359 Y47.283 E0.00369
G1 X110.786 Y46.856 E0.01893
G1 X110.886 Y46.794 E0.00369
G1 X111.232 Y46.680 E0.01144
G1 X140.771 Y46.680 E0.92615
G1 X141.115 Y46.793 E0.01136
G1 X141.244 Y46.878 E0.00484
G1 X141.625 Y47.258 E0.01686
G1 X141.688 Y47.348 E0.00345
G1 X141.820 Y47.731 E0.01270
G1 X141.820 Y96.098 E1.51652
G1 X141.711 Y96.539 E0.01425
G1 X141.112 Y97.633 E0.03910
G1 X140.133 Y98.612 E0.04341
G1 X139.041 Y99.211 E0.03905
G1 X138.600 Y99.319 E0.01425
G1 X116.880 Y99.320 E0.68101
G1 E-3.50000 F3600.000
;WIPE_START
G1 F7200.000
G1 X116.877 Y102.320 E-1.42500
;WIPE_END
G1 E-0.07500 F3600.000
G1 X90.440 Y84.059 F9000.000
G1 E5.00000 F2400.000
G1 F1200.000
G1 X110.560 Y84.059 E0.63087
G1 X110.560 Y47.764 E1.13800
G1 X110.660 Y47.510 E0.00856
G1 X111.013 Y47.157 E0.01566
G1 X111.267 Y47.057 E0.00856
G1 X140.736 Y47.057 E0.92395
G1 X140.990 Y47.157 E0.00856
G1 X141.343 Y47.510 E0.01566
G1 X141.443 Y47.764 E0.00856
G1 X141.443 Y96.076 E1.51476
G1 X141.368 Y96.382 E0.00989
G1 X140.825 Y97.386 E0.03578
G1 X139.886 Y98.325 E0.04166
G1 X138.884 Y98.867 E0.03572
G1 X138.577 Y98.942 E0.00989
G1 X116.443 Y98.943 E0.69401
G1 X116.443 Y178.240 E2.48632
G1 X116.338 Y178.598 E0.01169
G1 X114.983 Y180.687 E0.07808
G1 X112.326 Y182.834 E0.10712
G1 X109.816 Y183.893 E0.08540
G1 X109.640 Y183.935 E0.00567
G1 X91.115 Y183.943 E0.58086
G1 X90.902 Y183.902 E0.00680
G1 X88.406 Y182.611 E0.08809
G1 X85.889 Y180.094 E0.11163
G1 X84.630 Y177.686 E0.08518
G1 X84.569 Y177.476 E0.00685
G1 X84.557 Y154.753 E0.71246
G1 X84.667 Y154.503 E0.00856
G1 X85.010 Y154.160 E0.01522
G1 X85.264 Y154.060 E0.00856
G1 X89.733 Y154.060 E0.14010
G1 X89.987 Y154.160 E0.00856
G1 X90.330 Y154.503 E0.01522
G1 X90.433 Y154.721 E0.00757
G1 X90.440 Y176.060 E0.66907
G1 X110.560 Y176.060 E0.63087
G1 X110.560 Y90.941 E2.66887
G1 X87.928 Y90.934 E0.70962
G1 X87.640 Y90.852 E0.00939
G1 X87.403 Y90.698 E0.00886
G1 X84.889 Y88.184 E0.11147
G1 X84.636 Y87.750 E0.01575
G1 X84.557 Y87.435 E0.01018
G1 X84.557 Y47.750 E1.24427
G1 X84.667 Y47.500 E0.00856
G1 X85.010 Y47.157 E0.01522
G1 X85.264 Y47.057 E0.00856
G1 X89.747 Y47.057 E0.14054
G1 X89.997 Y47.167 E0.00856
G1 X90.340 Y47.510 E0.01522
G1 X90.440 Y47.764 E0.00856
G1 X90.440 Y83.999 E1.13612
G1 X90.063 Y84.436 F9000.000
G1 F1200.000
G1 X110.937 Y84.436 E0.65451
G1 X110.937 Y47.806 E1.14851
G1 X110.966 Y47.737 E0.00235
G1 X111.240 Y47.463 E0.01215
G1 X111.309 Y47.434 E0.00235
G1 X140.694 Y47.434 E0.92133
G1 X140.763 Y47.463 E0.00235
G1 X141.037 Y47.737 E0.01215
G1 X141.066 Y47.806 E0.00235
G1 X141.066 Y96.053 E1.51275
G1 X141.024 Y96.227 E0.00559
G1 X140.538 Y97.140 E0.03242
G1 X139.640 Y98.038 E0.03986
G1 X138.728 Y98.523 E0.03236
G1 X138.555 Y98.565 E0.00559
G1 X116.066 Y98.566 E0.70514
G1 X116.066 Y178.214 E2.49731
G1 X116.006 Y178.417 E0.00666
G1 X114.723 Y180.413 E0.07441
G1 X112.110 Y182.524 E0.10531
G1 X109.688 Y183.538 E0.08234
G1 X109.579 Y183.562 E0.00347
G1 X91.136 Y183.566 E0.57830
G1 X91.005 Y183.538 E0.00418
G1 X88.652 Y182.324 E0.08303
G1 X86.176 Y179.848 E0.10979
G1 X84.975 Y177.532 E0.08180
G1 X84.940 Y177.403 E0.00419
G1 X84.934 Y154.809 E0.70841
G1 X84.963 Y154.740 E0.00235
G1 X85.237 Y154.466 E0.01215
G1 X85.306 Y154.437 E0.00235
G1 X89.691 Y154.437 E0.13747
G1 X89.760 Y154.466 E0.00235
G1 X90.034 Y154.740 E0.01215
G1 X90.063 Y154.809 E0.00235
G1 X90.063 Y176.437 E0.67813
G1 X110.937 Y176.437 E0.65451
G1 X110.937 Y90.564 E2.69251
G1 X87.954 Y90.557 E0.72062
G1 X87.817 Y90.518 E0.00449
G1 X87.654 Y90.415 E0.00604
G1 X85.175 Y87.936 E0.10993
G1 X84.978 Y87.588 E0.01254
G1 X84.935 Y87.412 E0.00567
G1 X84.934 Y47.806 E1.24181
G1 X84.963 Y47.737 E0.00235
G1 X85.237 Y47.463 E0.01215
G1 X85.306 Y47.434 E0.00235
G1 X89.691 Y47.434 E0.13747
G1 X89.760 Y47.463 E0.00235
G1 X90.034 Y47.737 E0.01215
G1 X90.063 Y47.806 E0.00235
G1 X90.063 Y84.376 E1.14663
G1 X89.686 Y84.813 F9000.000
G1 F1200.000
G1 X111.314 Y84.813 E0.67816
G1 X111.314 Y47.922 E1.15671
G1 X111.425 Y47.811 E0.00490
G1 X140.578 Y47.811 E0.91408
G1 X140.689 Y47.922 E0.00490
G1 X140.678 Y96.074 E1.50977
G1 X140.251 Y96.894 E0.02900
G1 X139.394 Y97.751 E0.03800
G1 X138.533 Y98.188 E0.03027
G1 X115.689 Y98.189 E0.71627
G1 X115.689 Y178.187 E2.50830
G1 X115.674 Y178.238 E0.00166
G1 X114.462 Y180.140 E0.07070
G1 X111.894 Y182.214 E0.10349
G1 X109.563 Y183.181 E0.07915
G1 X91.118 Y183.178 E0.57834
G1 X88.898 Y182.036 E0.07826
G1 X86.464 Y179.602 E0.10794
G1 X85.311 Y177.339 E0.07961
G1 X85.311 Y154.925 E0.70279
G1 X85.422 Y154.814 E0.00490
G1 X89.575 Y154.814 E0.13022
G1 X89.686 Y154.925 E0.00490
G1 X89.686 Y176.814 E0.68633
G1 X111.314 Y176.814 E0.67816
G1 X111.314 Y90.187 E2.71616
G1 X88.017 Y90.186 E0.73049
G1 X87.902 Y90.131 E0.00398
G1 X85.462 Y87.690 E0.10822
G1 X85.312 Y87.390 E0.01050
G1 X85.311 Y47.922 E1.23751
G1 X85.422 Y47.811 E0.00490
G1 X89.575 Y47.811 E0.13022
G1 X89.686 Y47.922 E0.00490
G1 X89.686 Y84.753 E1.15483
G1 X89.187 Y85.312 F9000.000
;TYPE:External perimeter
G1 F1200.000
G1 X111.813 Y85.312 E0.70942
G1 X111.813 Y48.310 E1.16017
G1 X140.190 Y48.310 E0.88974
G1 X140.190 Y95.935 E1.49323
G1 X139.863 Y96.577 E0.02259
G1 X139.077 Y97.363 E0.03488
G1 X138.435 Y97.690 E0.02259
G1 X115.190 Y97.690 E0.72882
G1 X115.190 Y178.071 E2.52028
G1 X114.108 Y179.784 E0.06353
G1 X111.616 Y181.797 E0.10045
G1 X109.447 Y182.690 E0.07355
G1 X91.257 Y182.690 E0.57032
G1 X89.216 Y181.649 E0.07186
G1 X86.851 Y179.284 E0.10485
G1 X85.810 Y177.243 E0.07186
G1 X85.810 Y155.313 E0.68759
G1 X89.187 Y155.313 E0.10588
G1 X89.187 Y177.313 E0.68979
G1 X111.813 Y177.313 E0.70942
G1 X111.813 Y89.688 E2.74742
G1 X88.163 Y89.687 E0.74152
G1 X85.851 Y87.374 E0.10256
G1 X85.810 Y87.293 E0.00282
G1 X85.810 Y48.310 E1.22229
G1 X89.187 Y48.310 E0.10588
G1 X89.187 Y85.252 E1.15829
G1 X89.199 Y85.712 F9000.000
G1 X88.810 Y85.689
;TYPE:Perimeter
G1 F1200.000
G1 X112.190 Y85.689 E0.73307
G1 X112.190 Y48.687 E1.16017
G1 X139.813 Y48.687 E0.86609
G1 X139.813 Y95.844 E1.47857
G1 X139.554 Y96.352 E0.01788
G1 X138.852 Y97.054 E0.03113
G1 X138.344 Y97.313 E0.01788
G1 X114.813 Y97.313 E0.73780
G1 X114.813 Y177.962 E2.52868
G1 X113.823 Y179.530 E0.05816
G1 X111.422 Y181.470 E0.09677
G1 X109.373 Y182.313 E0.06949
G1 X91.348 Y182.313 E0.56515
G1 X89.440 Y181.340 E0.06715
G1 X87.160 Y179.060 E0.10111
G1 X86.187 Y177.152 E0.06715
G1 X86.187 Y155.690 E0.67293
G1 X88.810 Y155.690 E0.08224
G1 X88.810 Y177.690 E0.68979
G1 X112.190 Y177.690 E0.73307
G1 X112.190 Y89.311 E2.77107
G1 X88.320 Y89.310 E0.74844
G1 X86.187 Y87.176 E0.09458
G1 X86.187 Y48.687 E1.20681
G1 X88.810 Y48.687 E0.08224
G1 X88.810 Y85.629 E1.15829
G1 E-3.50000 F3600.000
;WIPE_START
G1 F7200.000
G1 X91.810 Y85.637 E-1.42500
;WIPE_END
G1 E-0.07500 F3600.000
G1 X88.697 Y49.312 F9000.000
G1 E5.00000 F2400.000
;TYPE:Solid infill
;WIDTH:0.420672
G1 F1200.000
G1 X88.355 Y48.970 E0.01520
G1 X87.820 Y48.970 E0.01678
