; generated by PrusaSlicer 2.3.0-alpha3+win64 on 2020-11-07 at 16:26:58 UTC

; 

; external perimeters extrusion width = 0.45mm
; perimeters extrusion width = 0.45mm
; infill extrusion width = 0.45mm
; solid infill extrusion width = 0.45mm
; top infill extrusion width = 0.40mm
; first layer extrusion width = 0.42mm

M201 X500 Y500 Z100 E5000 ; sets maximum accelerations, mm/sec^2
M203 X500 Y500 Z10 E60 ; sets maximum feedrates, mm/sec
M204 P500 R1000 T500 ; sets acceleration (P, T) and retract acceleration (R), mm/sec^2
M205 X8.00 Y8.00 Z0.40 E5.00 ; sets the jerk limits, mm/sec
M205 S0 T0 ; sets the minimum extruding and travel feed rate, mm/sec
M107
;TYPE:Custom
G90 ; use absolute coordinates
M83 ; extruder relative mode
M104 S205 ; set extruder temp
M140 S60 ; set bed temp
M190 S60 ; wait for bed temp
M109 S205 ; wait for extruder temp
G28 ; home all
G1 Z2 F240
G1 X2 Y10 F3000
G1 Z0.28 F240
G92 E0.0
G1 Y190 E15.0 F1500.0 ; intro line
G1 X2.3 F5000
G1 Y10 E15.0 F1200.0 ; intro line
G92 E0.0
G21 ; set units to millimeters
G90 ; use absolute coordinates
M83 ; use relative distances for extrusion
; Filament gcode
;Z:0.2
;HEIGHT:0.2
;BEFORE_LAYER_CHANGE
G92 E0
;0.2


G1 E-5.00000 F3600.00000
G1 Z0.200 F9000.000
;AFTER_LAYER_CHANGE
;0.2
G1 X54.850 Y119.515
G1 E5.00000 F2400.00000
;TYPE:Skirt
G1 F1200.000
G1 X54.629 Y118.669 E0.02743
G1 X54.623 Y112.473 E0.19425
G1 X54.699 Y111.905 E0.01799
G1 X54.993 Y111.226 E0.02319
G1 X55.479 Y110.673 E0.02308
G1 X56.111 Y110.296 E0.02308
G1 X56.831 Y110.129 E0.02319
G1 X176.004 Y110.123 E3.73657
G1 X176.906 Y110.302 E0.02884
G1 X177.670 Y110.808 E0.02872
G1 X178.185 Y111.565 E0.02872
G1 X178.377 Y112.465 E0.02884
G1 X178.377 Y118.527 E0.19007
G1 X178.299 Y119.103 E0.01823
G1 X178.005 Y119.777 E0.02308
G1 X177.518 Y120.329 E0.02308
G1 X176.886 Y120.706 E0.02308
G1 X176.169 Y120.871 E0.02308
G1 X56.958 Y120.877 E3.73776
G1 X56.101 Y120.701 E0.02743
G1 X55.366 Y120.226 E0.02743
G1 X54.886 Y119.563 E0.02567
G1 E-3.50000 F3600.00000
G1 F7200.000
G1 X54.629 Y118.669 E-0.44224
G1 X54.627 Y116.600 E-0.98276
G1 E-0.07500 F3600.00000
G1 X57.587 Y117.913 F9000.000
G1 E5.00000 F2400.00000
;TYPE:Perimeter
G1 F1200.000
G1 X57.587 Y113.087 E0.15131
G1 X175.413 Y113.087 E3.69435
G1 X175.413 Y117.913 E0.15131
G1 X57.647 Y117.913 E3.69247
G1 X57.210 Y118.290 F9000.000
;TYPE:External perimeter
G1 F1200.000
G1 X57.210 Y112.710 E0.17496
G1 X175.790 Y112.710 E3.71799
G1 X175.790 Y118.290 E0.17496
G1 X57.270 Y118.290 E3.71611
G1 X57.405 Y117.940 F9000.000
G1 E-3.50000 F3600.00000
G1 F7200.000
G1 X57.238 Y115.290 E-1.42500
G1 E-0.07500 F3600.00000
G1 X175.300 Y113.963 F9000.000
G1 E5.00000 F2400.00000
;TYPE:Solid infill
G1 F1200.000
G1 X174.706 Y113.370 E0.02635
G1 X174.172 Y113.370 E0.01676
G1 X175.130 Y114.328 E0.04253
G1 X175.130 Y114.862 E0.01676
G1 X173.638 Y113.370 E0.06623
G1 X173.104 Y113.370 E0.01676
G1 X175.130 Y115.396 E0.08994
G1 X175.130 Y115.930 E0.01676
G1 X172.570 Y113.370 E0.11365
G1 X172.036 Y113.370 E0.01676
G1 X175.130 Y116.464 E0.13735
G1 X175.130 Y116.997 E0.01676
G1 X171.503 Y113.370 E0.16106
G1 X170.969 Y113.370 E0.01676
G1 X175.130 Y117.531 E0.18477
G1 X175.130 Y117.630 E0.00310
G1 X174.695 Y117.630 E0.01366
G1 X170.435 Y113.370 E0.18915
G1 X169.901 Y113.370 E0.01676
G1 X174.161 Y117.630 E0.18915
G1 X173.627 Y117.630 E0.01676
G1 X169.367 Y113.370 E0.18915
G1 X168.833 Y113.370 E0.01676
G1 X173.093 Y117.630 E0.18915
G1 X172.559 Y117.630 E0.01676
G1 X168.299 Y113.370 E0.18915
G1 X167.765 Y113.370 E0.01676
G1 X172.025 Y117.630 E0.18915
G1 X171.491 Y117.630 E0.01676
G1 X167.231 Y113.370 E0.18915
G1 X166.697 Y113.370 E0.01676
G1 X170.957 Y117.630 E0.18915
G1 X170.423 Y117.630 E0.01676
G1 X166.163 Y113.370 E0.18915
G1 X165.629 Y113.370 E0.01676
G1 X169.889 Y117.630 E0.18915
G1 X169.355 Y117.630 E0.01676
G1 X165.095 Y113.370 E0.18915
G1 X164.561 Y113.370 E0.01676
G1 X168.821 Y117.630 E0.18915
G1 X168.287 Y117.630 E0.01676
G1 X164.027 Y113.370 E0.18915
G1 X163.493 Y113.370 E0.01676
G1 X167.754 Y117.630 E0.18915
G1 X167.220 Y117.630 E0.01676
G1 X162.959 Y113.370 E0.18915
G1 X162.425 Y113.370 E0.01676
G1 X166.686 Y117.630 E0.18915
G1 X166.152 Y117.630 E0.01676
G1 X161.891 Y113.370 E0.18915
G1 X161.357 Y113.370 E0.01676
G1 X165.618 Y117.630 E0.18915
G1 X165.084 Y117.630 E0.01676
G1 X160.824 Y113.370 E0.18915
G1 X160.290 Y113.370 E0.01676
G1 X164.550 Y117.630 E0.18915
G1 X164.016 Y117.630 E0.01676
G1 X159.756 Y113.370 E0.18915
G1 X159.222 Y113.370 E0.01676
G1 X163.482 Y117.630 E0.18915
G1 X162.948 Y117.630 E0.01676
G1 X158.688 Y113.370 E0.18915
G1 X158.154 Y113.370 E0.01676
G1 X162.414 Y117.630 E0.18915
G1 X161.880 Y117.630 E0.01676
G1 X157.620 Y113.370 E0.18915
G1 X157.086 Y113.370 E0.01676
G1 X161.346 Y117.630 E0.18915
G1 X160.812 Y117.630 E0.01676
G1 X156.552 Y113.370 E0.18915
G1 X156.018 Y113.370 E0.01676
G1 X160.278 Y117.630 E0.18915
G1 X159.744 Y117.630 E0.01676
G1 X155.484 Y113.370 E0.18915
G1 X154.950 Y113.370 E0.01676
G1 X159.210 Y117.630 E0.18915
G1 X158.676 Y117.630 E0.01676
G1 X154.416 Y113.370 E0.18915
G1 X153.882 Y113.370 E0.01676
G1 X158.142 Y117.630 E0.18915
G1 X157.608 Y117.630 E0.01676
G1 X153.348 Y113.370 E0.18915
G1 X152.814 Y113.370 E0.01676
G1 X157.075 Y117.630 E0.18915
G1 X156.541 Y117.630 E0.01676
G1 X152.280 Y113.370 E0.18915
G1 X151.746 Y113.370 E0.01676
G1 X156.007 Y117.630 E0.18915
G1 X155.473 Y117.630 E0.01676
G1 X151.212 Y113.370 E0.18915
G1 X150.678 Y113.370 E0.01676
G1 X154.939 Y117.630 E0.18915
G1 X154.405 Y117.630 E0.01676
G1 X150.145 Y113.370 E0.18915
G1 X149.611 Y113.370 E0.01676
G1 X153.871 Y117.630 E0.18915
G1 X153.337 Y117.630 E0.01676
G1 X149.077 Y113.370 E0.18915
G1 X148.543 Y113.370 E0.01676
G1 X152.803 Y117.630 E0.18915
G1 X152.269 Y117.630 E0.01676
G1 X148.009 Y113.370 E0.18915
G1 X147.475 Y113.370 E0.01676
G1 X151.735 Y117.630 E0.18915
G1 X151.201 Y117.630 E0.01676
G1 X146.941 Y113.370 E0.18915
G1 X146.407 Y113.370 E0.01676
G1 X150.667 Y117.630 E0.18915
G1 X150.133 Y117.630 E0.01676
G1 X145.873 Y113.370 E0.18915
G1 X145.339 Y113.370 E0.01676
G1 X149.599 Y117.630 E0.18915
G1 X149.065 Y117.630 E0.01676
G1 X144.805 Y113.370 E0.18915
G1 X144.271 Y113.370 E0.01676
G1 X148.531 Y117.630 E0.18915
G1 X147.997 Y117.630 E0.01676
G1 X143.737 Y113.370 E0.18915
G1 X143.203 Y113.370 E0.01676
G1 X147.463 Y117.630 E0.18915
G1 X146.930 Y117.630 E0.01676
G1 X142.669 Y113.370 E0.18915
G1 X142.135 Y113.370 E0.01676
G1 X146.396 Y117.630 E0.18915
G1 X145.862 Y117.630 E0.01676
G1 X141.601 Y113.370 E0.18915
G1 X141.067 Y113.370 E0.01676
G1 X145.328 Y117.630 E0.18915
G1 X144.794 Y117.630 E0.01676
G1 X140.533 Y113.370 E0.18915
G1 X140.000 Y113.370 E0.01676
G1 X144.260 Y117.630 E0.18915
G1 X143.726 Y117.630 E0.01676
G1 X139.466 Y113.370 E0.18915
G1 X138.932 Y113.370 E0.01676
G1 X143.192 Y117.630 E0.18915
G1 X142.658 Y117.630 E0.01676
G1 X138.398 Y113.370 E0.18915
G1 X137.864 Y113.370 E0.01676
G1 X142.124 Y117.630 E0.18915
G1 X141.590 Y117.630 E0.01676
G1 X137.330 Y113.370 E0.18915
G1 X136.796 Y113.370 E0.01676
G1 X141.056 Y117.630 E0.18915
G1 X140.522 Y117.630 E0.01676
G1 X136.262 Y113.370 E0.18915
G1 X135.728 Y113.370 E0.01676
G1 X139.988 Y117.630 E0.18915
G1 X139.454 Y117.630 E0.01676
G1 X135.194 Y113.370 E0.18915
G1 X134.660 Y113.370 E0.01676
G1 X138.920 Y117.630 E0.18915
G1 X138.386 Y117.630 E0.01676
G1 X134.126 Y113.370 E0.18915
G1 X133.592 Y113.370 E0.01676
G1 X137.852 Y117.630 E0.18915
G1 X137.318 Y117.630 E0.01676
G1 X133.058 Y113.370 E0.18915
G1 X132.524 Y113.370 E0.01676
G1 X136.784 Y117.630 E0.18915
G1 X136.251 Y117.630 E0.01676
G1 X131.990 Y113.370 E0.18915
G1 X131.456 Y113.370 E0.01676
G1 X135.717 Y117.630 E0.18915
G1 X135.183 Y117.630 E0.01676
G1 X130.922 Y113.370 E0.18915
G1 X130.388 Y113.370 E0.01676
G1 X134.649 Y117.630 E0.18915
G1 X134.115 Y117.630 E0.01676
G1 X129.854 Y113.370 E0.18915
G1 X129.321 Y113.370 E0.01676
G1 X133.581 Y117.630 E0.18915
G1 X133.047 Y117.630 E0.01676
G1 X128.787 Y113.370 E0.18915
G1 X128.253 Y113.370 E0.01676
G1 X132.513 Y117.630 E0.18915
G1 X131.979 Y117.630 E0.01676
G1 X127.719 Y113.370 E0.18915
G1 X127.185 Y113.370 E0.01676
G1 X131.445 Y117.630 E0.18915
G1 X130.911 Y117.630 E0.01676
G1 X126.651 Y113.370 E0.18915
G1 X126.117 Y113.370 E0.01676
G1 X130.377 Y117.630 E0.18915
G1 X129.843 Y117.630 E0.01676
G1 X125.583 Y113.370 E0.18915
G1 X125.049 Y113.370 E0.01676
G1 X129.309 Y117.630 E0.18915
G1 X128.775 Y117.630 E0.01676
G1 X124.515 Y113.370 E0.18915
G1 X123.981 Y113.370 E0.01676
G1 X128.241 Y117.630 E0.18915
G1 X127.707 Y117.630 E0.01676
G1 X123.447 Y113.370 E0.18915
G1 X122.913 Y113.370 E0.01676
G1 X127.173 Y117.630 E0.18915
G1 X126.639 Y117.630 E0.01676
G1 X122.379 Y113.370 E0.18915
G1 X121.845 Y113.370 E0.01676
G1 X126.105 Y117.630 E0.18915
G1 X125.572 Y117.630 E0.01676
G1 X121.311 Y113.370 E0.18915
G1 X120.777 Y113.370 E0.01676
G1 X125.038 Y117.630 E0.18915
G1 X124.504 Y117.630 E0.01676
G1 X120.243 Y113.370 E0.18915
G1 X119.709 Y113.370 E0.01676
G1 X123.970 Y117.630 E0.18915
G1 X123.436 Y117.630 E0.01676
G1 X119.176 Y113.370 E0.18915
G1 X118.642 Y113.370 E0.01676
G1 X122.902 Y117.630 E0.18915
G1 X122.368 Y117.630 E0.01676
G1 X118.108 Y113.370 E0.18915
G1 X117.574 Y113.370 E0.01676
G1 X121.834 Y117.630 E0.18915
G1 X121.300 Y117.630 E0.01676
G1 X117.040 Y113.370 E0.18915
G1 X116.506 Y113.370 E0.01676
G1 X120.766 Y117.630 E0.18915
G1 X120.232 Y117.630 E0.01676
G1 X115.972 Y113.370 E0.18915
G1 X115.438 Y113.370 E0.01676
G1 X119.698 Y117.630 E0.18915
G1 X119.164 Y117.630 E0.01676
G1 X114.904 Y113.370 E0.18915
G1 X114.370 Y113.370 E0.01676
G1 X118.630 Y117.630 E0.18915
G1 X118.096 Y117.630 E0.01676
G1 X113.836 Y113.370 E0.18915
G1 X113.302 Y113.370 E0.01676
G1 X117.562 Y117.630 E0.18915
G1 X117.028 Y117.630 E0.01676
G1 X112.768 Y113.370 E0.18915
G1 X112.234 Y113.370 E0.01676
G1 X116.494 Y117.630 E0.18915
G1 X115.960 Y117.630 E0.01676
G1 X111.700 Y113.370 E0.18915
G1 X111.166 Y113.370 E0.01676
G1 X115.427 Y117.630 E0.18915
G1 X114.893 Y117.630 E0.01676
G1 X110.632 Y113.370 E0.18915
G1 X110.098 Y113.370 E0.01676
G1 X114.359 Y117.630 E0.18915
G1 X113.825 Y117.630 E0.01676
G1 X109.564 Y113.370 E0.18915
G1 X109.030 Y113.370 E0.01676
G1 X113.291 Y117.630 E0.18915
G1 X112.757 Y117.630 E0.01676
G1 X108.497 Y113.370 E0.18915
G1 X107.963 Y113.370 E0.01676
G1 X112.223 Y117.630 E0.18915
G1 X111.689 Y117.630 E0.01676
G1 X107.429 Y113.370 E0.18915
G1 X106.895 Y113.370 E0.01676
G1 X111.155 Y117.630 E0.18915
G1 X110.621 Y117.630 E0.01676
G1 X106.361 Y113.370 E0.18915
G1 X105.827 Y113.370 E0.01676
G1 X110.087 Y117.630 E0.18915
G1 X109.553 Y117.630 E0.01676
G1 X105.293 Y113.370 E0.18915
G1 X104.759 Y113.370 E0.01676
G1 X109.019 Y117.630 E0.18915
G1 X108.485 Y117.630 E0.01676
G1 X104.225 Y113.370 E0.18915
G1 X103.691 Y113.370 E0.01676
G1 X107.951 Y117.630 E0.18915
G1 X107.417 Y117.630 E0.01676
G1 X103.157 Y113.370 E0.18915
G1 X102.623 Y113.370 E0.01676
G1 X106.883 Y117.630 E0.18915
G1 X106.349 Y117.630 E0.01676
G1 X102.089 Y113.370 E0.18915
G1 X101.555 Y113.370 E0.01676
G1 X105.815 Y117.630 E0.18915
G1 X105.281 Y117.630 E0.01676
G1 X101.021 Y113.370 E0.18915
G1 X100.487 Y113.370 E0.01676
G1 X104.748 Y117.630 E0.18915
G1 X104.214 Y117.630 E0.01676
G1 X99.953 Y113.370 E0.18915
G1 X99.419 Y113.370 E0.01676
G1 X103.680 Y117.630 E0.18915
G1 X103.146 Y117.630 E0.01676
G1 X98.885 Y113.370 E0.18915
G1 X98.351 Y113.370 E0.01676
G1 X102.612 Y117.630 E0.18915
G1 X102.078 Y117.630 E0.01676
G1 X97.818 Y113.370 E0.18915
G1 X97.284 Y113.370 E0.01676
G1 X101.544 Y117.630 E0.18915
G1 X101.010 Y117.630 E0.01676
G1 X96.750 Y113.370 E0.18915
G1 X96.216 Y113.370 E0.01676
G1 X100.476 Y117.630 E0.18915
G1 X99.942 Y117.630 E0.01676
G1 X95.682 Y113.370 E0.18915
G1 X95.148 Y113.370 E0.01676
G1 X99.408 Y117.630 E0.18915
G1 X98.874 Y117.630 E0.01676
G1 X94.614 Y113.370 E0.18915
G1 X94.080 Y113.370 E0.01676
G1 X98.340 Y117.630 E0.18915
G1 X97.806 Y117.630 E0.01676
G1 X93.546 Y113.370 E0.18915
G1 X93.012 Y113.370 E0.01676
G1 X97.272 Y117.630 E0.18915
G1 X96.738 Y117.630 E0.01676
G1 X92.478 Y113.370 E0.18915
G1 X91.944 Y113.370 E0.01676
G1 X96.204 Y117.630 E0.18915
G1 X95.670 Y117.630 E0.01676
G1 X91.410 Y113.370 E0.18915
G1 X90.876 Y113.370 E0.01676
G1 X95.136 Y117.630 E0.18915
G1 X94.603 Y117.630 E0.01676
G1 X90.342 Y113.370 E0.18915
G1 X89.808 Y113.370 E0.01676
G1 X94.069 Y117.630 E0.18915
G1 X93.535 Y117.630 E0.01676
G1 X89.274 Y113.370 E0.18915
G1 X88.740 Y113.370 E0.01676
G1 X93.001 Y117.630 E0.18915
G1 X92.467 Y117.630 E0.01676
G1 X88.206 Y113.370 E0.18915
G1 X87.673 Y113.370 E0.01676
G1 X91.933 Y117.630 E0.18915
G1 X91.399 Y117.630 E0.01676
G1 X87.139 Y113.370 E0.18915
G1 X86.605 Y113.370 E0.01676
G1 X90.865 Y117.630 E0.18915
G1 X90.331 Y117.630 E0.01676
G1 X86.071 Y113.370 E0.18915
G1 X85.537 Y113.370 E0.01676
G1 X89.797 Y117.630 E0.18915
G1 X89.263 Y117.630 E0.01676
G1 X85.003 Y113.370 E0.18915
G1 X84.469 Y113.370 E0.01676
G1 X88.729 Y117.630 E0.18915
G1 X88.195 Y117.630 E0.01676
G1 X83.935 Y113.370 E0.18915
G1 X83.401 Y113.370 E0.01676
G1 X87.661 Y117.630 E0.18915
G1 X87.127 Y117.630 E0.01676
G1 X82.867 Y113.370 E0.18915
G1 X82.333 Y113.370 E0.01676
G1 X86.593 Y117.630 E0.18915
G1 X86.059 Y117.630 E0.01676
G1 X81.799 Y113.370 E0.18915
G1 X81.265 Y113.370 E0.01676
G1 X85.525 Y117.630 E0.18915
G1 X84.991 Y117.630 E0.01676
G1 X80.731 Y113.370 E0.18915
G1 X80.197 Y113.370 E0.01676
G1 X84.457 Y117.630 E0.18915
G1 X83.924 Y117.630 E0.01676
G1 X79.663 Y113.370 E0.18915
G1 X79.129 Y113.370 E0.01676
G1 X83.390 Y117.630 E0.18915
G1 X82.856 Y117.630 E0.01676
G1 X78.595 Y113.370 E0.18915
G1 X78.061 Y113.370 E0.01676
G1 X82.322 Y117.630 E0.18915
G1 X81.788 Y117.630 E0.01676
G1 X77.527 Y113.370 E0.18915
G1 X76.994 Y113.370 E0.01676
G1 X81.254 Y117.630 E0.18915
G1 X80.720 Y117.630 E0.01676
G1 X76.460 Y113.370 E0.18915
G1 X75.926 Y113.370 E0.01676
G1 X80.186 Y117.630 E0.18915
G1 X79.652 Y117.630 E0.01676
G1 X75.392 Y113.370 E0.18915
G1 X74.858 Y113.370 E0.01676
G1 X79.118 Y117.630 E0.18915
G1 X78.584 Y117.630 E0.01676
G1 X74.324 Y113.370 E0.18915
G1 X73.790 Y113.370 E0.01676
G1 X78.050 Y117.630 E0.18915
G1 X77.516 Y117.630 E0.01676
G1 X73.256 Y113.370 E0.18915
G1 X72.722 Y113.370 E0.01676
G1 X76.982 Y117.630 E0.18915
G1 X76.448 Y117.630 E0.01676
G1 X72.188 Y113.370 E0.18915
G1 X71.654 Y113.370 E0.01676
G1 X75.914 Y117.630 E0.18915
G1 X75.380 Y117.630 E0.01676
G1 X71.120 Y113.370 E0.18915
G1 X70.586 Y113.370 E0.01676
G1 X74.846 Y117.630 E0.18915
G1 X74.312 Y117.630 E0.01676
G1 X70.052 Y113.370 E0.18915
G1 X69.518 Y113.370 E0.01676
G1 X73.778 Y117.630 E0.18915
G1 X73.245 Y117.630 E0.01676
G1 X68.984 Y113.370 E0.18915
G1 X68.450 Y113.370 E0.01676
G1 X72.711 Y117.630 E0.18915
G1 X72.177 Y117.630 E0.01676
G1 X67.916 Y113.370 E0.18915
G1 X67.382 Y113.370 E0.01676
G1 X71.643 Y117.630 E0.18915
G1 X71.109 Y117.630 E0.01676
G1 X66.848 Y113.370 E0.18915
G1 X66.315 Y113.370 E0.01676
G1 X70.575 Y117.630 E0.18915
G1 X70.041 Y117.630 E0.01676
G1 X65.781 Y113.370 E0.18915
G1 X65.247 Y113.370 E0.01676
G1 X69.507 Y117.630 E0.18915
G1 X68.973 Y117.630 E0.01676
G1 X64.713 Y113.370 E0.18915
G1 X64.179 Y113.370 E0.01676
G1 X68.439 Y117.630 E0.18915
G1 X67.905 Y117.630 E0.01676
G1 X63.645 Y113.370 E0.18915
G1 X63.111 Y113.370 E0.01676
G1 X67.371 Y117.630 E0.18915
G1 X66.837 Y117.630 E0.01676
G1 X62.577 Y113.370 E0.18915
G1 X62.043 Y113.370 E0.01676
G1 X66.303 Y117.630 E0.18915
G1 X65.769 Y117.630 E0.01676
G1 X61.509 Y113.370 E0.18915
G1 X60.975 Y113.370 E0.01676
G1 X65.235 Y117.630 E0.18915
G1 X64.701 Y117.630 E0.01676
G1 X60.441 Y113.370 E0.18915
G1 X59.907 Y113.370 E0.01676
G1 X64.167 Y117.630 E0.18915
G1 X63.633 Y117.630 E0.01676
G1 X59.373 Y113.370 E0.18915
G1 X58.839 Y113.370 E0.01676
G1 X63.100 Y117.630 E0.18915
G1 X62.566 Y117.630 E0.01676
G1 X58.305 Y113.370 E0.18915
G1 X57.870 Y113.370 E0.01367
G1 X57.870 Y113.468 E0.00309
G1 X62.032 Y117.630 E0.18477
G1 X61.498 Y117.630 E0.01676
G1 X57.870 Y114.002 E0.16107
G1 X57.870 Y114.536 E0.01676
G1 X60.964 Y117.630 E0.13736
G1 X60.430 Y117.630 E0.01676
G1 X57.870 Y115.070 E0.11365
G1 X57.870 Y115.604 E0.01676
